<?xml version="1.0" encoding="UTF-8"?>
<map version="1.10" tiledversion="1.11.0" orientation="orthogonal" renderorder="right-down" width="46" height="30" tilewidth="8" tileheight="8" infinite="0" nextlayerid="2" nextobjectid="1">
 <tileset firstgid="1" name="MenuTiles" tilewidth="8" tileheight="8" tilecount="128" columns="16">
  <image source="MenuTiles.png" width="128" height="64"/>
 </tileset>
 <layer id="1" name="Tile Layer 1" width="46" height="30">
  <properties>
   <property name="PaletteID" type="int" value="0"/>
  </properties>
  <data encoding="csv">
2147483653,4,4,4,4,4,4,4,4,4,4,4,5,2147483653,4,21,22,2147483669,4,5,1,2147483653,4,4,4,4,4,4,4,5,2147483653,4,4,4,4,4,4,4,4,5,1,1,1,1,1,1,
6,25,26,15,15,15,15,15,15,15,15,2147483654,2147483654,6,10,10,10,10,10,2147483654,1,6,10,10,10,10,10,10,10,2147483654,6,10,10,10,10,10,10,10,10,2147483654,1,1,1,1,1,1,
6,15,15,15,15,15,15,15,15,15,81,2147483654,2147483654,6,10,10,10,10,10,2147483654,1,6,10,10,10,10,10,10,10,2147483654,6,17,18,18,18,18,18,18,18,2147483654,1,1,1,1,1,1,
6,15,15,15,15,15,15,15,15,81,83,2147483654,2147483654,15,16,16,16,16,16,2147483663,1,6,10,10,10,10,10,10,10,2147483654,2147483682,24,24,36,26,26,3221225504,10,10,2147483654,1,1,1,1,1,1,
6,15,15,15,15,15,15,15,81,83,85,2147483654,2147483654,1073741839,16,16,16,16,16,3221225487,1,6,10,10,10,10,10,10,10,2147483654,6,10,10,1073741852,29,29,3221225500,10,10,2147483654,1,1,1,1,1,1,
3221225477,1073741828,1073741828,1073741828,1073741828,1073741828,1073741828,1073741828,1073741828,1073741828,1073741828,1073741828,1073741829,3221225477,1073741828,1073741828,1073741828,1073741828,1073741828,1073741829,1,3221225477,1073741828,1073741828,1073741828,1073741828,1073741828,1073741828,1073741828,1073741829,6,10,10,1073741852,29,29,3221225500,10,10,2147483654,1,1,1,1,1,1,
2147483653,4,4,4,4,4,19,4,4,4,4,4,5,1,1,1,1,1,1,1,1,1,1,1,1,1,1,1,1,1,6,10,10,1073741852,29,29,3221225500,10,10,2147483654,1,1,1,1,1,1,
6,10,10,10,10,10,20,10,10,10,10,10,2147483654,2,3,4,4,4,4,5,1,2147483653,4,4,4,4,4,4,4,5,6,10,10,1073741852,29,29,3221225500,10,10,2147483654,1,1,1,1,1,1,
6,10,10,10,10,10,20,10,10,10,10,10,2147483654,6,10,10,10,10,10,2147483654,1,6,10,10,10,10,10,10,10,2147483654,6,10,10,1073741852,29,29,3221225500,10,10,2147483654,1,1,1,1,1,1,
2147483682,24,24,24,24,24,35,24,24,24,24,24,34,6,123,124,124,124,124,2147483654,1,6,10,10,10,10,10,10,10,2147483654,6,10,10,1073741852,29,29,3221225500,10,10,2147483654,1,1,1,1,1,1,
6,10,10,10,10,10,10,10,10,10,10,10,2147483654,6,10,10,10,10,10,2147483654,1,3221225477,1073741828,1073741828,1073741828,1073741828,1073741828,1073741828,1073741828,1073741829,6,10,10,32,1073741850,1073741850,3221225508,1073741848,1073741848,1073741858,1,1,1,1,1,1,
6,10,10,10,10,10,10,10,10,10,10,10,2147483654,6,10,10,10,10,10,2147483654,1,1,1,1,1,1,1,1,1,1,6,10,10,10,10,10,10,10,10,2147483654,1,1,1,1,1,1,
6,10,10,10,10,10,10,10,10,10,10,10,2147483654,6,10,10,10,10,10,2147483654,1,2147483653,4,4,4,4,4,4,4,5,6,18,18,18,18,18,18,18,2147483665,2147483654,1,1,1,1,1,1,
6,10,10,10,10,10,10,10,10,10,10,10,2147483654,6,10,10,10,10,10,2147483654,1,6,10,10,10,10,10,10,10,2147483654,6,10,10,10,10,10,10,10,10,2147483654,1,1,1,1,1,1,
6,10,10,10,10,10,10,10,10,10,10,10,2147483654,6,10,10,10,10,10,2147483654,1,6,10,10,10,10,10,10,10,2147483654,6,10,10,10,10,10,10,10,10,2147483654,1,1,1,1,1,1,
6,10,10,10,10,10,10,10,10,10,10,10,2147483654,6,10,10,10,10,10,2147483654,1,6,10,10,10,10,10,10,10,2147483654,3221225477,3221225476,3221225476,3221225476,3221225476,3221225476,3221225476,3221225476,1073741828,1073741829,1,1,1,1,1,1,
6,10,10,10,10,10,10,10,10,10,10,10,2147483654,6,10,10,10,10,10,2147483654,1,6,10,10,10,10,10,10,10,2147483654,1,1,1,1,1,1,1,1,1,1,1,1,1,1,1,1,
3221225477,1073741828,1073741828,1073741828,1073741828,1073741828,1073741828,1073741828,1073741828,1073741828,1073741828,1073741828,1073741829,3221225477,1073741828,1073741828,1073741828,1073741828,1073741828,1073741829,1,3221225477,1073741828,1073741828,1073741828,1073741828,1073741828,1073741828,1073741828,1073741829,1,1,1,1,1,1,1,1,1,1,1,1,1,1,1,1,
1,1,1,1,1,1,1,1,1,1,1,1,1,1,1,1,1,1,1,1,1,1,1,1,1,1,1,1,1,1,1,1,1,1,1,1,1,1,1,1,1,1,1,1,1,1,
2147483653,4,4,4,4,4,4,4,4,4,4,4,5,2147483653,4,4,4,4,4,4,4,4,4,4,4,4,4,4,4,5,1,1,1,1,1,1,1,1,1,1,1,1,1,1,1,1,
6,10,10,10,10,10,10,10,10,10,10,10,2147483654,6,10,10,10,10,10,10,10,10,10,10,10,10,10,10,10,2147483654,1,1,1,1,1,1,1,1,1,1,1,1,1,1,1,1,
6,10,10,10,10,10,10,10,10,10,10,10,2147483654,6,10,10,10,10,10,10,10,10,10,10,10,10,10,10,10,2147483654,1,1,1,1,1,1,1,1,1,1,1,1,1,1,1,1,
6,10,10,10,10,10,10,10,10,10,10,10,2147483654,6,10,10,10,10,10,10,10,10,10,10,10,10,10,10,10,2147483654,1,1,1,1,1,1,1,1,1,1,1,1,1,1,1,1,
6,10,10,10,10,10,10,10,10,10,10,10,2147483654,6,10,10,10,10,10,10,10,10,10,10,10,10,10,10,10,2147483654,1,1,1,1,1,1,1,1,1,1,1,1,1,1,1,1,
3221225477,1073741828,1073741828,1073741828,1073741828,1073741828,1073741828,1073741828,1073741828,1073741828,1073741828,1073741828,1073741829,3221225477,1073741828,1073741828,1073741828,1073741828,1073741828,1073741828,1073741828,1073741828,1073741828,1073741828,1073741828,1073741828,1073741828,1073741828,1073741828,1073741829,1,1,1,1,1,1,1,1,1,1,1,1,1,1,1,1,
1,1,1,1,1,1,1,1,1,1,1,1,1,1,1,1,1,1,1,1,1,1,1,1,1,1,1,1,1,1,1,1,1,1,1,1,1,1,1,1,1,1,1,1,1,1,
1,1,1,1,1,1,1,1,1,1,1,1,1,1,1,1,1,1,1,1,1,1,1,1,1,1,1,1,1,1,1,1,1,1,1,1,1,1,1,1,1,1,1,1,1,1,
1,1,1,1,1,1,1,1,1,1,1,1,1,1,1,1,1,1,1,1,1,1,1,1,1,1,1,1,1,1,1,1,1,1,1,1,1,1,1,1,1,1,1,1,1,1,
1,1,1,1,1,1,1,1,1,1,1,1,1,1,1,1,1,1,1,1,1,1,1,1,1,1,1,1,1,1,1,1,1,1,1,1,1,1,1,1,1,1,1,1,1,1,
1,1,1,1,1,1,1,1,1,1,1,1,1,1,1,1,1,1,1,1,1,1,1,1,1,1,1,1,1,1,1,1,1,1,1,1,1,1,1,1,1,1,1,1,1,1
</data>
 </layer>
</map>
