<?xml version="1.0" encoding="UTF-8"?>
<map version="1.10" tiledversion="1.11.0" orientation="orthogonal" renderorder="right-down" width="21" height="28" tilewidth="16" tileheight="16" infinite="0" nextlayerid="5" nextobjectid="1">
 <tileset firstgid="1" name="01000201" tilewidth="16" tileheight="16" tilecount="1024" columns="32">
  <image source="01000201 (2).png" trans="ffffff" width="512" height="512"/>
 </tileset>
 <layer id="1" name="Tile Layer 1" width="21" height="28">
  <properties>
   <property name="Anims1" value="0"/>
   <property name="Anims2" value="0"/>
   <property name="ChapterID" value="Chapter14"/>
   <property name="Main" value=""/>
   <property name="MapChangesID" value="MapChange14ID"/>
   <property name="MapID" value="Map14ID"/>
   <property name="ObjectType" value="Castle1OBJ"/>
   <property name="PaletteID" value="Castle1PAL"/>
   <property name="TileConfig" value="CastleCONFIG"/>
  </properties>
  <data>
   <tile gid="492"/>
   <tile gid="781"/>
   <tile gid="779"/>
   <tile gid="779"/>
   <tile gid="779"/>
   <tile gid="779"/>
   <tile gid="584"/>
   <tile gid="623"/>
   <tile gid="629"/>
   <tile gid="884"/>
   <tile gid="884"/>
   <tile gid="884"/>
   <tile gid="623"/>
   <tile gid="629"/>
   <tile gid="584"/>
   <tile gid="815"/>
   <tile gid="779"/>
   <tile gid="779"/>
   <tile gid="779"/>
   <tile gid="779"/>
   <tile gid="492"/>
   <tile gid="492"/>
   <tile gid="781"/>
   <tile gid="779"/>
   <tile gid="779"/>
   <tile gid="779"/>
   <tile gid="779"/>
   <tile gid="616"/>
   <tile gid="623"/>
   <tile gid="629"/>
   <tile gid="798"/>
   <tile gid="917"/>
   <tile gid="800"/>
   <tile gid="623"/>
   <tile gid="629"/>
   <tile gid="616"/>
   <tile gid="815"/>
   <tile gid="779"/>
   <tile gid="779"/>
   <tile gid="779"/>
   <tile gid="779"/>
   <tile gid="492"/>
   <tile gid="492"/>
   <tile gid="788"/>
   <tile gid="723"/>
   <tile gid="787"/>
   <tile gid="723"/>
   <tile gid="787"/>
   <tile gid="648"/>
   <tile gid="623"/>
   <tile gid="720"/>
   <tile gid="830"/>
   <tile gid="625"/>
   <tile gid="832"/>
   <tile gid="720"/>
   <tile gid="629"/>
   <tile gid="648"/>
   <tile gid="788"/>
   <tile gid="723"/>
   <tile gid="787"/>
   <tile gid="723"/>
   <tile gid="787"/>
   <tile gid="492"/>
   <tile gid="492"/>
   <tile gid="721"/>
   <tile gid="34"/>
   <tile gid="721"/>
   <tile gid="786"/>
   <tile gid="722"/>
   <tile gid="743"/>
   <tile gid="623"/>
   <tile gid="943"/>
   <tile gid="720"/>
   <tile gid="693"/>
   <tile gid="720"/>
   <tile gid="943"/>
   <tile gid="629"/>
   <tile gid="743"/>
   <tile gid="721"/>
   <tile gid="786"/>
   <tile gid="722"/>
   <tile gid="34"/>
   <tile gid="721"/>
   <tile gid="492"/>
   <tile gid="492"/>
   <tile gid="785"/>
   <tile gid="723"/>
   <tile gid="34"/>
   <tile gid="721"/>
   <tile gid="786"/>
   <tile gid="492"/>
   <tile gid="977"/>
   <tile gid="691"/>
   <tile gid="943"/>
   <tile gid="626"/>
   <tile gid="943"/>
   <tile gid="692"/>
   <tile gid="690"/>
   <tile gid="492"/>
   <tile gid="785"/>
   <tile gid="722"/>
   <tile gid="34"/>
   <tile gid="724"/>
   <tile gid="786"/>
   <tile gid="492"/>
   <tile gid="492"/>
   <tile gid="721"/>
   <tile gid="786"/>
   <tile gid="723"/>
   <tile gid="786"/>
   <tile gid="722"/>
   <tile gid="491"/>
   <tile gid="877"/>
   <tile gid="689"/>
   <tile gid="691"/>
   <tile gid="626"/>
   <tile gid="692"/>
   <tile gid="690"/>
   <tile gid="842"/>
   <tile gid="491"/>
   <tile gid="721"/>
   <tile gid="786"/>
   <tile gid="723"/>
   <tile gid="786"/>
   <tile gid="722"/>
   <tile gid="492"/>
   <tile gid="427"/>
   <tile gid="430"/>
   <tile gid="721"/>
   <tile gid="786"/>
   <tile gid="429"/>
   <tile gid="427"/>
   <tile gid="522"/>
   <tile gid="877"/>
   <tile gid="842"/>
   <tile gid="689"/>
   <tile gid="628"/>
   <tile gid="690"/>
   <tile gid="842"/>
   <tile gid="842"/>
   <tile gid="521"/>
   <tile gid="427"/>
   <tile gid="430"/>
   <tile gid="785"/>
   <tile gid="722"/>
   <tile gid="429"/>
   <tile gid="427"/>
   <tile gid="779"/>
   <tile gid="782"/>
   <tile gid="418"/>
   <tile gid="419"/>
   <tile gid="815"/>
   <tile gid="779"/>
   <tile gid="429"/>
   <tile gid="427"/>
   <tile gid="522"/>
   <tile gid="876"/>
   <tile gid="842"/>
   <tile gid="842"/>
   <tile gid="521"/>
   <tile gid="427"/>
   <tile gid="430"/>
   <tile gid="815"/>
   <tile gid="782"/>
   <tile gid="418"/>
   <tile gid="419"/>
   <tile gid="815"/>
   <tile gid="779"/>
   <tile gid="779"/>
   <tile gid="782"/>
   <tile gid="545"/>
   <tile gid="547"/>
   <tile gid="815"/>
   <tile gid="779"/>
   <tile gid="781"/>
   <tile gid="779"/>
   <tile gid="491"/>
   <tile gid="453"/>
   <tile gid="455"/>
   <tile gid="454"/>
   <tile gid="491"/>
   <tile gid="815"/>
   <tile gid="782"/>
   <tile gid="815"/>
   <tile gid="782"/>
   <tile gid="545"/>
   <tile gid="547"/>
   <tile gid="815"/>
   <tile gid="779"/>
   <tile gid="844"/>
   <tile gid="911"/>
   <tile gid="875"/>
   <tile gid="844"/>
   <tile gid="911"/>
   <tile gid="875"/>
   <tile gid="781"/>
   <tile gid="779"/>
   <tile gid="783"/>
   <tile gid="453"/>
   <tile gid="455"/>
   <tile gid="454"/>
   <tile gid="783"/>
   <tile gid="815"/>
   <tile gid="782"/>
   <tile gid="875"/>
   <tile gid="911"/>
   <tile gid="875"/>
   <tile gid="844"/>
   <tile gid="911"/>
   <tile gid="875"/>
   <tile gid="843"/>
   <tile gid="880"/>
   <tile gid="813"/>
   <tile gid="842"/>
   <tile gid="880"/>
   <tile gid="813"/>
   <tile gid="844"/>
   <tile gid="911"/>
   <tile gid="783"/>
   <tile gid="453"/>
   <tile gid="455"/>
   <tile gid="454"/>
   <tile gid="783"/>
   <tile gid="847"/>
   <tile gid="875"/>
   <tile gid="842"/>
   <tile gid="880"/>
   <tile gid="813"/>
   <tile gid="842"/>
   <tile gid="880"/>
   <tile gid="813"/>
   <tile gid="375"/>
   <tile gid="342"/>
   <tile gid="453"/>
   <tile gid="454"/>
   <tile gid="341"/>
   <tile gid="346"/>
   <tile gid="842"/>
   <tile gid="880"/>
   <tile gid="904"/>
   <tile gid="937"/>
   <tile gid="938"/>
   <tile gid="939"/>
   <tile gid="844"/>
   <tile gid="880"/>
   <tile gid="813"/>
   <tile gid="347"/>
   <tile gid="342"/>
   <tile gid="453"/>
   <tile gid="454"/>
   <tile gid="341"/>
   <tile gid="375"/>
   <tile gid="779"/>
   <tile gid="782"/>
   <tile gid="453"/>
   <tile gid="454"/>
   <tile gid="781"/>
   <tile gid="341"/>
   <tile gid="375"/>
   <tile gid="375"/>
   <tile gid="346"/>
   <tile gid="969"/>
   <tile gid="970"/>
   <tile gid="971"/>
   <tile gid="347"/>
   <tile gid="375"/>
   <tile gid="375"/>
   <tile gid="342"/>
   <tile gid="783"/>
   <tile gid="453"/>
   <tile gid="454"/>
   <tile gid="781"/>
   <tile gid="779"/>
   <tile gid="779"/>
   <tile gid="782"/>
   <tile gid="453"/>
   <tile gid="454"/>
   <tile gid="781"/>
   <tile gid="781"/>
   <tile gid="779"/>
   <tile gid="779"/>
   <tile gid="341"/>
   <tile gid="375"/>
   <tile gid="375"/>
   <tile gid="375"/>
   <tile gid="342"/>
   <tile gid="815"/>
   <tile gid="779"/>
   <tile gid="782"/>
   <tile gid="783"/>
   <tile gid="453"/>
   <tile gid="454"/>
   <tile gid="781"/>
   <tile gid="779"/>
   <tile gid="757"/>
   <tile gid="757"/>
   <tile gid="725"/>
   <tile gid="725"/>
   <tile gid="757"/>
   <tile gid="781"/>
   <tile gid="779"/>
   <tile gid="779"/>
   <tile gid="781"/>
   <tile gid="779"/>
   <tile gid="779"/>
   <tile gid="779"/>
   <tile gid="782"/>
   <tile gid="815"/>
   <tile gid="779"/>
   <tile gid="782"/>
   <tile gid="664"/>
   <tile gid="725"/>
   <tile gid="725"/>
   <tile gid="757"/>
   <tile gid="757"/>
   <tile gid="725"/>
   <tile gid="725"/>
   <tile gid="725"/>
   <tile gid="725"/>
   <tile gid="725"/>
   <tile gid="311"/>
   <tile gid="312"/>
   <tile gid="312"/>
   <tile gid="783"/>
   <tile gid="149"/>
   <tile gid="783"/>
   <tile gid="149"/>
   <tile gid="783"/>
   <tile gid="312"/>
   <tile gid="312"/>
   <tile gid="313"/>
   <tile gid="695"/>
   <tile gid="725"/>
   <tile gid="725"/>
   <tile gid="725"/>
   <tile gid="725"/>
   <tile gid="312"/>
   <tile gid="569"/>
   <tile gid="571"/>
   <tile gid="312"/>
   <tile gid="312"/>
   <tile gid="533"/>
   <tile gid="485"/>
   <tile gid="213"/>
   <tile gid="182"/>
   <tile gid="181"/>
   <tile gid="182"/>
   <tile gid="181"/>
   <tile gid="182"/>
   <tile gid="213"/>
   <tile gid="485"/>
   <tile gid="534"/>
   <tile gid="312"/>
   <tile gid="312"/>
   <tile gid="569"/>
   <tile gid="571"/>
   <tile gid="312"/>
   <tile gid="344"/>
   <tile gid="633"/>
   <tile gid="635"/>
   <tile gid="344"/>
   <tile gid="344"/>
   <tile gid="287"/>
   <tile gid="182"/>
   <tile gid="213"/>
   <tile gid="213"/>
   <tile gid="213"/>
   <tile gid="485"/>
   <tile gid="213"/>
   <tile gid="213"/>
   <tile gid="213"/>
   <tile gid="182"/>
   <tile gid="284"/>
   <tile gid="344"/>
   <tile gid="344"/>
   <tile gid="633"/>
   <tile gid="635"/>
   <tile gid="344"/>
   <tile gid="274"/>
   <tile gid="369"/>
   <tile gid="232"/>
   <tile gid="5"/>
   <tile gid="5"/>
   <tile gid="343"/>
   <tile gid="344"/>
   <tile gid="344"/>
   <tile gid="344"/>
   <tile gid="287"/>
   <tile gid="517"/>
   <tile gid="284"/>
   <tile gid="344"/>
   <tile gid="344"/>
   <tile gid="344"/>
   <tile gid="345"/>
   <tile gid="5"/>
   <tile gid="5"/>
   <tile gid="271"/>
   <tile gid="272"/>
   <tile gid="481"/>
   <tile gid="306"/>
   <tile gid="232"/>
   <tile gid="67"/>
   <tile gid="67"/>
   <tile gid="195"/>
   <tile gid="5"/>
   <tile gid="5"/>
   <tile gid="5"/>
   <tile gid="5"/>
   <tile gid="219"/>
   <tile gid="182"/>
   <tile gid="218"/>
   <tile gid="5"/>
   <tile gid="5"/>
   <tile gid="5"/>
   <tile gid="5"/>
   <tile gid="67"/>
   <tile gid="199"/>
   <tile gid="369"/>
   <tile gid="232"/>
   <tile gid="688"/>
   <tile gid="942"/>
   <tile gid="67"/>
   <tile gid="972"/>
   <tile gid="974"/>
   <tile gid="131"/>
   <tile gid="485"/>
   <tile gid="70"/>
   <tile gid="67"/>
   <tile gid="67"/>
   <tile gid="1001"/>
   <tile gid="568"/>
   <tile gid="1003"/>
   <tile gid="67"/>
   <tile gid="67"/>
   <tile gid="195"/>
   <tile gid="485"/>
   <tile gid="70"/>
   <tile gid="271"/>
   <tile gid="272"/>
   <tile gid="195"/>
   <tile gid="67"/>
   <tile gid="195"/>
   <tile gid="399"/>
   <tile gid="1004"/>
   <tile gid="1006"/>
   <tile gid="67"/>
   <tile gid="517"/>
   <tile gid="102"/>
   <tile gid="311"/>
   <tile gid="312"/>
   <tile gid="533"/>
   <tile gid="600"/>
   <tile gid="534"/>
   <tile gid="312"/>
   <tile gid="313"/>
   <tile gid="67"/>
   <tile gid="517"/>
   <tile gid="102"/>
   <tile gid="271"/>
   <tile gid="369"/>
   <tile gid="210"/>
   <tile gid="67"/>
   <tile gid="980"/>
   <tile gid="578"/>
   <tile gid="67"/>
   <tile gid="67"/>
   <tile gid="100"/>
   <tile gid="5"/>
   <tile gid="67"/>
   <tile gid="219"/>
   <tile gid="284"/>
   <tile gid="344"/>
   <tile gid="632"/>
   <tile gid="344"/>
   <tile gid="287"/>
   <tile gid="218"/>
   <tile gid="67"/>
   <tile gid="5"/>
   <tile gid="67"/>
   <tile gid="231"/>
   <tile gid="369"/>
   <tile gid="200"/>
   <tile gid="67"/>
   <tile gid="67"/>
   <tile gid="67"/>
   <tile gid="67"/>
   <tile gid="609"/>
   <tile gid="132"/>
   <tile gid="67"/>
   <tile gid="311"/>
   <tile gid="533"/>
   <tile gid="218"/>
   <tile gid="5"/>
   <tile gid="656"/>
   <tile gid="5"/>
   <tile gid="219"/>
   <tile gid="534"/>
   <tile gid="313"/>
   <tile gid="195"/>
   <tile gid="67"/>
   <tile gid="67"/>
   <tile gid="231"/>
   <tile gid="306"/>
   <tile gid="274"/>
   <tile gid="67"/>
   <tile gid="67"/>
   <tile gid="67"/>
   <tile gid="67"/>
   <tile gid="311"/>
   <tile gid="312"/>
   <tile gid="533"/>
   <tile gid="284"/>
   <tile gid="345"/>
   <tile gid="620"/>
   <tile gid="485"/>
   <tile gid="621"/>
   <tile gid="343"/>
   <tile gid="287"/>
   <tile gid="534"/>
   <tile gid="312"/>
   <tile gid="313"/>
   <tile gid="67"/>
   <tile gid="67"/>
   <tile gid="67"/>
   <tile gid="231"/>
   <tile gid="453"/>
   <tile gid="454"/>
   <tile gid="503"/>
   <tile gid="193"/>
   <tile gid="219"/>
   <tile gid="284"/>
   <tile gid="344"/>
   <tile gid="345"/>
   <tile gid="594"/>
   <tile gid="627"/>
   <tile gid="517"/>
   <tile gid="1010"/>
   <tile gid="595"/>
   <tile gid="343"/>
   <tile gid="344"/>
   <tile gid="287"/>
   <tile gid="218"/>
   <tile gid="67"/>
   <tile gid="195"/>
   <tile gid="341"/>
   <tile gid="375"/>
   <tile gid="53"/>
   <tile gid="54"/>
   <tile gid="535"/>
   <tile gid="193"/>
   <tile gid="1001"/>
   <tile gid="1003"/>
   <tile gid="5"/>
   <tile gid="5"/>
   <tile gid="5"/>
   <tile gid="652"/>
   <tile gid="562"/>
   <tile gid="653"/>
   <tile gid="5"/>
   <tile gid="5"/>
   <tile gid="5"/>
   <tile gid="1001"/>
   <tile gid="1003"/>
   <tile gid="67"/>
   <tile gid="67"/>
   <tile gid="422"/>
   <tile gid="825"/>
   <tile gid="53"/>
   <tile gid="54"/>
   <tile gid="535"/>
   <tile gid="193"/>
   <tile gid="219"/>
   <tile gid="534"/>
   <tile gid="313"/>
   <tile gid="195"/>
   <tile gid="67"/>
   <tile gid="67"/>
   <tile gid="688"/>
   <tile gid="67"/>
   <tile gid="67"/>
   <tile gid="195"/>
   <tile gid="311"/>
   <tile gid="533"/>
   <tile gid="218"/>
   <tile gid="195"/>
   <tile gid="67"/>
   <tile gid="423"/>
   <tile gid="823"/>
  </data>
 </layer>
 <layer id="2" name="Map Change 0" width="21" height="28" visible="0">
  <properties>
   <property name="Height" value="10"/>
   <property name="ID" value="0"/>
   <property name="Width" value="15"/>
   <property name="X" value="0"/>
   <property name="Y" value="0"/>
  </properties>
  <data>
   <tile gid="848"/>
   <tile gid="848"/>
   <tile gid="848"/>
   <tile gid="848"/>
   <tile gid="848"/>
   <tile gid="848"/>
   <tile gid="848"/>
   <tile gid="848"/>
   <tile gid="848"/>
   <tile gid="848"/>
   <tile gid="848"/>
   <tile gid="848"/>
   <tile gid="848"/>
   <tile gid="848"/>
   <tile gid="848"/>
   <tile/>
   <tile/>
   <tile/>
   <tile/>
   <tile/>
   <tile/>
   <tile gid="848"/>
   <tile gid="848"/>
   <tile gid="848"/>
   <tile gid="848"/>
   <tile gid="848"/>
   <tile gid="848"/>
   <tile gid="848"/>
   <tile gid="848"/>
   <tile gid="848"/>
   <tile gid="848"/>
   <tile gid="848"/>
   <tile gid="848"/>
   <tile gid="848"/>
   <tile gid="848"/>
   <tile gid="848"/>
   <tile/>
   <tile/>
   <tile/>
   <tile/>
   <tile/>
   <tile/>
   <tile gid="848"/>
   <tile gid="848"/>
   <tile gid="848"/>
   <tile gid="848"/>
   <tile gid="848"/>
   <tile gid="848"/>
   <tile gid="848"/>
   <tile gid="848"/>
   <tile gid="848"/>
   <tile gid="848"/>
   <tile gid="848"/>
   <tile gid="848"/>
   <tile gid="848"/>
   <tile gid="848"/>
   <tile gid="848"/>
   <tile/>
   <tile/>
   <tile/>
   <tile/>
   <tile/>
   <tile/>
   <tile gid="848"/>
   <tile gid="848"/>
   <tile gid="848"/>
   <tile gid="848"/>
   <tile gid="848"/>
   <tile gid="848"/>
   <tile gid="848"/>
   <tile gid="848"/>
   <tile gid="848"/>
   <tile gid="848"/>
   <tile gid="848"/>
   <tile gid="848"/>
   <tile gid="848"/>
   <tile gid="848"/>
   <tile gid="848"/>
   <tile/>
   <tile/>
   <tile/>
   <tile/>
   <tile/>
   <tile/>
   <tile gid="848"/>
   <tile gid="848"/>
   <tile gid="848"/>
   <tile gid="848"/>
   <tile gid="848"/>
   <tile gid="848"/>
   <tile gid="848"/>
   <tile gid="848"/>
   <tile gid="848"/>
   <tile gid="848"/>
   <tile gid="848"/>
   <tile gid="848"/>
   <tile gid="848"/>
   <tile gid="848"/>
   <tile gid="848"/>
   <tile/>
   <tile/>
   <tile/>
   <tile/>
   <tile/>
   <tile/>
   <tile gid="848"/>
   <tile gid="848"/>
   <tile gid="848"/>
   <tile gid="848"/>
   <tile gid="848"/>
   <tile gid="848"/>
   <tile gid="848"/>
   <tile gid="848"/>
   <tile gid="848"/>
   <tile gid="848"/>
   <tile gid="848"/>
   <tile gid="848"/>
   <tile gid="848"/>
   <tile gid="848"/>
   <tile gid="848"/>
   <tile/>
   <tile/>
   <tile/>
   <tile/>
   <tile/>
   <tile/>
   <tile gid="848"/>
   <tile gid="848"/>
   <tile gid="848"/>
   <tile gid="848"/>
   <tile gid="848"/>
   <tile gid="848"/>
   <tile gid="848"/>
   <tile gid="848"/>
   <tile gid="848"/>
   <tile gid="848"/>
   <tile gid="848"/>
   <tile gid="848"/>
   <tile gid="848"/>
   <tile gid="848"/>
   <tile gid="848"/>
   <tile/>
   <tile/>
   <tile/>
   <tile/>
   <tile/>
   <tile/>
   <tile gid="848"/>
   <tile gid="848"/>
   <tile gid="848"/>
   <tile gid="848"/>
   <tile gid="848"/>
   <tile gid="848"/>
   <tile gid="848"/>
   <tile gid="848"/>
   <tile gid="848"/>
   <tile gid="848"/>
   <tile gid="848"/>
   <tile gid="848"/>
   <tile gid="848"/>
   <tile gid="848"/>
   <tile gid="848"/>
   <tile/>
   <tile/>
   <tile/>
   <tile/>
   <tile/>
   <tile/>
   <tile gid="848"/>
   <tile gid="848"/>
   <tile gid="848"/>
   <tile gid="848"/>
   <tile gid="848"/>
   <tile gid="848"/>
   <tile gid="848"/>
   <tile gid="848"/>
   <tile gid="848"/>
   <tile gid="848"/>
   <tile gid="848"/>
   <tile gid="848"/>
   <tile gid="848"/>
   <tile gid="848"/>
   <tile gid="848"/>
   <tile/>
   <tile/>
   <tile/>
   <tile/>
   <tile/>
   <tile/>
   <tile gid="848"/>
   <tile gid="848"/>
   <tile gid="848"/>
   <tile gid="848"/>
   <tile gid="848"/>
   <tile gid="848"/>
   <tile gid="848"/>
   <tile gid="848"/>
   <tile gid="848"/>
   <tile gid="848"/>
   <tile gid="848"/>
   <tile gid="848"/>
   <tile gid="848"/>
   <tile gid="848"/>
   <tile gid="848"/>
   <tile/>
   <tile/>
   <tile/>
   <tile/>
   <tile/>
   <tile/>
   <tile/>
   <tile/>
   <tile/>
   <tile/>
   <tile/>
   <tile/>
   <tile/>
   <tile/>
   <tile/>
   <tile/>
   <tile/>
   <tile/>
   <tile/>
   <tile/>
   <tile/>
   <tile/>
   <tile/>
   <tile/>
   <tile/>
   <tile/>
   <tile/>
   <tile/>
   <tile/>
   <tile/>
   <tile/>
   <tile/>
   <tile/>
   <tile/>
   <tile/>
   <tile/>
   <tile/>
   <tile/>
   <tile/>
   <tile/>
   <tile/>
   <tile/>
   <tile/>
   <tile/>
   <tile/>
   <tile/>
   <tile/>
   <tile/>
   <tile/>
   <tile/>
   <tile/>
   <tile/>
   <tile/>
   <tile/>
   <tile/>
   <tile/>
   <tile/>
   <tile/>
   <tile/>
   <tile/>
   <tile/>
   <tile/>
   <tile/>
   <tile/>
   <tile/>
   <tile/>
   <tile/>
   <tile/>
   <tile/>
   <tile/>
   <tile/>
   <tile/>
   <tile/>
   <tile/>
   <tile/>
   <tile/>
   <tile/>
   <tile/>
   <tile/>
   <tile/>
   <tile/>
   <tile/>
   <tile/>
   <tile/>
   <tile/>
   <tile/>
   <tile/>
   <tile/>
   <tile/>
   <tile/>
   <tile/>
   <tile/>
   <tile/>
   <tile/>
   <tile/>
   <tile/>
   <tile/>
   <tile/>
   <tile/>
   <tile/>
   <tile/>
   <tile/>
   <tile/>
   <tile/>
   <tile/>
   <tile/>
   <tile/>
   <tile/>
   <tile/>
   <tile/>
   <tile/>
   <tile/>
   <tile/>
   <tile/>
   <tile/>
   <tile/>
   <tile/>
   <tile/>
   <tile/>
   <tile/>
   <tile/>
   <tile/>
   <tile/>
   <tile/>
   <tile/>
   <tile/>
   <tile/>
   <tile/>
   <tile/>
   <tile/>
   <tile/>
   <tile/>
   <tile/>
   <tile/>
   <tile/>
   <tile/>
   <tile/>
   <tile/>
   <tile/>
   <tile/>
   <tile/>
   <tile/>
   <tile/>
   <tile/>
   <tile/>
   <tile/>
   <tile/>
   <tile/>
   <tile/>
   <tile/>
   <tile/>
   <tile/>
   <tile/>
   <tile/>
   <tile/>
   <tile/>
   <tile/>
   <tile/>
   <tile/>
   <tile/>
   <tile/>
   <tile/>
   <tile/>
   <tile/>
   <tile/>
   <tile/>
   <tile/>
   <tile/>
   <tile/>
   <tile/>
   <tile/>
   <tile/>
   <tile/>
   <tile/>
   <tile/>
   <tile/>
   <tile/>
   <tile/>
   <tile/>
   <tile/>
   <tile/>
   <tile/>
   <tile/>
   <tile/>
   <tile/>
   <tile/>
   <tile/>
   <tile/>
   <tile/>
   <tile/>
   <tile/>
   <tile/>
   <tile/>
   <tile/>
   <tile/>
   <tile/>
   <tile/>
   <tile/>
   <tile/>
   <tile/>
   <tile/>
   <tile/>
   <tile/>
   <tile/>
   <tile/>
   <tile/>
   <tile/>
   <tile/>
   <tile/>
   <tile/>
   <tile/>
   <tile/>
   <tile/>
   <tile/>
   <tile/>
   <tile/>
   <tile/>
   <tile/>
   <tile/>
   <tile/>
   <tile/>
   <tile/>
   <tile/>
   <tile/>
   <tile/>
   <tile/>
   <tile/>
   <tile/>
   <tile/>
   <tile/>
   <tile/>
   <tile/>
   <tile/>
   <tile/>
   <tile/>
   <tile/>
   <tile/>
   <tile/>
   <tile/>
   <tile/>
   <tile/>
   <tile/>
   <tile/>
   <tile/>
   <tile/>
   <tile/>
   <tile/>
   <tile/>
   <tile/>
   <tile/>
   <tile/>
   <tile/>
   <tile/>
   <tile/>
   <tile/>
   <tile/>
   <tile/>
   <tile/>
   <tile/>
   <tile/>
   <tile/>
   <tile/>
   <tile/>
   <tile/>
   <tile/>
   <tile/>
   <tile/>
   <tile/>
   <tile/>
   <tile/>
   <tile/>
   <tile/>
   <tile/>
   <tile/>
   <tile/>
   <tile/>
   <tile/>
   <tile/>
   <tile/>
   <tile/>
   <tile/>
   <tile/>
   <tile/>
   <tile/>
   <tile/>
   <tile/>
   <tile/>
   <tile/>
   <tile/>
   <tile/>
   <tile/>
   <tile/>
   <tile/>
   <tile/>
   <tile/>
   <tile/>
   <tile/>
   <tile/>
   <tile/>
   <tile/>
   <tile/>
   <tile/>
   <tile/>
   <tile/>
   <tile/>
   <tile/>
   <tile/>
   <tile/>
   <tile/>
   <tile/>
   <tile/>
   <tile/>
   <tile/>
   <tile/>
   <tile/>
   <tile/>
   <tile/>
   <tile/>
   <tile/>
   <tile/>
   <tile/>
   <tile/>
   <tile/>
   <tile/>
   <tile/>
   <tile/>
   <tile/>
   <tile/>
   <tile/>
   <tile/>
   <tile/>
   <tile/>
   <tile/>
   <tile/>
   <tile/>
   <tile/>
   <tile/>
   <tile/>
   <tile/>
   <tile/>
   <tile/>
   <tile/>
   <tile/>
   <tile/>
   <tile/>
   <tile/>
   <tile/>
   <tile/>
   <tile/>
   <tile/>
   <tile/>
   <tile/>
   <tile/>
   <tile/>
   <tile/>
   <tile/>
   <tile/>
   <tile/>
   <tile/>
   <tile/>
   <tile/>
   <tile/>
   <tile/>
   <tile/>
   <tile/>
   <tile/>
   <tile/>
   <tile/>
   <tile/>
   <tile/>
   <tile/>
   <tile/>
   <tile/>
   <tile/>
   <tile/>
   <tile/>
   <tile/>
   <tile/>
   <tile/>
   <tile/>
   <tile/>
   <tile/>
   <tile/>
   <tile/>
  </data>
 </layer>
 <layer id="3" name="Map Change 1" width="21" height="28" visible="0">
  <properties>
   <property name="Height" value="2"/>
   <property name="ID" value="1"/>
   <property name="Width" value="2"/>
   <property name="X" value="1"/>
   <property name="Y" value="5"/>
  </properties>
  <data>
   <tile/>
   <tile/>
   <tile/>
   <tile/>
   <tile/>
   <tile/>
   <tile/>
   <tile/>
   <tile/>
   <tile/>
   <tile/>
   <tile/>
   <tile/>
   <tile/>
   <tile/>
   <tile/>
   <tile/>
   <tile/>
   <tile/>
   <tile/>
   <tile/>
   <tile/>
   <tile/>
   <tile/>
   <tile/>
   <tile/>
   <tile/>
   <tile/>
   <tile/>
   <tile/>
   <tile/>
   <tile/>
   <tile/>
   <tile/>
   <tile/>
   <tile/>
   <tile/>
   <tile/>
   <tile/>
   <tile/>
   <tile/>
   <tile/>
   <tile/>
   <tile/>
   <tile/>
   <tile/>
   <tile/>
   <tile/>
   <tile/>
   <tile/>
   <tile/>
   <tile/>
   <tile/>
   <tile/>
   <tile/>
   <tile/>
   <tile/>
   <tile/>
   <tile/>
   <tile/>
   <tile/>
   <tile/>
   <tile/>
   <tile/>
   <tile/>
   <tile/>
   <tile/>
   <tile/>
   <tile/>
   <tile/>
   <tile/>
   <tile/>
   <tile/>
   <tile/>
   <tile/>
   <tile/>
   <tile/>
   <tile/>
   <tile/>
   <tile/>
   <tile/>
   <tile/>
   <tile/>
   <tile/>
   <tile/>
   <tile/>
   <tile/>
   <tile/>
   <tile/>
   <tile/>
   <tile/>
   <tile/>
   <tile/>
   <tile/>
   <tile/>
   <tile/>
   <tile/>
   <tile/>
   <tile/>
   <tile/>
   <tile/>
   <tile/>
   <tile/>
   <tile/>
   <tile/>
   <tile/>
   <tile gid="910"/>
   <tile gid="878"/>
   <tile/>
   <tile/>
   <tile/>
   <tile/>
   <tile/>
   <tile/>
   <tile/>
   <tile/>
   <tile/>
   <tile/>
   <tile/>
   <tile/>
   <tile/>
   <tile/>
   <tile/>
   <tile/>
   <tile/>
   <tile/>
   <tile/>
   <tile gid="1006"/>
   <tile gid="879"/>
   <tile/>
   <tile/>
   <tile/>
   <tile/>
   <tile/>
   <tile/>
   <tile/>
   <tile/>
   <tile/>
   <tile/>
   <tile/>
   <tile/>
   <tile/>
   <tile/>
   <tile/>
   <tile/>
   <tile/>
   <tile/>
   <tile/>
   <tile/>
   <tile/>
   <tile/>
   <tile/>
   <tile/>
   <tile/>
   <tile/>
   <tile/>
   <tile/>
   <tile/>
   <tile/>
   <tile/>
   <tile/>
   <tile/>
   <tile/>
   <tile/>
   <tile/>
   <tile/>
   <tile/>
   <tile/>
   <tile/>
   <tile/>
   <tile/>
   <tile/>
   <tile/>
   <tile/>
   <tile/>
   <tile/>
   <tile/>
   <tile/>
   <tile/>
   <tile/>
   <tile/>
   <tile/>
   <tile/>
   <tile/>
   <tile/>
   <tile/>
   <tile/>
   <tile/>
   <tile/>
   <tile/>
   <tile/>
   <tile/>
   <tile/>
   <tile/>
   <tile/>
   <tile/>
   <tile/>
   <tile/>
   <tile/>
   <tile/>
   <tile/>
   <tile/>
   <tile/>
   <tile/>
   <tile/>
   <tile/>
   <tile/>
   <tile/>
   <tile/>
   <tile/>
   <tile/>
   <tile/>
   <tile/>
   <tile/>
   <tile/>
   <tile/>
   <tile/>
   <tile/>
   <tile/>
   <tile/>
   <tile/>
   <tile/>
   <tile/>
   <tile/>
   <tile/>
   <tile/>
   <tile/>
   <tile/>
   <tile/>
   <tile/>
   <tile/>
   <tile/>
   <tile/>
   <tile/>
   <tile/>
   <tile/>
   <tile/>
   <tile/>
   <tile/>
   <tile/>
   <tile/>
   <tile/>
   <tile/>
   <tile/>
   <tile/>
   <tile/>
   <tile/>
   <tile/>
   <tile/>
   <tile/>
   <tile/>
   <tile/>
   <tile/>
   <tile/>
   <tile/>
   <tile/>
   <tile/>
   <tile/>
   <tile/>
   <tile/>
   <tile/>
   <tile/>
   <tile/>
   <tile/>
   <tile/>
   <tile/>
   <tile/>
   <tile/>
   <tile/>
   <tile/>
   <tile/>
   <tile/>
   <tile/>
   <tile/>
   <tile/>
   <tile/>
   <tile/>
   <tile/>
   <tile/>
   <tile/>
   <tile/>
   <tile/>
   <tile/>
   <tile/>
   <tile/>
   <tile/>
   <tile/>
   <tile/>
   <tile/>
   <tile/>
   <tile/>
   <tile/>
   <tile/>
   <tile/>
   <tile/>
   <tile/>
   <tile/>
   <tile/>
   <tile/>
   <tile/>
   <tile/>
   <tile/>
   <tile/>
   <tile/>
   <tile/>
   <tile/>
   <tile/>
   <tile/>
   <tile/>
   <tile/>
   <tile/>
   <tile/>
   <tile/>
   <tile/>
   <tile/>
   <tile/>
   <tile/>
   <tile/>
   <tile/>
   <tile/>
   <tile/>
   <tile/>
   <tile/>
   <tile/>
   <tile/>
   <tile/>
   <tile/>
   <tile/>
   <tile/>
   <tile/>
   <tile/>
   <tile/>
   <tile/>
   <tile/>
   <tile/>
   <tile/>
   <tile/>
   <tile/>
   <tile/>
   <tile/>
   <tile/>
   <tile/>
   <tile/>
   <tile/>
   <tile/>
   <tile/>
   <tile/>
   <tile/>
   <tile/>
   <tile/>
   <tile/>
   <tile/>
   <tile/>
   <tile/>
   <tile/>
   <tile/>
   <tile/>
   <tile/>
   <tile/>
   <tile/>
   <tile/>
   <tile/>
   <tile/>
   <tile/>
   <tile/>
   <tile/>
   <tile/>
   <tile/>
   <tile/>
   <tile/>
   <tile/>
   <tile/>
   <tile/>
   <tile/>
   <tile/>
   <tile/>
   <tile/>
   <tile/>
   <tile/>
   <tile/>
   <tile/>
   <tile/>
   <tile/>
   <tile/>
   <tile/>
   <tile/>
   <tile/>
   <tile/>
   <tile/>
   <tile/>
   <tile/>
   <tile/>
   <tile/>
   <tile/>
   <tile/>
   <tile/>
   <tile/>
   <tile/>
   <tile/>
   <tile/>
   <tile/>
   <tile/>
   <tile/>
   <tile/>
   <tile/>
   <tile/>
   <tile/>
   <tile/>
   <tile/>
   <tile/>
   <tile/>
   <tile/>
   <tile/>
   <tile/>
   <tile/>
   <tile/>
   <tile/>
   <tile/>
   <tile/>
   <tile/>
   <tile/>
   <tile/>
   <tile/>
   <tile/>
   <tile/>
   <tile/>
   <tile/>
   <tile/>
   <tile/>
   <tile/>
   <tile/>
   <tile/>
   <tile/>
   <tile/>
   <tile/>
   <tile/>
   <tile/>
   <tile/>
   <tile/>
   <tile/>
   <tile/>
   <tile/>
   <tile/>
   <tile/>
   <tile/>
   <tile/>
   <tile/>
   <tile/>
   <tile/>
   <tile/>
   <tile/>
   <tile/>
   <tile/>
   <tile/>
   <tile/>
   <tile/>
   <tile/>
   <tile/>
   <tile/>
   <tile/>
   <tile/>
   <tile/>
   <tile/>
   <tile/>
   <tile/>
   <tile/>
   <tile/>
   <tile/>
   <tile/>
   <tile/>
   <tile/>
   <tile/>
   <tile/>
   <tile/>
   <tile/>
   <tile/>
   <tile/>
   <tile/>
   <tile/>
   <tile/>
   <tile/>
   <tile/>
   <tile/>
   <tile/>
   <tile/>
   <tile/>
   <tile/>
   <tile/>
   <tile/>
   <tile/>
   <tile/>
   <tile/>
   <tile/>
   <tile/>
   <tile/>
   <tile/>
   <tile/>
   <tile/>
   <tile/>
   <tile/>
   <tile/>
   <tile/>
   <tile/>
   <tile/>
   <tile/>
   <tile/>
   <tile/>
   <tile/>
   <tile/>
   <tile/>
   <tile/>
   <tile/>
   <tile/>
   <tile/>
   <tile/>
   <tile/>
   <tile/>
   <tile/>
   <tile/>
   <tile/>
   <tile/>
   <tile/>
   <tile/>
   <tile/>
   <tile/>
   <tile/>
   <tile/>
   <tile/>
   <tile/>
   <tile/>
   <tile/>
   <tile/>
   <tile/>
   <tile/>
   <tile/>
   <tile/>
   <tile/>
   <tile/>
   <tile/>
   <tile/>
   <tile/>
   <tile/>
   <tile/>
   <tile/>
   <tile/>
   <tile/>
   <tile/>
   <tile/>
   <tile/>
   <tile/>
   <tile/>
   <tile/>
   <tile/>
   <tile/>
   <tile/>
   <tile/>
   <tile/>
   <tile/>
   <tile/>
   <tile/>
   <tile/>
   <tile/>
   <tile/>
   <tile/>
   <tile/>
   <tile/>
   <tile/>
   <tile/>
   <tile/>
   <tile/>
   <tile/>
   <tile/>
   <tile/>
   <tile/>
   <tile/>
   <tile/>
   <tile/>
   <tile/>
   <tile/>
   <tile/>
   <tile/>
   <tile/>
   <tile/>
   <tile/>
   <tile/>
   <tile/>
   <tile/>
   <tile/>
  </data>
 </layer>
 <layer id="4" name="Map Change 2" width="21" height="28" visible="0">
  <properties>
   <property name="Height" value="2"/>
   <property name="ID" value="2"/>
   <property name="Width" value="1"/>
   <property name="X" value="11"/>
   <property name="Y" value="3"/>
  </properties>
  <data>
   <tile/>
   <tile/>
   <tile/>
   <tile/>
   <tile/>
   <tile/>
   <tile/>
   <tile/>
   <tile/>
   <tile/>
   <tile/>
   <tile/>
   <tile/>
   <tile/>
   <tile/>
   <tile/>
   <tile/>
   <tile/>
   <tile/>
   <tile/>
   <tile/>
   <tile/>
   <tile/>
   <tile/>
   <tile/>
   <tile/>
   <tile/>
   <tile/>
   <tile/>
   <tile/>
   <tile/>
   <tile/>
   <tile/>
   <tile/>
   <tile/>
   <tile/>
   <tile/>
   <tile/>
   <tile/>
   <tile/>
   <tile/>
   <tile/>
   <tile/>
   <tile/>
   <tile/>
   <tile/>
   <tile/>
   <tile/>
   <tile/>
   <tile/>
   <tile/>
   <tile/>
   <tile/>
   <tile/>
   <tile/>
   <tile/>
   <tile/>
   <tile/>
   <tile/>
   <tile/>
   <tile/>
   <tile/>
   <tile/>
   <tile/>
   <tile/>
   <tile/>
   <tile/>
   <tile/>
   <tile/>
   <tile/>
   <tile/>
   <tile/>
   <tile/>
   <tile/>
   <tile gid="535"/>
   <tile/>
   <tile/>
   <tile/>
   <tile/>
   <tile/>
   <tile/>
   <tile/>
   <tile/>
   <tile/>
   <tile/>
   <tile/>
   <tile/>
   <tile/>
   <tile/>
   <tile/>
   <tile/>
   <tile/>
   <tile/>
   <tile/>
   <tile/>
   <tile gid="878"/>
   <tile/>
   <tile/>
   <tile/>
   <tile/>
   <tile/>
   <tile/>
   <tile/>
   <tile/>
   <tile/>
   <tile/>
   <tile/>
   <tile/>
   <tile/>
   <tile/>
   <tile/>
   <tile/>
   <tile/>
   <tile/>
   <tile/>
   <tile/>
   <tile/>
   <tile/>
   <tile/>
   <tile/>
   <tile/>
   <tile/>
   <tile/>
   <tile/>
   <tile/>
   <tile/>
   <tile/>
   <tile/>
   <tile/>
   <tile/>
   <tile/>
   <tile/>
   <tile/>
   <tile/>
   <tile/>
   <tile/>
   <tile/>
   <tile/>
   <tile/>
   <tile/>
   <tile/>
   <tile/>
   <tile/>
   <tile/>
   <tile/>
   <tile/>
   <tile/>
   <tile/>
   <tile/>
   <tile/>
   <tile/>
   <tile/>
   <tile/>
   <tile/>
   <tile/>
   <tile/>
   <tile/>
   <tile/>
   <tile/>
   <tile/>
   <tile/>
   <tile/>
   <tile/>
   <tile/>
   <tile/>
   <tile/>
   <tile/>
   <tile/>
   <tile/>
   <tile/>
   <tile/>
   <tile/>
   <tile/>
   <tile/>
   <tile/>
   <tile/>
   <tile/>
   <tile/>
   <tile/>
   <tile/>
   <tile/>
   <tile/>
   <tile/>
   <tile/>
   <tile/>
   <tile/>
   <tile/>
   <tile/>
   <tile/>
   <tile/>
   <tile/>
   <tile/>
   <tile/>
   <tile/>
   <tile/>
   <tile/>
   <tile/>
   <tile/>
   <tile/>
   <tile/>
   <tile/>
   <tile/>
   <tile/>
   <tile/>
   <tile/>
   <tile/>
   <tile/>
   <tile/>
   <tile/>
   <tile/>
   <tile/>
   <tile/>
   <tile/>
   <tile/>
   <tile/>
   <tile/>
   <tile/>
   <tile/>
   <tile/>
   <tile/>
   <tile/>
   <tile/>
   <tile/>
   <tile/>
   <tile/>
   <tile/>
   <tile/>
   <tile/>
   <tile/>
   <tile/>
   <tile/>
   <tile/>
   <tile/>
   <tile/>
   <tile/>
   <tile/>
   <tile/>
   <tile/>
   <tile/>
   <tile/>
   <tile/>
   <tile/>
   <tile/>
   <tile/>
   <tile/>
   <tile/>
   <tile/>
   <tile/>
   <tile/>
   <tile/>
   <tile/>
   <tile/>
   <tile/>
   <tile/>
   <tile/>
   <tile/>
   <tile/>
   <tile/>
   <tile/>
   <tile/>
   <tile/>
   <tile/>
   <tile/>
   <tile/>
   <tile/>
   <tile/>
   <tile/>
   <tile/>
   <tile/>
   <tile/>
   <tile/>
   <tile/>
   <tile/>
   <tile/>
   <tile/>
   <tile/>
   <tile/>
   <tile/>
   <tile/>
   <tile/>
   <tile/>
   <tile/>
   <tile/>
   <tile/>
   <tile/>
   <tile/>
   <tile/>
   <tile/>
   <tile/>
   <tile/>
   <tile/>
   <tile/>
   <tile/>
   <tile/>
   <tile/>
   <tile/>
   <tile/>
   <tile/>
   <tile/>
   <tile/>
   <tile/>
   <tile/>
   <tile/>
   <tile/>
   <tile/>
   <tile/>
   <tile/>
   <tile/>
   <tile/>
   <tile/>
   <tile/>
   <tile/>
   <tile/>
   <tile/>
   <tile/>
   <tile/>
   <tile/>
   <tile/>
   <tile/>
   <tile/>
   <tile/>
   <tile/>
   <tile/>
   <tile/>
   <tile/>
   <tile/>
   <tile/>
   <tile/>
   <tile/>
   <tile/>
   <tile/>
   <tile/>
   <tile/>
   <tile/>
   <tile/>
   <tile/>
   <tile/>
   <tile/>
   <tile/>
   <tile/>
   <tile/>
   <tile/>
   <tile/>
   <tile/>
   <tile/>
   <tile/>
   <tile/>
   <tile/>
   <tile/>
   <tile/>
   <tile/>
   <tile/>
   <tile/>
   <tile/>
   <tile/>
   <tile/>
   <tile/>
   <tile/>
   <tile/>
   <tile/>
   <tile/>
   <tile/>
   <tile/>
   <tile/>
   <tile/>
   <tile/>
   <tile/>
   <tile/>
   <tile/>
   <tile/>
   <tile/>
   <tile/>
   <tile/>
   <tile/>
   <tile/>
   <tile/>
   <tile/>
   <tile/>
   <tile/>
   <tile/>
   <tile/>
   <tile/>
   <tile/>
   <tile/>
   <tile/>
   <tile/>
   <tile/>
   <tile/>
   <tile/>
   <tile/>
   <tile/>
   <tile/>
   <tile/>
   <tile/>
   <tile/>
   <tile/>
   <tile/>
   <tile/>
   <tile/>
   <tile/>
   <tile/>
   <tile/>
   <tile/>
   <tile/>
   <tile/>
   <tile/>
   <tile/>
   <tile/>
   <tile/>
   <tile/>
   <tile/>
   <tile/>
   <tile/>
   <tile/>
   <tile/>
   <tile/>
   <tile/>
   <tile/>
   <tile/>
   <tile/>
   <tile/>
   <tile/>
   <tile/>
   <tile/>
   <tile/>
   <tile/>
   <tile/>
   <tile/>
   <tile/>
   <tile/>
   <tile/>
   <tile/>
   <tile/>
   <tile/>
   <tile/>
   <tile/>
   <tile/>
   <tile/>
   <tile/>
   <tile/>
   <tile/>
   <tile/>
   <tile/>
   <tile/>
   <tile/>
   <tile/>
   <tile/>
   <tile/>
   <tile/>
   <tile/>
   <tile/>
   <tile/>
   <tile/>
   <tile/>
   <tile/>
   <tile/>
   <tile/>
   <tile/>
   <tile/>
   <tile/>
   <tile/>
   <tile/>
   <tile/>
   <tile/>
   <tile/>
   <tile/>
   <tile/>
   <tile/>
   <tile/>
   <tile/>
   <tile/>
   <tile/>
   <tile/>
   <tile/>
   <tile/>
   <tile/>
   <tile/>
   <tile/>
   <tile/>
   <tile/>
   <tile/>
   <tile/>
   <tile/>
   <tile/>
   <tile/>
   <tile/>
   <tile/>
   <tile/>
   <tile/>
   <tile/>
   <tile/>
   <tile/>
   <tile/>
   <tile/>
   <tile/>
   <tile/>
   <tile/>
   <tile/>
   <tile/>
   <tile/>
   <tile/>
   <tile/>
   <tile/>
   <tile/>
   <tile/>
   <tile/>
   <tile/>
   <tile/>
   <tile/>
   <tile/>
   <tile/>
   <tile/>
   <tile/>
   <tile/>
   <tile/>
   <tile/>
   <tile/>
   <tile/>
   <tile/>
   <tile/>
   <tile/>
   <tile/>
   <tile/>
   <tile/>
   <tile/>
   <tile/>
   <tile/>
   <tile/>
   <tile/>
   <tile/>
   <tile/>
   <tile/>
   <tile/>
   <tile/>
   <tile/>
   <tile/>
   <tile/>
   <tile/>
   <tile/>
   <tile/>
   <tile/>
   <tile/>
   <tile/>
   <tile/>
   <tile/>
   <tile/>
   <tile/>
   <tile/>
   <tile/>
   <tile/>
   <tile/>
   <tile/>
   <tile/>
   <tile/>
   <tile/>
   <tile/>
   <tile/>
   <tile/>
   <tile/>
   <tile/>
   <tile/>
   <tile/>
   <tile/>
   <tile/>
   <tile/>
   <tile/>
   <tile/>
   <tile/>
   <tile/>
   <tile/>
   <tile/>
   <tile/>
   <tile/>
   <tile/>
   <tile/>
   <tile/>
   <tile/>
   <tile/>
   <tile/>
   <tile/>
   <tile/>
   <tile/>
   <tile/>
   <tile/>
   <tile/>
   <tile/>
   <tile/>
   <tile/>
  </data>
 </layer>
</map>
