<?xml version="1.0" encoding="UTF-8"?>
<map version="1.10" tiledversion="1.11.0" orientation="orthogonal" renderorder="right-down" width="29" height="28" tilewidth="16" tileheight="16" infinite="0" nextlayerid="2" nextobjectid="1">
 <tileset firstgid="1" name="01000204" tilewidth="16" tileheight="16" tilecount="1024" columns="32">
  <image source="01000204.png" trans="ffffff" width="512" height="512"/>
 </tileset>
 <layer id="1" name="Tile Layer 1" width="29" height="28">
  <properties>
   <property name="Anims1" value="0"/>
   <property name="Anims2" value="0"/>
   <property name="ChapterID" value="Chapter19B"/>
   <property name="Main" value=""/>
   <property name="MapChangesID" value="MapChange19BID"/>
   <property name="MapID" value="Map19BID"/>
   <property name="ObjectType" value="Village1OBJ"/>
   <property name="PaletteID" value="Village1PAL"/>
   <property name="TileConfig" value="GuildhallCONFIG"/>
  </properties>
  <data>
   <tile gid="910"/>
   <tile gid="910"/>
   <tile gid="910"/>
   <tile gid="910"/>
   <tile gid="910"/>
   <tile gid="910"/>
   <tile gid="910"/>
   <tile gid="910"/>
   <tile gid="910"/>
   <tile gid="910"/>
   <tile gid="307"/>
   <tile gid="913"/>
   <tile gid="913"/>
   <tile gid="945"/>
   <tile gid="945"/>
   <tile gid="945"/>
   <tile gid="913"/>
   <tile gid="913"/>
   <tile gid="308"/>
   <tile gid="911"/>
   <tile gid="942"/>
   <tile gid="942"/>
   <tile gid="711"/>
   <tile gid="941"/>
   <tile gid="942"/>
   <tile gid="942"/>
   <tile gid="942"/>
   <tile gid="942"/>
   <tile gid="942"/>
   <tile gid="942"/>
   <tile gid="942"/>
   <tile gid="942"/>
   <tile gid="942"/>
   <tile gid="942"/>
   <tile gid="776"/>
   <tile gid="941"/>
   <tile gid="942"/>
   <tile gid="776"/>
   <tile gid="941"/>
   <tile gid="339"/>
   <tile gid="945"/>
   <tile gid="945"/>
   <tile gid="945"/>
   <tile gid="945"/>
   <tile gid="945"/>
   <tile gid="945"/>
   <tile gid="945"/>
   <tile gid="340"/>
   <tile gid="942"/>
   <tile gid="776"/>
   <tile gid="941"/>
   <tile gid="771"/>
   <tile gid="644"/>
   <tile gid="644"/>
   <tile gid="676"/>
   <tile gid="941"/>
   <tile gid="33"/>
   <tile gid="941"/>
   <tile gid="772"/>
   <tile gid="882"/>
   <tile gid="883"/>
   <tile gid="643"/>
   <tile gid="676"/>
   <tile gid="909"/>
   <tile gid="942"/>
   <tile gid="942"/>
   <tile gid="910"/>
   <tile gid="942"/>
   <tile gid="684"/>
   <tile gid="644"/>
   <tile gid="644"/>
   <tile gid="644"/>
   <tile gid="644"/>
   <tile gid="644"/>
   <tile gid="644"/>
   <tile gid="644"/>
   <tile gid="684"/>
   <tile gid="941"/>
   <tile gid="910"/>
   <tile gid="942"/>
   <tile gid="910"/>
   <tile gid="910"/>
   <tile gid="910"/>
   <tile gid="86"/>
   <tile gid="941"/>
   <tile gid="910"/>
   <tile gid="942"/>
   <tile gid="846"/>
   <tile gid="846"/>
   <tile gid="846"/>
   <tile gid="33"/>
   <tile gid="711"/>
   <tile gid="941"/>
   <tile gid="942"/>
   <tile gid="942"/>
   <tile gid="942"/>
   <tile gid="942"/>
   <tile gid="884"/>
   <tile gid="586"/>
   <tile gid="587"/>
   <tile gid="587"/>
   <tile gid="587"/>
   <tile gid="587"/>
   <tile gid="587"/>
   <tile gid="588"/>
   <tile gid="884"/>
   <tile gid="941"/>
   <tile gid="942"/>
   <tile gid="942"/>
   <tile gid="776"/>
   <tile gid="941"/>
   <tile gid="942"/>
   <tile gid="118"/>
   <tile gid="941"/>
   <tile gid="776"/>
   <tile gid="941"/>
   <tile gid="878"/>
   <tile gid="776"/>
   <tile gid="877"/>
   <tile gid="846"/>
   <tile gid="711"/>
   <tile gid="941"/>
   <tile gid="942"/>
   <tile gid="942"/>
   <tile gid="942"/>
   <tile gid="942"/>
   <tile gid="884"/>
   <tile gid="586"/>
   <tile gid="587"/>
   <tile gid="587"/>
   <tile gid="850"/>
   <tile gid="587"/>
   <tile gid="587"/>
   <tile gid="588"/>
   <tile gid="884"/>
   <tile gid="941"/>
   <tile gid="942"/>
   <tile gid="942"/>
   <tile gid="910"/>
   <tile gid="942"/>
   <tile gid="942"/>
   <tile gid="711"/>
   <tile gid="941"/>
   <tile gid="910"/>
   <tile gid="942"/>
   <tile gid="684"/>
   <tile gid="644"/>
   <tile gid="644"/>
   <tile gid="644"/>
   <tile gid="644"/>
   <tile gid="644"/>
   <tile gid="684"/>
   <tile gid="277"/>
   <tile gid="278"/>
   <tile gid="279"/>
   <tile gid="684"/>
   <tile gid="976"/>
   <tile gid="913"/>
   <tile gid="977"/>
   <tile gid="913"/>
   <tile gid="977"/>
   <tile gid="913"/>
   <tile gid="977"/>
   <tile gid="684"/>
   <tile gid="277"/>
   <tile gid="278"/>
   <tile gid="279"/>
   <tile gid="684"/>
   <tile gid="644"/>
   <tile gid="644"/>
   <tile gid="644"/>
   <tile gid="644"/>
   <tile gid="644"/>
   <tile gid="684"/>
   <tile gid="779"/>
   <tile gid="586"/>
   <tile gid="587"/>
   <tile gid="587"/>
   <tile gid="587"/>
   <tile gid="588"/>
   <tile gid="779"/>
   <tile gid="277"/>
   <tile gid="278"/>
   <tile gid="279"/>
   <tile gid="779"/>
   <tile gid="944"/>
   <tile gid="851"/>
   <tile gid="945"/>
   <tile gid="1009"/>
   <tile gid="945"/>
   <tile gid="1009"/>
   <tile gid="945"/>
   <tile gid="779"/>
   <tile gid="277"/>
   <tile gid="278"/>
   <tile gid="279"/>
   <tile gid="779"/>
   <tile gid="586"/>
   <tile gid="587"/>
   <tile gid="587"/>
   <tile gid="587"/>
   <tile gid="588"/>
   <tile gid="779"/>
   <tile gid="779"/>
   <tile gid="586"/>
   <tile gid="587"/>
   <tile gid="587"/>
   <tile gid="587"/>
   <tile gid="588"/>
   <tile gid="779"/>
   <tile gid="277"/>
   <tile gid="278"/>
   <tile gid="279"/>
   <tile gid="779"/>
   <tile gid="884"/>
   <tile gid="341"/>
   <tile gid="342"/>
   <tile gid="342"/>
   <tile gid="342"/>
   <tile gid="344"/>
   <tile gid="884"/>
   <tile gid="779"/>
   <tile gid="277"/>
   <tile gid="278"/>
   <tile gid="279"/>
   <tile gid="779"/>
   <tile gid="586"/>
   <tile gid="587"/>
   <tile gid="587"/>
   <tile gid="587"/>
   <tile gid="588"/>
   <tile gid="779"/>
   <tile gid="779"/>
   <tile gid="845"/>
   <tile gid="846"/>
   <tile gid="846"/>
   <tile gid="846"/>
   <tile gid="846"/>
   <tile gid="779"/>
   <tile gid="277"/>
   <tile gid="278"/>
   <tile gid="279"/>
   <tile gid="779"/>
   <tile gid="845"/>
   <tile gid="441"/>
   <tile gid="567"/>
   <tile gid="661"/>
   <tile gid="568"/>
   <tile gid="441"/>
   <tile gid="846"/>
   <tile gid="779"/>
   <tile gid="277"/>
   <tile gid="278"/>
   <tile gid="279"/>
   <tile gid="779"/>
   <tile gid="845"/>
   <tile gid="846"/>
   <tile gid="846"/>
   <tile gid="846"/>
   <tile gid="846"/>
   <tile gid="779"/>
   <tile gid="343"/>
   <tile gid="343"/>
   <tile gid="344"/>
   <tile gid="877"/>
   <tile gid="878"/>
   <tile gid="878"/>
   <tile gid="846"/>
   <tile gid="693"/>
   <tile gid="696"/>
   <tile gid="694"/>
   <tile gid="846"/>
   <tile gid="878"/>
   <tile gid="878"/>
   <tile gid="599"/>
   <tile gid="629"/>
   <tile gid="600"/>
   <tile gid="878"/>
   <tile gid="878"/>
   <tile gid="846"/>
   <tile gid="693"/>
   <tile gid="696"/>
   <tile gid="694"/>
   <tile gid="846"/>
   <tile gid="878"/>
   <tile gid="878"/>
   <tile gid="878"/>
   <tile gid="783"/>
   <tile gid="878"/>
   <tile gid="846"/>
   <tile gid="343"/>
   <tile gid="343"/>
   <tile gid="344"/>
   <tile gid="877"/>
   <tile gid="878"/>
   <tile gid="878"/>
   <tile gid="878"/>
   <tile gid="878"/>
   <tile gid="878"/>
   <tile gid="878"/>
   <tile gid="878"/>
   <tile gid="878"/>
   <tile gid="878"/>
   <tile gid="345"/>
   <tile gid="877"/>
   <tile gid="878"/>
   <tile gid="878"/>
   <tile gid="341"/>
   <tile gid="344"/>
   <tile gid="877"/>
   <tile gid="878"/>
   <tile gid="878"/>
   <tile gid="878"/>
   <tile gid="878"/>
   <tile gid="783"/>
   <tile gid="878"/>
   <tile gid="847"/>
   <tile gid="878"/>
   <tile gid="878"/>
   <tile gid="343"/>
   <tile gid="343"/>
   <tile gid="344"/>
   <tile gid="877"/>
   <tile gid="878"/>
   <tile gid="878"/>
   <tile gid="878"/>
   <tile gid="783"/>
   <tile gid="878"/>
   <tile gid="878"/>
   <tile gid="878"/>
   <tile gid="878"/>
   <tile gid="878"/>
   <tile gid="441"/>
   <tile gid="878"/>
   <tile gid="878"/>
   <tile gid="878"/>
   <tile gid="341"/>
   <tile gid="344"/>
   <tile gid="877"/>
   <tile gid="878"/>
   <tile gid="878"/>
   <tile gid="878"/>
   <tile gid="341"/>
   <tile gid="343"/>
   <tile gid="344"/>
   <tile gid="877"/>
   <tile gid="878"/>
   <tile gid="878"/>
   <tile gid="846"/>
   <tile gid="846"/>
   <tile gid="819"/>
   <tile gid="783"/>
   <tile gid="878"/>
   <tile gid="878"/>
   <tile gid="878"/>
   <tile gid="847"/>
   <tile gid="878"/>
   <tile gid="878"/>
   <tile gid="345"/>
   <tile gid="877"/>
   <tile gid="878"/>
   <tile gid="878"/>
   <tile gid="878"/>
   <tile gid="878"/>
   <tile gid="783"/>
   <tile gid="819"/>
   <tile gid="819"/>
   <tile gid="878"/>
   <tile gid="878"/>
   <tile gid="878"/>
   <tile gid="878"/>
   <tile gid="341"/>
   <tile gid="343"/>
   <tile gid="344"/>
   <tile gid="877"/>
   <tile gid="878"/>
   <tile gid="783"/>
   <tile gid="878"/>
   <tile gid="345"/>
   <tile gid="877"/>
   <tile gid="847"/>
   <tile gid="878"/>
   <tile gid="878"/>
   <tile gid="878"/>
   <tile gid="878"/>
   <tile gid="878"/>
   <tile gid="878"/>
   <tile gid="441"/>
   <tile gid="878"/>
   <tile gid="878"/>
   <tile gid="878"/>
   <tile gid="878"/>
   <tile gid="345"/>
   <tile gid="816"/>
   <tile gid="878"/>
   <tile gid="341"/>
   <tile gid="344"/>
   <tile gid="877"/>
   <tile gid="878"/>
   <tile gid="878"/>
   <tile gid="341"/>
   <tile gid="343"/>
   <tile gid="344"/>
   <tile gid="877"/>
   <tile gid="878"/>
   <tile gid="847"/>
   <tile gid="878"/>
   <tile gid="441"/>
   <tile gid="878"/>
   <tile gid="878"/>
   <tile gid="345"/>
   <tile gid="877"/>
   <tile gid="878"/>
   <tile gid="878"/>
   <tile gid="878"/>
   <tile gid="567"/>
   <tile gid="661"/>
   <tile gid="661"/>
   <tile gid="568"/>
   <tile gid="878"/>
   <tile gid="878"/>
   <tile gid="441"/>
   <tile gid="878"/>
   <tile gid="878"/>
   <tile gid="341"/>
   <tile gid="344"/>
   <tile gid="877"/>
   <tile gid="878"/>
   <tile gid="878"/>
   <tile gid="819"/>
   <tile gid="846"/>
   <tile gid="819"/>
   <tile gid="878"/>
   <tile gid="878"/>
   <tile gid="878"/>
   <tile gid="878"/>
   <tile gid="878"/>
   <tile gid="878"/>
   <tile gid="878"/>
   <tile gid="441"/>
   <tile gid="878"/>
   <tile gid="341"/>
   <tile gid="344"/>
   <tile gid="877"/>
   <tile gid="630"/>
   <tile gid="536"/>
   <tile gid="536"/>
   <tile gid="662"/>
   <tile gid="878"/>
   <tile gid="878"/>
   <tile gid="878"/>
   <tile gid="878"/>
   <tile gid="878"/>
   <tile gid="819"/>
   <tile gid="819"/>
   <tile gid="878"/>
   <tile gid="878"/>
   <tile gid="878"/>
   <tile gid="345"/>
   <tile gid="877"/>
   <tile gid="878"/>
   <tile gid="878"/>
   <tile gid="783"/>
   <tile gid="878"/>
   <tile gid="878"/>
   <tile gid="783"/>
   <tile gid="879"/>
   <tile gid="878"/>
   <tile gid="878"/>
   <tile gid="878"/>
   <tile gid="341"/>
   <tile gid="344"/>
   <tile gid="877"/>
   <tile gid="599"/>
   <tile gid="629"/>
   <tile gid="629"/>
   <tile gid="600"/>
   <tile gid="878"/>
   <tile gid="878"/>
   <tile gid="878"/>
   <tile gid="878"/>
   <tile gid="878"/>
   <tile gid="878"/>
   <tile gid="878"/>
   <tile gid="878"/>
   <tile gid="783"/>
   <tile gid="878"/>
   <tile gid="441"/>
   <tile gid="878"/>
   <tile gid="878"/>
   <tile gid="878"/>
   <tile gid="847"/>
   <tile gid="878"/>
   <tile gid="677"/>
   <tile gid="681"/>
   <tile gid="682"/>
   <tile gid="682"/>
   <tile gid="683"/>
   <tile gid="677"/>
   <tile gid="592"/>
   <tile gid="592"/>
   <tile gid="592"/>
   <tile gid="590"/>
   <tile gid="277"/>
   <tile gid="279"/>
   <tile gid="590"/>
   <tile gid="591"/>
   <tile gid="592"/>
   <tile gid="592"/>
   <tile gid="592"/>
   <tile gid="592"/>
   <tile gid="592"/>
   <tile gid="592"/>
   <tile gid="592"/>
   <tile gid="592"/>
   <tile gid="528"/>
   <tile gid="590"/>
   <tile gid="277"/>
   <tile gid="278"/>
   <tile gid="279"/>
   <tile gid="590"/>
   <tile gid="591"/>
   <tile gid="679"/>
   <tile gid="713"/>
   <tile gid="714"/>
   <tile gid="714"/>
   <tile gid="715"/>
   <tile gid="679"/>
   <tile gid="624"/>
   <tile gid="625"/>
   <tile gid="624"/>
   <tile gid="622"/>
   <tile gid="277"/>
   <tile gid="279"/>
   <tile gid="622"/>
   <tile gid="623"/>
   <tile gid="625"/>
   <tile gid="624"/>
   <tile gid="624"/>
   <tile gid="624"/>
   <tile gid="624"/>
   <tile gid="625"/>
   <tile gid="624"/>
   <tile gid="275"/>
   <tile gid="679"/>
   <tile gid="622"/>
   <tile gid="277"/>
   <tile gid="278"/>
   <tile gid="279"/>
   <tile gid="622"/>
   <tile gid="623"/>
   <tile gid="679"/>
   <tile gid="713"/>
   <tile gid="714"/>
   <tile gid="714"/>
   <tile gid="715"/>
   <tile gid="679"/>
   <tile gid="307"/>
   <tile gid="913"/>
   <tile gid="913"/>
   <tile gid="913"/>
   <tile gid="913"/>
   <tile gid="913"/>
   <tile gid="913"/>
   <tile gid="913"/>
   <tile gid="913"/>
   <tile gid="913"/>
   <tile gid="913"/>
   <tile gid="913"/>
   <tile gid="913"/>
   <tile gid="913"/>
   <tile gid="913"/>
   <tile gid="339"/>
   <tile gid="679"/>
   <tile gid="845"/>
   <tile gid="783"/>
   <tile gid="846"/>
   <tile gid="846"/>
   <tile gid="846"/>
   <tile gid="846"/>
   <tile gid="679"/>
   <tile gid="745"/>
   <tile gid="746"/>
   <tile gid="746"/>
   <tile gid="747"/>
   <tile gid="679"/>
   <tile gid="339"/>
   <tile gid="945"/>
   <tile gid="945"/>
   <tile gid="945"/>
   <tile gid="945"/>
   <tile gid="945"/>
   <tile gid="945"/>
   <tile gid="945"/>
   <tile gid="776"/>
   <tile gid="944"/>
   <tile gid="945"/>
   <tile gid="945"/>
   <tile gid="945"/>
   <tile gid="945"/>
   <tile gid="945"/>
   <tile gid="339"/>
   <tile gid="679"/>
   <tile gid="877"/>
   <tile gid="847"/>
   <tile gid="878"/>
   <tile gid="878"/>
   <tile gid="878"/>
   <tile gid="783"/>
   <tile gid="645"/>
   <tile gid="645"/>
   <tile gid="645"/>
   <tile gid="645"/>
   <tile gid="645"/>
   <tile gid="645"/>
   <tile gid="677"/>
   <tile gid="645"/>
   <tile gid="645"/>
   <tile gid="645"/>
   <tile gid="645"/>
   <tile gid="645"/>
   <tile gid="738"/>
   <tile gid="944"/>
   <tile gid="913"/>
   <tile gid="945"/>
   <tile gid="739"/>
   <tile gid="681"/>
   <tile gid="682"/>
   <tile gid="682"/>
   <tile gid="682"/>
   <tile gid="682"/>
   <tile gid="682"/>
   <tile gid="682"/>
   <tile gid="682"/>
   <tile gid="683"/>
   <tile gid="740"/>
   <tile gid="877"/>
   <tile gid="847"/>
   <tile gid="624"/>
   <tile gid="624"/>
   <tile gid="624"/>
   <tile gid="625"/>
   <tile gid="624"/>
   <tile gid="624"/>
   <tile gid="742"/>
   <tile gid="625"/>
   <tile gid="624"/>
   <tile gid="624"/>
   <tile gid="624"/>
   <tile gid="624"/>
   <tile gid="679"/>
   <tile gid="277"/>
   <tile gid="278"/>
   <tile gid="279"/>
   <tile gid="679"/>
   <tile gid="713"/>
   <tile gid="714"/>
   <tile gid="714"/>
   <tile gid="714"/>
   <tile gid="714"/>
   <tile gid="714"/>
   <tile gid="714"/>
   <tile gid="714"/>
   <tile gid="715"/>
   <tile gid="742"/>
   <tile gid="277"/>
   <tile gid="279"/>
   <tile gid="624"/>
   <tile gid="624"/>
   <tile gid="624"/>
   <tile gid="624"/>
   <tile gid="624"/>
   <tile gid="624"/>
   <tile gid="742"/>
   <tile gid="624"/>
   <tile gid="624"/>
   <tile gid="624"/>
   <tile gid="625"/>
   <tile gid="624"/>
   <tile gid="679"/>
   <tile gid="277"/>
   <tile gid="278"/>
   <tile gid="279"/>
   <tile gid="679"/>
   <tile gid="745"/>
   <tile gid="746"/>
   <tile gid="746"/>
   <tile gid="746"/>
   <tile gid="746"/>
   <tile gid="746"/>
   <tile gid="746"/>
   <tile gid="746"/>
   <tile gid="747"/>
   <tile gid="741"/>
   <tile gid="277"/>
   <tile gid="279"/>
   <tile gid="3"/>
   <tile gid="3"/>
   <tile gid="3"/>
   <tile gid="3"/>
   <tile gid="3"/>
   <tile gid="3"/>
   <tile gid="675"/>
   <tile gid="645"/>
   <tile gid="645"/>
   <tile gid="645"/>
   <tile gid="645"/>
   <tile gid="645"/>
   <tile gid="679"/>
   <tile gid="277"/>
   <tile gid="278"/>
   <tile gid="279"/>
   <tile gid="679"/>
   <tile gid="645"/>
   <tile gid="645"/>
   <tile gid="645"/>
   <tile gid="645"/>
   <tile gid="645"/>
   <tile gid="645"/>
   <tile gid="645"/>
   <tile gid="645"/>
   <tile gid="645"/>
   <tile gid="772"/>
   <tile gid="877"/>
   <tile gid="878"/>
   <tile gid="450"/>
   <tile gid="451"/>
   <tile gid="258"/>
   <tile gid="193"/>
   <tile gid="193"/>
   <tile gid="420"/>
   <tile gid="679"/>
   <tile gid="845"/>
   <tile gid="846"/>
   <tile gid="846"/>
   <tile gid="846"/>
   <tile gid="308"/>
   <tile gid="742"/>
   <tile gid="277"/>
   <tile gid="278"/>
   <tile gid="279"/>
   <tile gid="742"/>
   <tile gid="307"/>
   <tile gid="846"/>
   <tile gid="846"/>
   <tile gid="846"/>
   <tile gid="846"/>
   <tile gid="846"/>
   <tile gid="846"/>
   <tile gid="783"/>
   <tile gid="846"/>
   <tile gid="846"/>
   <tile gid="878"/>
   <tile gid="878"/>
   <tile gid="482"/>
   <tile gid="354"/>
   <tile gid="451"/>
   <tile gid="258"/>
   <tile gid="452"/>
   <tile gid="193"/>
   <tile gid="679"/>
   <tile gid="877"/>
   <tile gid="878"/>
   <tile gid="878"/>
   <tile gid="878"/>
   <tile gid="340"/>
   <tile gid="679"/>
   <tile gid="976"/>
   <tile gid="977"/>
   <tile gid="977"/>
   <tile gid="679"/>
   <tile gid="339"/>
   <tile gid="878"/>
   <tile gid="878"/>
   <tile gid="878"/>
   <tile gid="878"/>
   <tile gid="878"/>
   <tile gid="878"/>
   <tile gid="847"/>
   <tile gid="878"/>
   <tile gid="878"/>
   <tile gid="878"/>
   <tile gid="878"/>
   <tile gid="354"/>
   <tile gid="354"/>
   <tile gid="483"/>
   <tile gid="193"/>
   <tile gid="484"/>
   <tile gid="258"/>
   <tile gid="679"/>
   <tile gid="877"/>
   <tile gid="878"/>
   <tile gid="769"/>
   <tile gid="645"/>
   <tile gid="645"/>
   <tile gid="740"/>
   <tile gid="1008"/>
   <tile gid="1009"/>
   <tile gid="1009"/>
   <tile gid="739"/>
   <tile gid="645"/>
   <tile gid="769"/>
   <tile gid="645"/>
   <tile gid="645"/>
   <tile gid="645"/>
   <tile gid="645"/>
   <tile gid="645"/>
   <tile gid="645"/>
   <tile gid="645"/>
   <tile gid="645"/>
   <tile gid="645"/>
   <tile gid="645"/>
  </data>
 </layer>
</map>
