<?xml version="1.0" encoding="UTF-8"?>
<map version="1.0" orientation="orthogonal" width="15" height="18" tilewidth="16" tileheight="16">
 <tileset firstgid="1" name="03000402" tilewidth="16" tileheight="16">
  <image source="03000402.png" trans="ffffff"/>
 </tileset>
 <layer name="Tile Layer 1" width="15" height="18">
  <properties>
   <property name="Anims1" value="0"/>
   <property name="Anims2" value="0"/>
   <property name="ChapterID" value="Chapter4"/>
   <property name="Main" value=""/>
   <property name="MapChangesID" value="MapChange4ID"/>
   <property name="MapID" value="Map4ID"/>
   <property name="ObjectType" value="Fields1OBJ"/>
   <property name="PaletteID" value="Fields1PAL"/>
   <property name="TileConfig" value="FieldsCONFIG"/>
  </properties>
  <data>
  <tile gid="67"/>
  <tile gid="68"/>
  <tile gid="67"/>
  <tile gid="67"/>
  <tile gid="68"/>
  <tile gid="68"/>
  <tile gid="67"/>
  <tile gid="67"/>
  <tile gid="67"/>
  <tile gid="67"/>
  <tile gid="67"/>
  <tile gid="67"/>
  <tile gid="67"/>
  <tile gid="68"/>
  <tile gid="67"/>
  <tile gid="67"/>
  <tile gid="68"/>
  <tile gid="99"/>
  <tile gid="99"/>
  <tile gid="100"/>
  <tile gid="100"/>
  <tile gid="67"/>
  <tile gid="68"/>
  <tile gid="68"/>
  <tile gid="67"/>
  <tile gid="68"/>
  <tile gid="68"/>
  <tile gid="99"/>
  <tile gid="100"/>
  <tile gid="99"/>
  <tile gid="67"/>
  <tile gid="68"/>
  <tile gid="131"/>
  <tile gid="131"/>
  <tile gid="132"/>
  <tile gid="67"/>
  <tile gid="67"/>
  <tile gid="68"/>
  <tile gid="100"/>
  <tile gid="99"/>
  <tile gid="100"/>
  <tile gid="100"/>
  <tile gid="131"/>
  <tile gid="132"/>
  <tile gid="131"/>
  <tile gid="67"/>
  <tile gid="68"/>
  <tile gid="163"/>
  <tile gid="67"/>
  <tile gid="67"/>
  <tile gid="67"/>
  <tile gid="99"/>
  <tile gid="100"/>
  <tile gid="67"/>
  <tile gid="68"/>
  <tile gid="132"/>
  <tile gid="132"/>
  <tile gid="163"/>
  <tile gid="164"/>
  <tile gid="163"/>
  <tile gid="67"/>
  <tile gid="67"/>
  <tile gid="67"/>
  <tile gid="99"/>
  <tile gid="99"/>
  <tile gid="99"/>
  <tile gid="131"/>
  <tile gid="132"/>
  <tile gid="99"/>
  <tile gid="100"/>
  <tile gid="164"/>
  <tile gid="164"/>
  <tile gid="67"/>
  <tile gid="68"/>
  <tile gid="99"/>
  <tile gid="67"/>
  <tile gid="68"/>
  <tile gid="67"/>
  <tile gid="68"/>
  <tile gid="131"/>
  <tile gid="131"/>
  <tile gid="67"/>
  <tile gid="68"/>
  <tile gid="131"/>
  <tile gid="67"/>
  <tile gid="68"/>
  <tile gid="67"/>
  <tile gid="99"/>
  <tile gid="100"/>
  <tile gid="131"/>
  <tile gid="67"/>
  <tile gid="68"/>
  <tile gid="99"/>
  <tile gid="100"/>
  <tile gid="163"/>
  <tile gid="163"/>
  <tile gid="99"/>
  <tile gid="100"/>
  <tile gid="163"/>
  <tile gid="99"/>
  <tile gid="100"/>
  <tile gid="99"/>
  <tile gid="131"/>
  <tile gid="67"/>
  <tile gid="68"/>
  <tile gid="67"/>
  <tile gid="68"/>
  <tile gid="131"/>
  <tile gid="132"/>
  <tile gid="67"/>
  <tile gid="68"/>
  <tile gid="67"/>
  <tile gid="68"/>
  <tile gid="68"/>
  <tile gid="131"/>
  <tile gid="132"/>
  <tile gid="131"/>
  <tile gid="163"/>
  <tile gid="67"/>
  <tile gid="68"/>
  <tile gid="99"/>
  <tile gid="100"/>
  <tile gid="67"/>
  <tile gid="68"/>
  <tile gid="99"/>
  <tile gid="100"/>
  <tile gid="99"/>
  <tile gid="100"/>
  <tile gid="67"/>
  <tile gid="163"/>
  <tile gid="164"/>
  <tile gid="163"/>
  <tile gid="67"/>
  <tile gid="68"/>
  <tile gid="68"/>
  <tile gid="131"/>
  <tile gid="132"/>
  <tile gid="67"/>
  <tile gid="68"/>
  <tile gid="67"/>
  <tile gid="68"/>
  <tile gid="131"/>
  <tile gid="132"/>
  <tile gid="99"/>
  <tile gid="100"/>
  <tile gid="131"/>
  <tile gid="132"/>
  <tile gid="67"/>
  <tile gid="68"/>
  <tile gid="100"/>
  <tile gid="163"/>
  <tile gid="67"/>
  <tile gid="99"/>
  <tile gid="100"/>
  <tile gid="99"/>
  <tile gid="100"/>
  <tile gid="163"/>
  <tile gid="164"/>
  <tile gid="131"/>
  <tile gid="132"/>
  <tile gid="163"/>
  <tile gid="67"/>
  <tile gid="99"/>
  <tile gid="100"/>
  <tile gid="132"/>
  <tile gid="67"/>
  <tile gid="68"/>
  <tile gid="131"/>
  <tile gid="132"/>
  <tile gid="131"/>
  <tile gid="132"/>
  <tile gid="131"/>
  <tile gid="67"/>
  <tile gid="68"/>
  <tile gid="68"/>
  <tile gid="68"/>
  <tile gid="68"/>
  <tile gid="131"/>
  <tile gid="132"/>
  <tile gid="67"/>
  <tile gid="99"/>
  <tile gid="100"/>
  <tile gid="163"/>
  <tile gid="164"/>
  <tile gid="163"/>
  <tile gid="67"/>
  <tile gid="67"/>
  <tile gid="68"/>
  <tile gid="68"/>
  <tile gid="100"/>
  <tile gid="100"/>
  <tile gid="68"/>
  <tile gid="163"/>
  <tile gid="67"/>
  <tile gid="68"/>
  <tile gid="131"/>
  <tile gid="132"/>
  <tile gid="164"/>
  <tile gid="67"/>
  <tile gid="68"/>
  <tile gid="67"/>
  <tile gid="68"/>
  <tile gid="100"/>
  <tile gid="100"/>
  <tile gid="132"/>
  <tile gid="132"/>
  <tile gid="100"/>
  <tile gid="164"/>
  <tile gid="67"/>
  <tile gid="68"/>
  <tile gid="163"/>
  <tile gid="67"/>
  <tile gid="68"/>
  <tile gid="68"/>
  <tile gid="68"/>
  <tile gid="99"/>
  <tile gid="100"/>
  <tile gid="132"/>
  <tile gid="132"/>
  <tile gid="164"/>
  <tile gid="164"/>
  <tile gid="132"/>
  <tile gid="67"/>
  <tile gid="68"/>
  <tile gid="68"/>
  <tile gid="67"/>
  <tile gid="68"/>
  <tile gid="100"/>
  <tile gid="100"/>
  <tile gid="100"/>
  <tile gid="131"/>
  <tile gid="132"/>
  <tile gid="164"/>
  <tile gid="164"/>
  <tile gid="100"/>
  <tile gid="132"/>
  <tile gid="67"/>
  <tile gid="68"/>
  <tile gid="68"/>
  <tile gid="100"/>
  <tile gid="67"/>
  <tile gid="68"/>
  <tile gid="132"/>
  <tile gid="132"/>
  <tile gid="132"/>
  <tile gid="163"/>
  <tile gid="164"/>
  <tile gid="68"/>
  <tile gid="100"/>
  <tile gid="132"/>
  <tile gid="67"/>
  <tile gid="68"/>
  <tile gid="68"/>
  <tile gid="100"/>
  <tile gid="132"/>
  <tile gid="99"/>
  <tile gid="100"/>
  <tile gid="164"/>
  <tile gid="164"/>
  <tile gid="164"/>
  <tile gid="100"/>
  <tile gid="100"/>
  <tile gid="100"/>
  <tile gid="132"/>
  <tile gid="67"/>
  <tile gid="68"/>
  <tile gid="68"/>
  <tile gid="100"/>
  <tile gid="132"/>
  <tile gid="164"/>
  </data>
 </layer>
</map>
