<?xml version="1.0" encoding="UTF-8"?>
<map version="1.0" orientation="orthogonal" width="20" height="20" tilewidth="16" tileheight="16">
 <tileset firstgid="1" name="01000201" tilewidth="16" tileheight="16">
  <image source="01000201.png" trans="ffffff"/>
 </tileset>
 <layer name="Tile Layer 1" width="20" height="20">
  <properties>
   <property name="Anims1" value="0"/>
   <property name="Anims2" value="0"/>
   <property name="ChapterID" value="Chapter9"/>
   <property name="Main" value=""/>
   <property name="MapChangesID" value="MapChange9ID"/>
   <property name="MapID" value="Map9ID"/>
   <property name="ObjectType" value="Village1OBJ"/>
   <property name="PaletteID" value="Village1PAL"/>
   <property name="TileConfig" value="VillageCONFIG"/>
  </properties>
  <data>
  <tile gid="79"/>
  <tile gid="79"/>
  <tile gid="79"/>
  <tile gid="40"/>
  <tile gid="78"/>
  <tile gid="193"/>
  <tile gid="548"/>
  <tile gid="500"/>
  <tile gid="420"/>
  <tile gid="361"/>
  <tile gid="458"/>
  <tile gid="363"/>
  <tile gid="420"/>
  <tile gid="499"/>
  <tile gid="420"/>
  <tile gid="679"/>
  <tile gid="877"/>
  <tile gid="878"/>
  <tile gid="878"/>
  <tile gid="878"/>
  <tile gid="45"/>
  <tile gid="45"/>
  <tile gid="40"/>
  <tile gid="193"/>
  <tile gid="420"/>
  <tile gid="582"/>
  <tile gid="500"/>
  <tile gid="532"/>
  <tile gid="716"/>
  <tile gid="454"/>
  <tile gid="362"/>
  <tile gid="363"/>
  <tile gid="716"/>
  <tile gid="531"/>
  <tile gid="403"/>
  <tile gid="769"/>
  <tile gid="770"/>
  <tile gid="877"/>
  <tile gid="878"/>
  <tile gid="771"/>
  <tile gid="548"/>
  <tile gid="582"/>
  <tile gid="500"/>
  <tile gid="499"/>
  <tile gid="566"/>
  <tile gid="500"/>
  <tile gid="532"/>
  <tile gid="532"/>
  <tile gid="748"/>
  <tile gid="362"/>
  <tile gid="458"/>
  <tile gid="362"/>
  <tile gid="748"/>
  <tile gid="531"/>
  <tile gid="403"/>
  <tile gid="650"/>
  <tile gid="652"/>
  <tile gid="277"/>
  <tile gid="279"/>
  <tile gid="650"/>
  <tile gid="566"/>
  <tile gid="500"/>
  <tile gid="532"/>
  <tile gid="531"/>
  <tile gid="531"/>
  <tile gid="532"/>
  <tile gid="532"/>
  <tile gid="532"/>
  <tile gid="780"/>
  <tile gid="362"/>
  <tile gid="362"/>
  <tile gid="362"/>
  <tile gid="780"/>
  <tile gid="531"/>
  <tile gid="499"/>
  <tile gid="3"/>
  <tile gid="3"/>
  <tile gid="3"/>
  <tile gid="3"/>
  <tile gid="3"/>
  <tile gid="532"/>
  <tile gid="532"/>
  <tile gid="532"/>
  <tile gid="531"/>
  <tile gid="531"/>
  <tile gid="532"/>
  <tile gid="532"/>
  <tile gid="564"/>
  <tile gid="78"/>
  <tile gid="364"/>
  <tile gid="394"/>
  <tile gid="365"/>
  <tile gid="78"/>
  <tile gid="563"/>
  <tile gid="531"/>
  <tile gid="403"/>
  <tile gid="584"/>
  <tile gid="194"/>
  <tile gid="161"/>
  <tile gid="616"/>
  <tile gid="532"/>
  <tile gid="532"/>
  <tile gid="532"/>
  <tile gid="149"/>
  <tile gid="95"/>
  <tile gid="96"/>
  <tile gid="564"/>
  <tile gid="193"/>
  <tile gid="225"/>
  <tile gid="226"/>
  <tile gid="226"/>
  <tile gid="225"/>
  <tile gid="258"/>
  <tile gid="666"/>
  <tile gid="531"/>
  <tile gid="499"/>
  <tile gid="566"/>
  <tile gid="420"/>
  <tile gid="194"/>
  <tile gid="194"/>
  <tile gid="532"/>
  <tile gid="532"/>
  <tile gid="564"/>
  <tile gid="121"/>
  <tile gid="127"/>
  <tile gid="128"/>
  <tile gid="668"/>
  <tile gid="225"/>
  <tile gid="699"/>
  <tile gid="667"/>
  <tile gid="635"/>
  <tile gid="257"/>
  <tile gid="225"/>
  <tile gid="226"/>
  <tile gid="531"/>
  <tile gid="531"/>
  <tile gid="531"/>
  <tile gid="499"/>
  <tile gid="420"/>
  <tile gid="161"/>
  <tile gid="570"/>
  <tile gid="564"/>
  <tile gid="668"/>
  <tile gid="201"/>
  <tile gid="266"/>
  <tile gid="193"/>
  <tile gid="225"/>
  <tile gid="582"/>
  <tile gid="635"/>
  <tile gid="667"/>
  <tile gid="699"/>
  <tile gid="583"/>
  <tile gid="257"/>
  <tile gid="258"/>
  <tile gid="563"/>
  <tile gid="531"/>
  <tile gid="531"/>
  <tile gid="531"/>
  <tile gid="403"/>
  <tile gid="194"/>
  <tile gid="420"/>
  <tile gid="193"/>
  <tile gid="194"/>
  <tile gid="133"/>
  <tile gid="166"/>
  <tile gid="225"/>
  <tile gid="226"/>
  <tile gid="758"/>
  <tile gid="825"/>
  <tile gid="859"/>
  <tile gid="826"/>
  <tile gid="763"/>
  <tile gid="289"/>
  <tile gid="290"/>
  <tile gid="614"/>
  <tile gid="531"/>
  <tile gid="531"/>
  <tile gid="531"/>
  <tile gid="403"/>
  <tile gid="420"/>
  <tile gid="290"/>
  <tile gid="225"/>
  <tile gid="226"/>
  <tile gid="173"/>
  <tile gid="420"/>
  <tile gid="226"/>
  <tile gid="226"/>
  <tile gid="796"/>
  <tile gid="853"/>
  <tile gid="853"/>
  <tile gid="853"/>
  <tile gid="729"/>
  <tile gid="7"/>
  <tile gid="12"/>
  <tile gid="226"/>
  <tile gid="149"/>
  <tile gid="95"/>
  <tile gid="96"/>
  <tile gid="499"/>
  <tile gid="566"/>
  <tile gid="225"/>
  <tile gid="225"/>
  <tile gid="225"/>
  <tile gid="193"/>
  <tile gid="7"/>
  <tile gid="8"/>
  <tile gid="226"/>
  <tile gid="726"/>
  <tile gid="853"/>
  <tile gid="853"/>
  <tile gid="793"/>
  <tile gid="668"/>
  <tile gid="109"/>
  <tile gid="41"/>
  <tile gid="258"/>
  <tile gid="121"/>
  <tile gid="127"/>
  <tile gid="128"/>
  <tile gid="531"/>
  <tile gid="531"/>
  <tile gid="257"/>
  <tile gid="420"/>
  <tile gid="290"/>
  <tile gid="225"/>
  <tile gid="39"/>
  <tile gid="40"/>
  <tile gid="258"/>
  <tile gid="666"/>
  <tile gid="726"/>
  <tile gid="827"/>
  <tile gid="727"/>
  <tile gid="615"/>
  <tile gid="39"/>
  <tile gid="79"/>
  <tile gid="8"/>
  <tile gid="201"/>
  <tile gid="266"/>
  <tile gid="614"/>
  <tile gid="531"/>
  <tile gid="531"/>
  <tile gid="225"/>
  <tile gid="75"/>
  <tile gid="76"/>
  <tile gid="257"/>
  <tile gid="258"/>
  <tile gid="194"/>
  <tile gid="226"/>
  <tile gid="194"/>
  <tile gid="226"/>
  <tile gid="226"/>
  <tile gid="225"/>
  <tile gid="290"/>
  <tile gid="226"/>
  <tile gid="39"/>
  <tile gid="40"/>
  <tile gid="225"/>
  <tile gid="165"/>
  <tile gid="202"/>
  <tile gid="531"/>
  <tile gid="531"/>
  <tile gid="472"/>
  <tile gid="39"/>
  <tile gid="111"/>
  <tile gid="8"/>
  <tile gid="420"/>
  <tile gid="226"/>
  <tile gid="635"/>
  <tile gid="321"/>
  <tile gid="323"/>
  <tile gid="193"/>
  <tile gid="194"/>
  <tile gid="225"/>
  <tile gid="225"/>
  <tile gid="226"/>
  <tile gid="584"/>
  <tile gid="257"/>
  <tile gid="225"/>
  <tile gid="225"/>
  <tile gid="563"/>
  <tile gid="564"/>
  <tile gid="584"/>
  <tile gid="472"/>
  <tile gid="109"/>
  <tile gid="111"/>
  <tile gid="8"/>
  <tile gid="635"/>
  <tile gid="321"/>
  <tile gid="354"/>
  <tile gid="387"/>
  <tile gid="225"/>
  <tile gid="226"/>
  <tile gid="473"/>
  <tile gid="502"/>
  <tile gid="420"/>
  <tile gid="584"/>
  <tile gid="225"/>
  <tile gid="257"/>
  <tile gid="257"/>
  <tile gid="258"/>
  <tile gid="420"/>
  <tile gid="162"/>
  <tile gid="225"/>
  <tile gid="39"/>
  <tile gid="111"/>
  <tile gid="110"/>
  <tile gid="385"/>
  <tile gid="386"/>
  <tile gid="387"/>
  <tile gid="290"/>
  <tile gid="420"/>
  <tile gid="501"/>
  <tile gid="420"/>
  <tile gid="258"/>
  <tile gid="502"/>
  <tile gid="257"/>
  <tile gid="141"/>
  <tile gid="257"/>
  <tile gid="258"/>
  <tile gid="203"/>
  <tile gid="197"/>
  <tile gid="134"/>
  <tile gid="162"/>
  <tile gid="47"/>
  <tile gid="45"/>
  <tile gid="40"/>
  <tile gid="290"/>
  <tile gid="225"/>
  <tile gid="290"/>
  <tile gid="193"/>
  <tile gid="471"/>
  <tile gid="583"/>
  <tile gid="258"/>
  <tile gid="226"/>
  <tile gid="404"/>
  <tile gid="133"/>
  <tile gid="272"/>
  <tile gid="134"/>
  <tile gid="133"/>
  <tile gid="272"/>
  <tile gid="272"/>
  <tile gid="272"/>
  <tile gid="140"/>
  <tile gid="225"/>
  <tile gid="502"/>
  <tile gid="257"/>
  <tile gid="193"/>
  <tile gid="194"/>
  <tile gid="193"/>
  <tile gid="471"/>
  <tile gid="582"/>
  <tile gid="893"/>
  <tile gid="615"/>
  <tile gid="420"/>
  <tile gid="500"/>
  <tile gid="603"/>
  <tile gid="272"/>
  <tile gid="272"/>
  <tile gid="166"/>
  <tile gid="165"/>
  <tile gid="272"/>
  <tile gid="272"/>
  <tile gid="200"/>
  <tile gid="225"/>
  <tile gid="584"/>
  <tile gid="469"/>
  <tile gid="225"/>
  <tile gid="420"/>
  <tile gid="193"/>
  <tile gid="499"/>
  <tile gid="258"/>
  <tile gid="614"/>
  <tile gid="565"/>
  <tile gid="500"/>
  <tile gid="532"/>
  <tile gid="584"/>
  <tile gid="603"/>
  <tile gid="272"/>
  <tile gid="134"/>
  <tile gid="133"/>
  <tile gid="272"/>
  <tile gid="272"/>
  <tile gid="272"/>
  <tile gid="134"/>
  <tile gid="420"/>
  <tile gid="474"/>
  <tile gid="257"/>
  <tile gid="257"/>
  <tile gid="258"/>
  <tile gid="531"/>
  <tile gid="499"/>
  <tile gid="500"/>
  <tile gid="532"/>
  <tile gid="532"/>
  <tile gid="532"/>
  <tile gid="420"/>
  <tile gid="584"/>
  <tile gid="603"/>
  <tile gid="272"/>
  <tile gid="272"/>
  <tile gid="272"/>
  </data>
 </layer>
 <layer name="Map Change 0" width="20" height="20">
  <properties>
   <property name="ID" value ="0"/>
   <property name="Height" value ="2"/>
   <property name="Width" value ="3"/>
   <property name="X" value ="3"/>
   <property name="Y" value ="5"/>
  </properties>
  <data>
  <tile gid="0"/>
  <tile gid="0"/>
  <tile gid="0"/>
  <tile gid="0"/>
  <tile gid="0"/>
  <tile gid="0"/>
  <tile gid="0"/>
  <tile gid="0"/>
  <tile gid="0"/>
  <tile gid="0"/>
  <tile gid="0"/>
  <tile gid="0"/>
  <tile gid="0"/>
  <tile gid="0"/>
  <tile gid="0"/>
  <tile gid="0"/>
  <tile gid="0"/>
  <tile gid="0"/>
  <tile gid="0"/>
  <tile gid="0"/>
  <tile gid="0"/>
  <tile gid="0"/>
  <tile gid="0"/>
  <tile gid="0"/>
  <tile gid="0"/>
  <tile gid="0"/>
  <tile gid="0"/>
  <tile gid="0"/>
  <tile gid="0"/>
  <tile gid="0"/>
  <tile gid="0"/>
  <tile gid="0"/>
  <tile gid="0"/>
  <tile gid="0"/>
  <tile gid="0"/>
  <tile gid="0"/>
  <tile gid="0"/>
  <tile gid="0"/>
  <tile gid="0"/>
  <tile gid="0"/>
  <tile gid="0"/>
  <tile gid="0"/>
  <tile gid="0"/>
  <tile gid="0"/>
  <tile gid="0"/>
  <tile gid="0"/>
  <tile gid="0"/>
  <tile gid="0"/>
  <tile gid="0"/>
  <tile gid="0"/>
  <tile gid="0"/>
  <tile gid="0"/>
  <tile gid="0"/>
  <tile gid="0"/>
  <tile gid="0"/>
  <tile gid="0"/>
  <tile gid="0"/>
  <tile gid="0"/>
  <tile gid="0"/>
  <tile gid="0"/>
  <tile gid="0"/>
  <tile gid="0"/>
  <tile gid="0"/>
  <tile gid="0"/>
  <tile gid="0"/>
  <tile gid="0"/>
  <tile gid="0"/>
  <tile gid="0"/>
  <tile gid="0"/>
  <tile gid="0"/>
  <tile gid="0"/>
  <tile gid="0"/>
  <tile gid="0"/>
  <tile gid="0"/>
  <tile gid="0"/>
  <tile gid="0"/>
  <tile gid="0"/>
  <tile gid="0"/>
  <tile gid="0"/>
  <tile gid="0"/>
  <tile gid="0"/>
  <tile gid="0"/>
  <tile gid="0"/>
  <tile gid="0"/>
  <tile gid="0"/>
  <tile gid="0"/>
  <tile gid="0"/>
  <tile gid="0"/>
  <tile gid="0"/>
  <tile gid="0"/>
  <tile gid="0"/>
  <tile gid="0"/>
  <tile gid="0"/>
  <tile gid="0"/>
  <tile gid="0"/>
  <tile gid="0"/>
  <tile gid="0"/>
  <tile gid="0"/>
  <tile gid="0"/>
  <tile gid="0"/>
  <tile gid="0"/>
  <tile gid="0"/>
  <tile gid="0"/>
  <tile gid="29"/>
  <tile gid="30"/>
  <tile gid="31"/>
  <tile gid="0"/>
  <tile gid="0"/>
  <tile gid="0"/>
  <tile gid="0"/>
  <tile gid="0"/>
  <tile gid="0"/>
  <tile gid="0"/>
  <tile gid="0"/>
  <tile gid="0"/>
  <tile gid="0"/>
  <tile gid="0"/>
  <tile gid="0"/>
  <tile gid="0"/>
  <tile gid="0"/>
  <tile gid="0"/>
  <tile gid="0"/>
  <tile gid="0"/>
  <tile gid="61"/>
  <tile gid="62"/>
  <tile gid="63"/>
  <tile gid="0"/>
  <tile gid="0"/>
  <tile gid="0"/>
  <tile gid="0"/>
  <tile gid="0"/>
  <tile gid="0"/>
  <tile gid="0"/>
  <tile gid="0"/>
  <tile gid="0"/>
  <tile gid="0"/>
  <tile gid="0"/>
  <tile gid="0"/>
  <tile gid="0"/>
  <tile gid="0"/>
  <tile gid="0"/>
  <tile gid="0"/>
  <tile gid="0"/>
  <tile gid="0"/>
  <tile gid="0"/>
  <tile gid="0"/>
  <tile gid="0"/>
  <tile gid="0"/>
  <tile gid="0"/>
  <tile gid="0"/>
  <tile gid="0"/>
  <tile gid="0"/>
  <tile gid="0"/>
  <tile gid="0"/>
  <tile gid="0"/>
  <tile gid="0"/>
  <tile gid="0"/>
  <tile gid="0"/>
  <tile gid="0"/>
  <tile gid="0"/>
  <tile gid="0"/>
  <tile gid="0"/>
  <tile gid="0"/>
  <tile gid="0"/>
  <tile gid="0"/>
  <tile gid="0"/>
  <tile gid="0"/>
  <tile gid="0"/>
  <tile gid="0"/>
  <tile gid="0"/>
  <tile gid="0"/>
  <tile gid="0"/>
  <tile gid="0"/>
  <tile gid="0"/>
  <tile gid="0"/>
  <tile gid="0"/>
  <tile gid="0"/>
  <tile gid="0"/>
  <tile gid="0"/>
  <tile gid="0"/>
  <tile gid="0"/>
  <tile gid="0"/>
  <tile gid="0"/>
  <tile gid="0"/>
  <tile gid="0"/>
  <tile gid="0"/>
  <tile gid="0"/>
  <tile gid="0"/>
  <tile gid="0"/>
  <tile gid="0"/>
  <tile gid="0"/>
  <tile gid="0"/>
  <tile gid="0"/>
  <tile gid="0"/>
  <tile gid="0"/>
  <tile gid="0"/>
  <tile gid="0"/>
  <tile gid="0"/>
  <tile gid="0"/>
  <tile gid="0"/>
  <tile gid="0"/>
  <tile gid="0"/>
  <tile gid="0"/>
  <tile gid="0"/>
  <tile gid="0"/>
  <tile gid="0"/>
  <tile gid="0"/>
  <tile gid="0"/>
  <tile gid="0"/>
  <tile gid="0"/>
  <tile gid="0"/>
  <tile gid="0"/>
  <tile gid="0"/>
  <tile gid="0"/>
  <tile gid="0"/>
  <tile gid="0"/>
  <tile gid="0"/>
  <tile gid="0"/>
  <tile gid="0"/>
  <tile gid="0"/>
  <tile gid="0"/>
  <tile gid="0"/>
  <tile gid="0"/>
  <tile gid="0"/>
  <tile gid="0"/>
  <tile gid="0"/>
  <tile gid="0"/>
  <tile gid="0"/>
  <tile gid="0"/>
  <tile gid="0"/>
  <tile gid="0"/>
  <tile gid="0"/>
  <tile gid="0"/>
  <tile gid="0"/>
  <tile gid="0"/>
  <tile gid="0"/>
  <tile gid="0"/>
  <tile gid="0"/>
  <tile gid="0"/>
  <tile gid="0"/>
  <tile gid="0"/>
  <tile gid="0"/>
  <tile gid="0"/>
  <tile gid="0"/>
  <tile gid="0"/>
  <tile gid="0"/>
  <tile gid="0"/>
  <tile gid="0"/>
  <tile gid="0"/>
  <tile gid="0"/>
  <tile gid="0"/>
  <tile gid="0"/>
  <tile gid="0"/>
  <tile gid="0"/>
  <tile gid="0"/>
  <tile gid="0"/>
  <tile gid="0"/>
  <tile gid="0"/>
  <tile gid="0"/>
  <tile gid="0"/>
  <tile gid="0"/>
  <tile gid="0"/>
  <tile gid="0"/>
  <tile gid="0"/>
  <tile gid="0"/>
  <tile gid="0"/>
  <tile gid="0"/>
  <tile gid="0"/>
  <tile gid="0"/>
  <tile gid="0"/>
  <tile gid="0"/>
  <tile gid="0"/>
  <tile gid="0"/>
  <tile gid="0"/>
  <tile gid="0"/>
  <tile gid="0"/>
  <tile gid="0"/>
  <tile gid="0"/>
  <tile gid="0"/>
  <tile gid="0"/>
  <tile gid="0"/>
  <tile gid="0"/>
  <tile gid="0"/>
  <tile gid="0"/>
  <tile gid="0"/>
  <tile gid="0"/>
  <tile gid="0"/>
  <tile gid="0"/>
  <tile gid="0"/>
  <tile gid="0"/>
  <tile gid="0"/>
  <tile gid="0"/>
  <tile gid="0"/>
  <tile gid="0"/>
  <tile gid="0"/>
  <tile gid="0"/>
  <tile gid="0"/>
  <tile gid="0"/>
  <tile gid="0"/>
  <tile gid="0"/>
  <tile gid="0"/>
  <tile gid="0"/>
  <tile gid="0"/>
  <tile gid="0"/>
  <tile gid="0"/>
  <tile gid="0"/>
  <tile gid="0"/>
  <tile gid="0"/>
  <tile gid="0"/>
  <tile gid="0"/>
  <tile gid="0"/>
  <tile gid="0"/>
  <tile gid="0"/>
  <tile gid="0"/>
  <tile gid="0"/>
  <tile gid="0"/>
  <tile gid="0"/>
  <tile gid="0"/>
  <tile gid="0"/>
  <tile gid="0"/>
  <tile gid="0"/>
  <tile gid="0"/>
  <tile gid="0"/>
  <tile gid="0"/>
  <tile gid="0"/>
  <tile gid="0"/>
  <tile gid="0"/>
  <tile gid="0"/>
  <tile gid="0"/>
  <tile gid="0"/>
  <tile gid="0"/>
  <tile gid="0"/>
  <tile gid="0"/>
  <tile gid="0"/>
  <tile gid="0"/>
  <tile gid="0"/>
  <tile gid="0"/>
  <tile gid="0"/>
  <tile gid="0"/>
  <tile gid="0"/>
  <tile gid="0"/>
  <tile gid="0"/>
  <tile gid="0"/>
  <tile gid="0"/>
  <tile gid="0"/>
  <tile gid="0"/>
  <tile gid="0"/>
  <tile gid="0"/>
  <tile gid="0"/>
  <tile gid="0"/>
  <tile gid="0"/>
  <tile gid="0"/>
  <tile gid="0"/>
  <tile gid="0"/>
  <tile gid="0"/>
  <tile gid="0"/>
  <tile gid="0"/>
  <tile gid="0"/>
  <tile gid="0"/>
  <tile gid="0"/>
  <tile gid="0"/>
  <tile gid="0"/>
  <tile gid="0"/>
  <tile gid="0"/>
  <tile gid="0"/>
  <tile gid="0"/>
  <tile gid="0"/>
  <tile gid="0"/>
  <tile gid="0"/>
  <tile gid="0"/>
  <tile gid="0"/>
  <tile gid="0"/>
  <tile gid="0"/>
  <tile gid="0"/>
  <tile gid="0"/>
  <tile gid="0"/>
  <tile gid="0"/>
  <tile gid="0"/>
  <tile gid="0"/>
  <tile gid="0"/>
  <tile gid="0"/>
  <tile gid="0"/>
  <tile gid="0"/>
  <tile gid="0"/>
  <tile gid="0"/>
  <tile gid="0"/>
  <tile gid="0"/>
  <tile gid="0"/>
  <tile gid="0"/>
  <tile gid="0"/>
  <tile gid="0"/>
  <tile gid="0"/>
  <tile gid="0"/>
  <tile gid="0"/>
  <tile gid="0"/>
  <tile gid="0"/>
  <tile gid="0"/>
  <tile gid="0"/>
  <tile gid="0"/>
  <tile gid="0"/>
  </data>
 </layer>
 <layer name="Map Change 1" width="20" height="20">
  <properties>
   <property name="ID" value ="1"/>
   <property name="Height" value ="1"/>
   <property name="Width" value ="1"/>
   <property name="X" value ="4"/>
   <property name="Y" value ="6"/>
  </properties>
  <data>
  <tile gid="0"/>
  <tile gid="0"/>
  <tile gid="0"/>
  <tile gid="0"/>
  <tile gid="0"/>
  <tile gid="0"/>
  <tile gid="0"/>
  <tile gid="0"/>
  <tile gid="0"/>
  <tile gid="0"/>
  <tile gid="0"/>
  <tile gid="0"/>
  <tile gid="0"/>
  <tile gid="0"/>
  <tile gid="0"/>
  <tile gid="0"/>
  <tile gid="0"/>
  <tile gid="0"/>
  <tile gid="0"/>
  <tile gid="0"/>
  <tile gid="0"/>
  <tile gid="0"/>
  <tile gid="0"/>
  <tile gid="0"/>
  <tile gid="0"/>
  <tile gid="0"/>
  <tile gid="0"/>
  <tile gid="0"/>
  <tile gid="0"/>
  <tile gid="0"/>
  <tile gid="0"/>
  <tile gid="0"/>
  <tile gid="0"/>
  <tile gid="0"/>
  <tile gid="0"/>
  <tile gid="0"/>
  <tile gid="0"/>
  <tile gid="0"/>
  <tile gid="0"/>
  <tile gid="0"/>
  <tile gid="0"/>
  <tile gid="0"/>
  <tile gid="0"/>
  <tile gid="0"/>
  <tile gid="0"/>
  <tile gid="0"/>
  <tile gid="0"/>
  <tile gid="0"/>
  <tile gid="0"/>
  <tile gid="0"/>
  <tile gid="0"/>
  <tile gid="0"/>
  <tile gid="0"/>
  <tile gid="0"/>
  <tile gid="0"/>
  <tile gid="0"/>
  <tile gid="0"/>
  <tile gid="0"/>
  <tile gid="0"/>
  <tile gid="0"/>
  <tile gid="0"/>
  <tile gid="0"/>
  <tile gid="0"/>
  <tile gid="0"/>
  <tile gid="0"/>
  <tile gid="0"/>
  <tile gid="0"/>
  <tile gid="0"/>
  <tile gid="0"/>
  <tile gid="0"/>
  <tile gid="0"/>
  <tile gid="0"/>
  <tile gid="0"/>
  <tile gid="0"/>
  <tile gid="0"/>
  <tile gid="0"/>
  <tile gid="0"/>
  <tile gid="0"/>
  <tile gid="0"/>
  <tile gid="0"/>
  <tile gid="0"/>
  <tile gid="0"/>
  <tile gid="0"/>
  <tile gid="0"/>
  <tile gid="0"/>
  <tile gid="0"/>
  <tile gid="0"/>
  <tile gid="0"/>
  <tile gid="0"/>
  <tile gid="0"/>
  <tile gid="0"/>
  <tile gid="0"/>
  <tile gid="0"/>
  <tile gid="0"/>
  <tile gid="0"/>
  <tile gid="0"/>
  <tile gid="0"/>
  <tile gid="0"/>
  <tile gid="0"/>
  <tile gid="0"/>
  <tile gid="0"/>
  <tile gid="0"/>
  <tile gid="0"/>
  <tile gid="0"/>
  <tile gid="0"/>
  <tile gid="0"/>
  <tile gid="0"/>
  <tile gid="0"/>
  <tile gid="0"/>
  <tile gid="0"/>
  <tile gid="0"/>
  <tile gid="0"/>
  <tile gid="0"/>
  <tile gid="0"/>
  <tile gid="0"/>
  <tile gid="0"/>
  <tile gid="0"/>
  <tile gid="0"/>
  <tile gid="0"/>
  <tile gid="0"/>
  <tile gid="0"/>
  <tile gid="0"/>
  <tile gid="0"/>
  <tile gid="0"/>
  <tile gid="32"/>
  <tile gid="0"/>
  <tile gid="0"/>
  <tile gid="0"/>
  <tile gid="0"/>
  <tile gid="0"/>
  <tile gid="0"/>
  <tile gid="0"/>
  <tile gid="0"/>
  <tile gid="0"/>
  <tile gid="0"/>
  <tile gid="0"/>
  <tile gid="0"/>
  <tile gid="0"/>
  <tile gid="0"/>
  <tile gid="0"/>
  <tile gid="0"/>
  <tile gid="0"/>
  <tile gid="0"/>
  <tile gid="0"/>
  <tile gid="0"/>
  <tile gid="0"/>
  <tile gid="0"/>
  <tile gid="0"/>
  <tile gid="0"/>
  <tile gid="0"/>
  <tile gid="0"/>
  <tile gid="0"/>
  <tile gid="0"/>
  <tile gid="0"/>
  <tile gid="0"/>
  <tile gid="0"/>
  <tile gid="0"/>
  <tile gid="0"/>
  <tile gid="0"/>
  <tile gid="0"/>
  <tile gid="0"/>
  <tile gid="0"/>
  <tile gid="0"/>
  <tile gid="0"/>
  <tile gid="0"/>
  <tile gid="0"/>
  <tile gid="0"/>
  <tile gid="0"/>
  <tile gid="0"/>
  <tile gid="0"/>
  <tile gid="0"/>
  <tile gid="0"/>
  <tile gid="0"/>
  <tile gid="0"/>
  <tile gid="0"/>
  <tile gid="0"/>
  <tile gid="0"/>
  <tile gid="0"/>
  <tile gid="0"/>
  <tile gid="0"/>
  <tile gid="0"/>
  <tile gid="0"/>
  <tile gid="0"/>
  <tile gid="0"/>
  <tile gid="0"/>
  <tile gid="0"/>
  <tile gid="0"/>
  <tile gid="0"/>
  <tile gid="0"/>
  <tile gid="0"/>
  <tile gid="0"/>
  <tile gid="0"/>
  <tile gid="0"/>
  <tile gid="0"/>
  <tile gid="0"/>
  <tile gid="0"/>
  <tile gid="0"/>
  <tile gid="0"/>
  <tile gid="0"/>
  <tile gid="0"/>
  <tile gid="0"/>
  <tile gid="0"/>
  <tile gid="0"/>
  <tile gid="0"/>
  <tile gid="0"/>
  <tile gid="0"/>
  <tile gid="0"/>
  <tile gid="0"/>
  <tile gid="0"/>
  <tile gid="0"/>
  <tile gid="0"/>
  <tile gid="0"/>
  <tile gid="0"/>
  <tile gid="0"/>
  <tile gid="0"/>
  <tile gid="0"/>
  <tile gid="0"/>
  <tile gid="0"/>
  <tile gid="0"/>
  <tile gid="0"/>
  <tile gid="0"/>
  <tile gid="0"/>
  <tile gid="0"/>
  <tile gid="0"/>
  <tile gid="0"/>
  <tile gid="0"/>
  <tile gid="0"/>
  <tile gid="0"/>
  <tile gid="0"/>
  <tile gid="0"/>
  <tile gid="0"/>
  <tile gid="0"/>
  <tile gid="0"/>
  <tile gid="0"/>
  <tile gid="0"/>
  <tile gid="0"/>
  <tile gid="0"/>
  <tile gid="0"/>
  <tile gid="0"/>
  <tile gid="0"/>
  <tile gid="0"/>
  <tile gid="0"/>
  <tile gid="0"/>
  <tile gid="0"/>
  <tile gid="0"/>
  <tile gid="0"/>
  <tile gid="0"/>
  <tile gid="0"/>
  <tile gid="0"/>
  <tile gid="0"/>
  <tile gid="0"/>
  <tile gid="0"/>
  <tile gid="0"/>
  <tile gid="0"/>
  <tile gid="0"/>
  <tile gid="0"/>
  <tile gid="0"/>
  <tile gid="0"/>
  <tile gid="0"/>
  <tile gid="0"/>
  <tile gid="0"/>
  <tile gid="0"/>
  <tile gid="0"/>
  <tile gid="0"/>
  <tile gid="0"/>
  <tile gid="0"/>
  <tile gid="0"/>
  <tile gid="0"/>
  <tile gid="0"/>
  <tile gid="0"/>
  <tile gid="0"/>
  <tile gid="0"/>
  <tile gid="0"/>
  <tile gid="0"/>
  <tile gid="0"/>
  <tile gid="0"/>
  <tile gid="0"/>
  <tile gid="0"/>
  <tile gid="0"/>
  <tile gid="0"/>
  <tile gid="0"/>
  <tile gid="0"/>
  <tile gid="0"/>
  <tile gid="0"/>
  <tile gid="0"/>
  <tile gid="0"/>
  <tile gid="0"/>
  <tile gid="0"/>
  <tile gid="0"/>
  <tile gid="0"/>
  <tile gid="0"/>
  <tile gid="0"/>
  <tile gid="0"/>
  <tile gid="0"/>
  <tile gid="0"/>
  <tile gid="0"/>
  <tile gid="0"/>
  <tile gid="0"/>
  <tile gid="0"/>
  <tile gid="0"/>
  <tile gid="0"/>
  <tile gid="0"/>
  <tile gid="0"/>
  <tile gid="0"/>
  <tile gid="0"/>
  <tile gid="0"/>
  <tile gid="0"/>
  <tile gid="0"/>
  <tile gid="0"/>
  <tile gid="0"/>
  <tile gid="0"/>
  <tile gid="0"/>
  <tile gid="0"/>
  <tile gid="0"/>
  <tile gid="0"/>
  <tile gid="0"/>
  <tile gid="0"/>
  <tile gid="0"/>
  <tile gid="0"/>
  <tile gid="0"/>
  <tile gid="0"/>
  <tile gid="0"/>
  <tile gid="0"/>
  <tile gid="0"/>
  <tile gid="0"/>
  <tile gid="0"/>
  <tile gid="0"/>
  <tile gid="0"/>
  <tile gid="0"/>
  <tile gid="0"/>
  <tile gid="0"/>
  <tile gid="0"/>
  <tile gid="0"/>
  <tile gid="0"/>
  <tile gid="0"/>
  <tile gid="0"/>
  <tile gid="0"/>
  <tile gid="0"/>
  <tile gid="0"/>
  <tile gid="0"/>
  <tile gid="0"/>
  <tile gid="0"/>
  <tile gid="0"/>
  <tile gid="0"/>
  <tile gid="0"/>
  <tile gid="0"/>
  <tile gid="0"/>
  <tile gid="0"/>
  <tile gid="0"/>
  <tile gid="0"/>
  <tile gid="0"/>
  <tile gid="0"/>
  <tile gid="0"/>
  <tile gid="0"/>
  <tile gid="0"/>
  <tile gid="0"/>
  <tile gid="0"/>
  <tile gid="0"/>
  <tile gid="0"/>
  <tile gid="0"/>
  <tile gid="0"/>
  <tile gid="0"/>
  <tile gid="0"/>
  <tile gid="0"/>
  <tile gid="0"/>
  <tile gid="0"/>
  <tile gid="0"/>
  <tile gid="0"/>
  <tile gid="0"/>
  <tile gid="0"/>
  <tile gid="0"/>
  <tile gid="0"/>
  <tile gid="0"/>
  <tile gid="0"/>
  <tile gid="0"/>
  <tile gid="0"/>
  <tile gid="0"/>
  <tile gid="0"/>
  <tile gid="0"/>
  <tile gid="0"/>
  <tile gid="0"/>
  <tile gid="0"/>
  <tile gid="0"/>
  <tile gid="0"/>
  <tile gid="0"/>
  <tile gid="0"/>
  <tile gid="0"/>
  <tile gid="0"/>
  <tile gid="0"/>
  <tile gid="0"/>
  <tile gid="0"/>
  <tile gid="0"/>
  <tile gid="0"/>
  <tile gid="0"/>
  <tile gid="0"/>
  <tile gid="0"/>
  <tile gid="0"/>
  <tile gid="0"/>
  <tile gid="0"/>
  <tile gid="0"/>
  </data>
 </layer>
 <layer name="Map Change 2" width="20" height="20">
  <properties>
   <property name="ID" value ="2"/>
   <property name="Height" value ="2"/>
   <property name="Width" value ="3"/>
   <property name="X" value ="15"/>
   <property name="Y" value ="9"/>
  </properties>
  <data>
  <tile gid="0"/>
  <tile gid="0"/>
  <tile gid="0"/>
  <tile gid="0"/>
  <tile gid="0"/>
  <tile gid="0"/>
  <tile gid="0"/>
  <tile gid="0"/>
  <tile gid="0"/>
  <tile gid="0"/>
  <tile gid="0"/>
  <tile gid="0"/>
  <tile gid="0"/>
  <tile gid="0"/>
  <tile gid="0"/>
  <tile gid="0"/>
  <tile gid="0"/>
  <tile gid="0"/>
  <tile gid="0"/>
  <tile gid="0"/>
  <tile gid="0"/>
  <tile gid="0"/>
  <tile gid="0"/>
  <tile gid="0"/>
  <tile gid="0"/>
  <tile gid="0"/>
  <tile gid="0"/>
  <tile gid="0"/>
  <tile gid="0"/>
  <tile gid="0"/>
  <tile gid="0"/>
  <tile gid="0"/>
  <tile gid="0"/>
  <tile gid="0"/>
  <tile gid="0"/>
  <tile gid="0"/>
  <tile gid="0"/>
  <tile gid="0"/>
  <tile gid="0"/>
  <tile gid="0"/>
  <tile gid="0"/>
  <tile gid="0"/>
  <tile gid="0"/>
  <tile gid="0"/>
  <tile gid="0"/>
  <tile gid="0"/>
  <tile gid="0"/>
  <tile gid="0"/>
  <tile gid="0"/>
  <tile gid="0"/>
  <tile gid="0"/>
  <tile gid="0"/>
  <tile gid="0"/>
  <tile gid="0"/>
  <tile gid="0"/>
  <tile gid="0"/>
  <tile gid="0"/>
  <tile gid="0"/>
  <tile gid="0"/>
  <tile gid="0"/>
  <tile gid="0"/>
  <tile gid="0"/>
  <tile gid="0"/>
  <tile gid="0"/>
  <tile gid="0"/>
  <tile gid="0"/>
  <tile gid="0"/>
  <tile gid="0"/>
  <tile gid="0"/>
  <tile gid="0"/>
  <tile gid="0"/>
  <tile gid="0"/>
  <tile gid="0"/>
  <tile gid="0"/>
  <tile gid="0"/>
  <tile gid="0"/>
  <tile gid="0"/>
  <tile gid="0"/>
  <tile gid="0"/>
  <tile gid="0"/>
  <tile gid="0"/>
  <tile gid="0"/>
  <tile gid="0"/>
  <tile gid="0"/>
  <tile gid="0"/>
  <tile gid="0"/>
  <tile gid="0"/>
  <tile gid="0"/>
  <tile gid="0"/>
  <tile gid="0"/>
  <tile gid="0"/>
  <tile gid="0"/>
  <tile gid="0"/>
  <tile gid="0"/>
  <tile gid="0"/>
  <tile gid="0"/>
  <tile gid="0"/>
  <tile gid="0"/>
  <tile gid="0"/>
  <tile gid="0"/>
  <tile gid="0"/>
  <tile gid="0"/>
  <tile gid="0"/>
  <tile gid="0"/>
  <tile gid="0"/>
  <tile gid="0"/>
  <tile gid="0"/>
  <tile gid="0"/>
  <tile gid="0"/>
  <tile gid="0"/>
  <tile gid="0"/>
  <tile gid="0"/>
  <tile gid="0"/>
  <tile gid="0"/>
  <tile gid="0"/>
  <tile gid="0"/>
  <tile gid="0"/>
  <tile gid="0"/>
  <tile gid="0"/>
  <tile gid="0"/>
  <tile gid="0"/>
  <tile gid="0"/>
  <tile gid="0"/>
  <tile gid="0"/>
  <tile gid="0"/>
  <tile gid="0"/>
  <tile gid="0"/>
  <tile gid="0"/>
  <tile gid="0"/>
  <tile gid="0"/>
  <tile gid="0"/>
  <tile gid="0"/>
  <tile gid="0"/>
  <tile gid="0"/>
  <tile gid="0"/>
  <tile gid="0"/>
  <tile gid="0"/>
  <tile gid="0"/>
  <tile gid="0"/>
  <tile gid="0"/>
  <tile gid="0"/>
  <tile gid="0"/>
  <tile gid="0"/>
  <tile gid="0"/>
  <tile gid="0"/>
  <tile gid="0"/>
  <tile gid="0"/>
  <tile gid="0"/>
  <tile gid="0"/>
  <tile gid="0"/>
  <tile gid="0"/>
  <tile gid="0"/>
  <tile gid="0"/>
  <tile gid="0"/>
  <tile gid="0"/>
  <tile gid="0"/>
  <tile gid="0"/>
  <tile gid="0"/>
  <tile gid="0"/>
  <tile gid="0"/>
  <tile gid="0"/>
  <tile gid="0"/>
  <tile gid="0"/>
  <tile gid="0"/>
  <tile gid="0"/>
  <tile gid="0"/>
  <tile gid="0"/>
  <tile gid="0"/>
  <tile gid="0"/>
  <tile gid="0"/>
  <tile gid="0"/>
  <tile gid="0"/>
  <tile gid="0"/>
  <tile gid="0"/>
  <tile gid="0"/>
  <tile gid="0"/>
  <tile gid="0"/>
  <tile gid="0"/>
  <tile gid="0"/>
  <tile gid="0"/>
  <tile gid="0"/>
  <tile gid="0"/>
  <tile gid="0"/>
  <tile gid="0"/>
  <tile gid="0"/>
  <tile gid="0"/>
  <tile gid="0"/>
  <tile gid="0"/>
  <tile gid="0"/>
  <tile gid="0"/>
  <tile gid="0"/>
  <tile gid="0"/>
  <tile gid="0"/>
  <tile gid="0"/>
  <tile gid="0"/>
  <tile gid="29"/>
  <tile gid="30"/>
  <tile gid="31"/>
  <tile gid="0"/>
  <tile gid="0"/>
  <tile gid="0"/>
  <tile gid="0"/>
  <tile gid="0"/>
  <tile gid="0"/>
  <tile gid="0"/>
  <tile gid="0"/>
  <tile gid="0"/>
  <tile gid="0"/>
  <tile gid="0"/>
  <tile gid="0"/>
  <tile gid="0"/>
  <tile gid="0"/>
  <tile gid="0"/>
  <tile gid="0"/>
  <tile gid="0"/>
  <tile gid="61"/>
  <tile gid="62"/>
  <tile gid="63"/>
  <tile gid="0"/>
  <tile gid="0"/>
  <tile gid="0"/>
  <tile gid="0"/>
  <tile gid="0"/>
  <tile gid="0"/>
  <tile gid="0"/>
  <tile gid="0"/>
  <tile gid="0"/>
  <tile gid="0"/>
  <tile gid="0"/>
  <tile gid="0"/>
  <tile gid="0"/>
  <tile gid="0"/>
  <tile gid="0"/>
  <tile gid="0"/>
  <tile gid="0"/>
  <tile gid="0"/>
  <tile gid="0"/>
  <tile gid="0"/>
  <tile gid="0"/>
  <tile gid="0"/>
  <tile gid="0"/>
  <tile gid="0"/>
  <tile gid="0"/>
  <tile gid="0"/>
  <tile gid="0"/>
  <tile gid="0"/>
  <tile gid="0"/>
  <tile gid="0"/>
  <tile gid="0"/>
  <tile gid="0"/>
  <tile gid="0"/>
  <tile gid="0"/>
  <tile gid="0"/>
  <tile gid="0"/>
  <tile gid="0"/>
  <tile gid="0"/>
  <tile gid="0"/>
  <tile gid="0"/>
  <tile gid="0"/>
  <tile gid="0"/>
  <tile gid="0"/>
  <tile gid="0"/>
  <tile gid="0"/>
  <tile gid="0"/>
  <tile gid="0"/>
  <tile gid="0"/>
  <tile gid="0"/>
  <tile gid="0"/>
  <tile gid="0"/>
  <tile gid="0"/>
  <tile gid="0"/>
  <tile gid="0"/>
  <tile gid="0"/>
  <tile gid="0"/>
  <tile gid="0"/>
  <tile gid="0"/>
  <tile gid="0"/>
  <tile gid="0"/>
  <tile gid="0"/>
  <tile gid="0"/>
  <tile gid="0"/>
  <tile gid="0"/>
  <tile gid="0"/>
  <tile gid="0"/>
  <tile gid="0"/>
  <tile gid="0"/>
  <tile gid="0"/>
  <tile gid="0"/>
  <tile gid="0"/>
  <tile gid="0"/>
  <tile gid="0"/>
  <tile gid="0"/>
  <tile gid="0"/>
  <tile gid="0"/>
  <tile gid="0"/>
  <tile gid="0"/>
  <tile gid="0"/>
  <tile gid="0"/>
  <tile gid="0"/>
  <tile gid="0"/>
  <tile gid="0"/>
  <tile gid="0"/>
  <tile gid="0"/>
  <tile gid="0"/>
  <tile gid="0"/>
  <tile gid="0"/>
  <tile gid="0"/>
  <tile gid="0"/>
  <tile gid="0"/>
  <tile gid="0"/>
  <tile gid="0"/>
  <tile gid="0"/>
  <tile gid="0"/>
  <tile gid="0"/>
  <tile gid="0"/>
  <tile gid="0"/>
  <tile gid="0"/>
  <tile gid="0"/>
  <tile gid="0"/>
  <tile gid="0"/>
  <tile gid="0"/>
  <tile gid="0"/>
  <tile gid="0"/>
  <tile gid="0"/>
  <tile gid="0"/>
  <tile gid="0"/>
  <tile gid="0"/>
  <tile gid="0"/>
  <tile gid="0"/>
  <tile gid="0"/>
  <tile gid="0"/>
  <tile gid="0"/>
  <tile gid="0"/>
  <tile gid="0"/>
  <tile gid="0"/>
  <tile gid="0"/>
  <tile gid="0"/>
  <tile gid="0"/>
  <tile gid="0"/>
  <tile gid="0"/>
  <tile gid="0"/>
  <tile gid="0"/>
  <tile gid="0"/>
  <tile gid="0"/>
  <tile gid="0"/>
  <tile gid="0"/>
  <tile gid="0"/>
  <tile gid="0"/>
  <tile gid="0"/>
  <tile gid="0"/>
  <tile gid="0"/>
  <tile gid="0"/>
  <tile gid="0"/>
  <tile gid="0"/>
  <tile gid="0"/>
  <tile gid="0"/>
  <tile gid="0"/>
  <tile gid="0"/>
  <tile gid="0"/>
  <tile gid="0"/>
  <tile gid="0"/>
  <tile gid="0"/>
  <tile gid="0"/>
  <tile gid="0"/>
  <tile gid="0"/>
  <tile gid="0"/>
  <tile gid="0"/>
  <tile gid="0"/>
  <tile gid="0"/>
  <tile gid="0"/>
  <tile gid="0"/>
  <tile gid="0"/>
  <tile gid="0"/>
  <tile gid="0"/>
  <tile gid="0"/>
  <tile gid="0"/>
  <tile gid="0"/>
  <tile gid="0"/>
  <tile gid="0"/>
  <tile gid="0"/>
  <tile gid="0"/>
  <tile gid="0"/>
  <tile gid="0"/>
  <tile gid="0"/>
  <tile gid="0"/>
  <tile gid="0"/>
  <tile gid="0"/>
  <tile gid="0"/>
  <tile gid="0"/>
  <tile gid="0"/>
  <tile gid="0"/>
  <tile gid="0"/>
  <tile gid="0"/>
  <tile gid="0"/>
  <tile gid="0"/>
  <tile gid="0"/>
  <tile gid="0"/>
  <tile gid="0"/>
  <tile gid="0"/>
  <tile gid="0"/>
  </data>
 </layer>
 <layer name="Map Change 3" width="20" height="20">
  <properties>
   <property name="ID" value ="3"/>
   <property name="Height" value ="1"/>
   <property name="Width" value ="1"/>
   <property name="X" value ="16"/>
   <property name="Y" value ="10"/>
  </properties>
  <data>
  <tile gid="0"/>
  <tile gid="0"/>
  <tile gid="0"/>
  <tile gid="0"/>
  <tile gid="0"/>
  <tile gid="0"/>
  <tile gid="0"/>
  <tile gid="0"/>
  <tile gid="0"/>
  <tile gid="0"/>
  <tile gid="0"/>
  <tile gid="0"/>
  <tile gid="0"/>
  <tile gid="0"/>
  <tile gid="0"/>
  <tile gid="0"/>
  <tile gid="0"/>
  <tile gid="0"/>
  <tile gid="0"/>
  <tile gid="0"/>
  <tile gid="0"/>
  <tile gid="0"/>
  <tile gid="0"/>
  <tile gid="0"/>
  <tile gid="0"/>
  <tile gid="0"/>
  <tile gid="0"/>
  <tile gid="0"/>
  <tile gid="0"/>
  <tile gid="0"/>
  <tile gid="0"/>
  <tile gid="0"/>
  <tile gid="0"/>
  <tile gid="0"/>
  <tile gid="0"/>
  <tile gid="0"/>
  <tile gid="0"/>
  <tile gid="0"/>
  <tile gid="0"/>
  <tile gid="0"/>
  <tile gid="0"/>
  <tile gid="0"/>
  <tile gid="0"/>
  <tile gid="0"/>
  <tile gid="0"/>
  <tile gid="0"/>
  <tile gid="0"/>
  <tile gid="0"/>
  <tile gid="0"/>
  <tile gid="0"/>
  <tile gid="0"/>
  <tile gid="0"/>
  <tile gid="0"/>
  <tile gid="0"/>
  <tile gid="0"/>
  <tile gid="0"/>
  <tile gid="0"/>
  <tile gid="0"/>
  <tile gid="0"/>
  <tile gid="0"/>
  <tile gid="0"/>
  <tile gid="0"/>
  <tile gid="0"/>
  <tile gid="0"/>
  <tile gid="0"/>
  <tile gid="0"/>
  <tile gid="0"/>
  <tile gid="0"/>
  <tile gid="0"/>
  <tile gid="0"/>
  <tile gid="0"/>
  <tile gid="0"/>
  <tile gid="0"/>
  <tile gid="0"/>
  <tile gid="0"/>
  <tile gid="0"/>
  <tile gid="0"/>
  <tile gid="0"/>
  <tile gid="0"/>
  <tile gid="0"/>
  <tile gid="0"/>
  <tile gid="0"/>
  <tile gid="0"/>
  <tile gid="0"/>
  <tile gid="0"/>
  <tile gid="0"/>
  <tile gid="0"/>
  <tile gid="0"/>
  <tile gid="0"/>
  <tile gid="0"/>
  <tile gid="0"/>
  <tile gid="0"/>
  <tile gid="0"/>
  <tile gid="0"/>
  <tile gid="0"/>
  <tile gid="0"/>
  <tile gid="0"/>
  <tile gid="0"/>
  <tile gid="0"/>
  <tile gid="0"/>
  <tile gid="0"/>
  <tile gid="0"/>
  <tile gid="0"/>
  <tile gid="0"/>
  <tile gid="0"/>
  <tile gid="0"/>
  <tile gid="0"/>
  <tile gid="0"/>
  <tile gid="0"/>
  <tile gid="0"/>
  <tile gid="0"/>
  <tile gid="0"/>
  <tile gid="0"/>
  <tile gid="0"/>
  <tile gid="0"/>
  <tile gid="0"/>
  <tile gid="0"/>
  <tile gid="0"/>
  <tile gid="0"/>
  <tile gid="0"/>
  <tile gid="0"/>
  <tile gid="0"/>
  <tile gid="0"/>
  <tile gid="0"/>
  <tile gid="0"/>
  <tile gid="0"/>
  <tile gid="0"/>
  <tile gid="0"/>
  <tile gid="0"/>
  <tile gid="0"/>
  <tile gid="0"/>
  <tile gid="0"/>
  <tile gid="0"/>
  <tile gid="0"/>
  <tile gid="0"/>
  <tile gid="0"/>
  <tile gid="0"/>
  <tile gid="0"/>
  <tile gid="0"/>
  <tile gid="0"/>
  <tile gid="0"/>
  <tile gid="0"/>
  <tile gid="0"/>
  <tile gid="0"/>
  <tile gid="0"/>
  <tile gid="0"/>
  <tile gid="0"/>
  <tile gid="0"/>
  <tile gid="0"/>
  <tile gid="0"/>
  <tile gid="0"/>
  <tile gid="0"/>
  <tile gid="0"/>
  <tile gid="0"/>
  <tile gid="0"/>
  <tile gid="0"/>
  <tile gid="0"/>
  <tile gid="0"/>
  <tile gid="0"/>
  <tile gid="0"/>
  <tile gid="0"/>
  <tile gid="0"/>
  <tile gid="0"/>
  <tile gid="0"/>
  <tile gid="0"/>
  <tile gid="0"/>
  <tile gid="0"/>
  <tile gid="0"/>
  <tile gid="0"/>
  <tile gid="0"/>
  <tile gid="0"/>
  <tile gid="0"/>
  <tile gid="0"/>
  <tile gid="0"/>
  <tile gid="0"/>
  <tile gid="0"/>
  <tile gid="0"/>
  <tile gid="0"/>
  <tile gid="0"/>
  <tile gid="0"/>
  <tile gid="0"/>
  <tile gid="0"/>
  <tile gid="0"/>
  <tile gid="0"/>
  <tile gid="0"/>
  <tile gid="0"/>
  <tile gid="0"/>
  <tile gid="0"/>
  <tile gid="0"/>
  <tile gid="0"/>
  <tile gid="0"/>
  <tile gid="0"/>
  <tile gid="0"/>
  <tile gid="0"/>
  <tile gid="0"/>
  <tile gid="0"/>
  <tile gid="0"/>
  <tile gid="0"/>
  <tile gid="0"/>
  <tile gid="0"/>
  <tile gid="0"/>
  <tile gid="0"/>
  <tile gid="0"/>
  <tile gid="0"/>
  <tile gid="0"/>
  <tile gid="0"/>
  <tile gid="0"/>
  <tile gid="0"/>
  <tile gid="0"/>
  <tile gid="0"/>
  <tile gid="0"/>
  <tile gid="0"/>
  <tile gid="0"/>
  <tile gid="0"/>
  <tile gid="0"/>
  <tile gid="0"/>
  <tile gid="32"/>
  <tile gid="0"/>
  <tile gid="0"/>
  <tile gid="0"/>
  <tile gid="0"/>
  <tile gid="0"/>
  <tile gid="0"/>
  <tile gid="0"/>
  <tile gid="0"/>
  <tile gid="0"/>
  <tile gid="0"/>
  <tile gid="0"/>
  <tile gid="0"/>
  <tile gid="0"/>
  <tile gid="0"/>
  <tile gid="0"/>
  <tile gid="0"/>
  <tile gid="0"/>
  <tile gid="0"/>
  <tile gid="0"/>
  <tile gid="0"/>
  <tile gid="0"/>
  <tile gid="0"/>
  <tile gid="0"/>
  <tile gid="0"/>
  <tile gid="0"/>
  <tile gid="0"/>
  <tile gid="0"/>
  <tile gid="0"/>
  <tile gid="0"/>
  <tile gid="0"/>
  <tile gid="0"/>
  <tile gid="0"/>
  <tile gid="0"/>
  <tile gid="0"/>
  <tile gid="0"/>
  <tile gid="0"/>
  <tile gid="0"/>
  <tile gid="0"/>
  <tile gid="0"/>
  <tile gid="0"/>
  <tile gid="0"/>
  <tile gid="0"/>
  <tile gid="0"/>
  <tile gid="0"/>
  <tile gid="0"/>
  <tile gid="0"/>
  <tile gid="0"/>
  <tile gid="0"/>
  <tile gid="0"/>
  <tile gid="0"/>
  <tile gid="0"/>
  <tile gid="0"/>
  <tile gid="0"/>
  <tile gid="0"/>
  <tile gid="0"/>
  <tile gid="0"/>
  <tile gid="0"/>
  <tile gid="0"/>
  <tile gid="0"/>
  <tile gid="0"/>
  <tile gid="0"/>
  <tile gid="0"/>
  <tile gid="0"/>
  <tile gid="0"/>
  <tile gid="0"/>
  <tile gid="0"/>
  <tile gid="0"/>
  <tile gid="0"/>
  <tile gid="0"/>
  <tile gid="0"/>
  <tile gid="0"/>
  <tile gid="0"/>
  <tile gid="0"/>
  <tile gid="0"/>
  <tile gid="0"/>
  <tile gid="0"/>
  <tile gid="0"/>
  <tile gid="0"/>
  <tile gid="0"/>
  <tile gid="0"/>
  <tile gid="0"/>
  <tile gid="0"/>
  <tile gid="0"/>
  <tile gid="0"/>
  <tile gid="0"/>
  <tile gid="0"/>
  <tile gid="0"/>
  <tile gid="0"/>
  <tile gid="0"/>
  <tile gid="0"/>
  <tile gid="0"/>
  <tile gid="0"/>
  <tile gid="0"/>
  <tile gid="0"/>
  <tile gid="0"/>
  <tile gid="0"/>
  <tile gid="0"/>
  <tile gid="0"/>
  <tile gid="0"/>
  <tile gid="0"/>
  <tile gid="0"/>
  <tile gid="0"/>
  <tile gid="0"/>
  <tile gid="0"/>
  <tile gid="0"/>
  <tile gid="0"/>
  <tile gid="0"/>
  <tile gid="0"/>
  <tile gid="0"/>
  <tile gid="0"/>
  <tile gid="0"/>
  <tile gid="0"/>
  <tile gid="0"/>
  <tile gid="0"/>
  <tile gid="0"/>
  <tile gid="0"/>
  <tile gid="0"/>
  <tile gid="0"/>
  <tile gid="0"/>
  <tile gid="0"/>
  <tile gid="0"/>
  <tile gid="0"/>
  <tile gid="0"/>
  <tile gid="0"/>
  <tile gid="0"/>
  <tile gid="0"/>
  <tile gid="0"/>
  <tile gid="0"/>
  <tile gid="0"/>
  <tile gid="0"/>
  <tile gid="0"/>
  <tile gid="0"/>
  <tile gid="0"/>
  <tile gid="0"/>
  <tile gid="0"/>
  <tile gid="0"/>
  <tile gid="0"/>
  <tile gid="0"/>
  <tile gid="0"/>
  <tile gid="0"/>
  <tile gid="0"/>
  <tile gid="0"/>
  <tile gid="0"/>
  <tile gid="0"/>
  <tile gid="0"/>
  <tile gid="0"/>
  <tile gid="0"/>
  <tile gid="0"/>
  <tile gid="0"/>
  <tile gid="0"/>
  <tile gid="0"/>
  <tile gid="0"/>
  <tile gid="0"/>
  <tile gid="0"/>
  <tile gid="0"/>
  <tile gid="0"/>
  <tile gid="0"/>
  <tile gid="0"/>
  <tile gid="0"/>
  <tile gid="0"/>
  <tile gid="0"/>
  <tile gid="0"/>
  <tile gid="0"/>
  <tile gid="0"/>
  <tile gid="0"/>
  <tile gid="0"/>
  <tile gid="0"/>
  <tile gid="0"/>
  <tile gid="0"/>
  <tile gid="0"/>
  <tile gid="0"/>
  <tile gid="0"/>
  <tile gid="0"/>
  <tile gid="0"/>
  <tile gid="0"/>
  <tile gid="0"/>
  <tile gid="0"/>
  <tile gid="0"/>
  <tile gid="0"/>
  <tile gid="0"/>
  <tile gid="0"/>
  <tile gid="0"/>
  <tile gid="0"/>
  </data>
 </layer>
</map>
