<?xml version="1.0" encoding="UTF-8"?>
<map version="1.10" tiledversion="1.11.0" orientation="orthogonal" renderorder="right-down" width="27" height="21" tilewidth="16" tileheight="16" infinite="0" nextlayerid="2" nextobjectid="1">
 <tileset firstgid="1" name="1400150B" tilewidth="16" tileheight="16" tilecount="1024" columns="32">
  <image source="1400150B.png" trans="ffffff" width="512" height="512"/>
 </tileset>
 <layer id="1" name="Tile Layer 1" width="27" height="21">
  <properties>
   <property name="Anims1" value="0"/>
   <property name="Anims2" value="0"/>
   <property name="ChapterID" value="Chapter13"/>
   <property name="Main" value=""/>
   <property name="MapChangesID" value="MapChange13ID"/>
   <property name="MapID" value="Map13ID"/>
   <property name="ObjectType" value="Castle1OBJ"/>
   <property name="PaletteID" value="Castle1PAL"/>
   <property name="TileConfig" value="CastleCONFIG"/>
  </properties>
  <data>
   <tile gid="425"/>
   <tile gid="425"/>
   <tile gid="425"/>
   <tile gid="425"/>
   <tile gid="425"/>
   <tile gid="490"/>
   <tile gid="623"/>
   <tile gid="626"/>
   <tile gid="915"/>
   <tile gid="914"/>
   <tile gid="913"/>
   <tile gid="1007"/>
   <tile gid="489"/>
   <tile gid="425"/>
   <tile gid="490"/>
   <tile gid="626"/>
   <tile gid="915"/>
   <tile gid="914"/>
   <tile gid="913"/>
   <tile gid="1007"/>
   <tile gid="629"/>
   <tile gid="489"/>
   <tile gid="425"/>
   <tile gid="425"/>
   <tile gid="425"/>
   <tile gid="425"/>
   <tile gid="425"/>
   <tile gid="425"/>
   <tile gid="425"/>
   <tile gid="552"/>
   <tile gid="427"/>
   <tile gid="427"/>
   <tile gid="554"/>
   <tile gid="655"/>
   <tile gid="691"/>
   <tile gid="947"/>
   <tile gid="625"/>
   <tile gid="945"/>
   <tile gid="626"/>
   <tile gid="915"/>
   <tile gid="883"/>
   <tile gid="913"/>
   <tile gid="1007"/>
   <tile gid="947"/>
   <tile gid="625"/>
   <tile gid="945"/>
   <tile gid="692"/>
   <tile gid="690"/>
   <tile gid="429"/>
   <tile gid="427"/>
   <tile gid="427"/>
   <tile gid="551"/>
   <tile gid="425"/>
   <tile gid="425"/>
   <tile gid="425"/>
   <tile gid="552"/>
   <tile gid="554"/>
   <tile gid="779"/>
   <tile gid="779"/>
   <tile gid="782"/>
   <tile gid="877"/>
   <tile gid="689"/>
   <tile gid="691"/>
   <tile gid="976"/>
   <tile gid="626"/>
   <tile gid="626"/>
   <tile gid="947"/>
   <tile gid="625"/>
   <tile gid="945"/>
   <tile gid="626"/>
   <tile gid="626"/>
   <tile gid="976"/>
   <tile gid="692"/>
   <tile gid="690"/>
   <tile gid="843"/>
   <tile gid="781"/>
   <tile gid="779"/>
   <tile gid="779"/>
   <tile gid="429"/>
   <tile gid="551"/>
   <tile gid="425"/>
   <tile gid="425"/>
   <tile gid="490"/>
   <tile gid="782"/>
   <tile gid="874"/>
   <tile gid="844"/>
   <tile gid="844"/>
   <tile gid="843"/>
   <tile gid="842"/>
   <tile gid="689"/>
   <tile gid="628"/>
   <tile gid="628"/>
   <tile gid="628"/>
   <tile gid="691"/>
   <tile gid="976"/>
   <tile gid="692"/>
   <tile gid="628"/>
   <tile gid="628"/>
   <tile gid="628"/>
   <tile gid="690"/>
   <tile gid="843"/>
   <tile gid="842"/>
   <tile gid="844"/>
   <tile gid="844"/>
   <tile gid="844"/>
   <tile gid="781"/>
   <tile gid="489"/>
   <tile gid="425"/>
   <tile gid="425"/>
   <tile gid="490"/>
   <tile gid="874"/>
   <tile gid="720"/>
   <tile gid="877"/>
   <tile gid="720"/>
   <tile gid="877"/>
   <tile gid="720"/>
   <tile gid="877"/>
   <tile gid="485"/>
   <tile gid="877"/>
   <tile gid="842"/>
   <tile gid="597"/>
   <tile gid="626"/>
   <tile gid="629"/>
   <tile gid="842"/>
   <tile gid="842"/>
   <tile gid="485"/>
   <tile gid="877"/>
   <tile gid="720"/>
   <tile gid="877"/>
   <tile gid="720"/>
   <tile gid="877"/>
   <tile gid="720"/>
   <tile gid="875"/>
   <tile gid="489"/>
   <tile gid="425"/>
   <tile gid="552"/>
   <tile gid="554"/>
   <tile gid="877"/>
   <tile gid="880"/>
   <tile gid="813"/>
   <tile gid="880"/>
   <tile gid="813"/>
   <tile gid="880"/>
   <tile gid="813"/>
   <tile gid="517"/>
   <tile gid="527"/>
   <tile gid="596"/>
   <tile gid="659"/>
   <tile gid="626"/>
   <tile gid="660"/>
   <tile gid="596"/>
   <tile gid="658"/>
   <tile gid="517"/>
   <tile gid="877"/>
   <tile gid="880"/>
   <tile gid="813"/>
   <tile gid="880"/>
   <tile gid="813"/>
   <tile gid="880"/>
   <tile gid="813"/>
   <tile gid="429"/>
   <tile gid="551"/>
   <tile gid="490"/>
   <tile gid="782"/>
   <tile gid="877"/>
   <tile gid="720"/>
   <tile gid="877"/>
   <tile gid="842"/>
   <tile gid="843"/>
   <tile gid="657"/>
   <tile gid="596"/>
   <tile gid="596"/>
   <tile gid="659"/>
   <tile gid="626"/>
   <tile gid="125"/>
   <tile gid="1007"/>
   <tile gid="125"/>
   <tile gid="1007"/>
   <tile gid="660"/>
   <tile gid="596"/>
   <tile gid="596"/>
   <tile gid="658"/>
   <tile gid="842"/>
   <tile gid="843"/>
   <tile gid="842"/>
   <tile gid="720"/>
   <tile gid="877"/>
   <tile gid="781"/>
   <tile gid="489"/>
   <tile gid="430"/>
   <tile gid="584"/>
   <tile gid="877"/>
   <tile gid="880"/>
   <tile gid="813"/>
   <tile gid="657"/>
   <tile gid="596"/>
   <tile gid="659"/>
   <tile gid="626"/>
   <tile gid="125"/>
   <tile gid="1007"/>
   <tile gid="626"/>
   <tile gid="626"/>
   <tile gid="626"/>
   <tile gid="626"/>
   <tile gid="626"/>
   <tile gid="626"/>
   <tile gid="125"/>
   <tile gid="1007"/>
   <tile gid="660"/>
   <tile gid="596"/>
   <tile gid="658"/>
   <tile gid="843"/>
   <tile gid="880"/>
   <tile gid="813"/>
   <tile gid="584"/>
   <tile gid="429"/>
   <tile gid="782"/>
   <tile gid="616"/>
   <tile gid="877"/>
   <tile gid="720"/>
   <tile gid="877"/>
   <tile gid="597"/>
   <tile gid="626"/>
   <tile gid="125"/>
   <tile gid="1007"/>
   <tile gid="626"/>
   <tile gid="626"/>
   <tile gid="126"/>
   <tile gid="127"/>
   <tile gid="127"/>
   <tile gid="127"/>
   <tile gid="128"/>
   <tile gid="1007"/>
   <tile gid="626"/>
   <tile gid="626"/>
   <tile gid="125"/>
   <tile gid="1007"/>
   <tile gid="629"/>
   <tile gid="842"/>
   <tile gid="720"/>
   <tile gid="877"/>
   <tile gid="616"/>
   <tile gid="781"/>
   <tile gid="424"/>
   <tile gid="388"/>
   <tile gid="877"/>
   <tile gid="880"/>
   <tile gid="813"/>
   <tile gid="597"/>
   <tile gid="626"/>
   <tile gid="626"/>
   <tile gid="626"/>
   <tile gid="626"/>
   <tile gid="626"/>
   <tile gid="626"/>
   <tile gid="626"/>
   <tile gid="626"/>
   <tile gid="626"/>
   <tile gid="626"/>
   <tile gid="626"/>
   <tile gid="626"/>
   <tile gid="626"/>
   <tile gid="626"/>
   <tile gid="626"/>
   <tile gid="629"/>
   <tile gid="843"/>
   <tile gid="880"/>
   <tile gid="813"/>
   <tile gid="387"/>
   <tile gid="422"/>
   <tile gid="520"/>
   <tile gid="520"/>
   <tile gid="843"/>
   <tile gid="720"/>
   <tile gid="877"/>
   <tile gid="597"/>
   <tile gid="626"/>
   <tile gid="125"/>
   <tile gid="1007"/>
   <tile gid="626"/>
   <tile gid="626"/>
   <tile gid="126"/>
   <tile gid="127"/>
   <tile gid="127"/>
   <tile gid="127"/>
   <tile gid="128"/>
   <tile gid="1007"/>
   <tile gid="626"/>
   <tile gid="626"/>
   <tile gid="125"/>
   <tile gid="1007"/>
   <tile gid="629"/>
   <tile gid="842"/>
   <tile gid="720"/>
   <tile gid="877"/>
   <tile gid="423"/>
   <tile gid="423"/>
   <tile gid="520"/>
   <tile gid="520"/>
   <tile gid="843"/>
   <tile gid="880"/>
   <tile gid="813"/>
   <tile gid="689"/>
   <tile gid="628"/>
   <tile gid="691"/>
   <tile gid="626"/>
   <tile gid="125"/>
   <tile gid="1007"/>
   <tile gid="626"/>
   <tile gid="626"/>
   <tile gid="626"/>
   <tile gid="626"/>
   <tile gid="626"/>
   <tile gid="626"/>
   <tile gid="125"/>
   <tile gid="1007"/>
   <tile gid="692"/>
   <tile gid="628"/>
   <tile gid="690"/>
   <tile gid="843"/>
   <tile gid="880"/>
   <tile gid="813"/>
   <tile gid="423"/>
   <tile gid="423"/>
   <tile gid="520"/>
   <tile gid="520"/>
   <tile gid="843"/>
   <tile gid="720"/>
   <tile gid="877"/>
   <tile gid="842"/>
   <tile gid="842"/>
   <tile gid="689"/>
   <tile gid="628"/>
   <tile gid="628"/>
   <tile gid="691"/>
   <tile gid="626"/>
   <tile gid="125"/>
   <tile gid="1007"/>
   <tile gid="125"/>
   <tile gid="1007"/>
   <tile gid="692"/>
   <tile gid="628"/>
   <tile gid="628"/>
   <tile gid="690"/>
   <tile gid="842"/>
   <tile gid="843"/>
   <tile gid="842"/>
   <tile gid="720"/>
   <tile gid="877"/>
   <tile gid="423"/>
   <tile gid="423"/>
   <tile gid="430"/>
   <tile gid="584"/>
   <tile gid="876"/>
   <tile gid="880"/>
   <tile gid="813"/>
   <tile gid="843"/>
   <tile gid="842"/>
   <tile gid="720"/>
   <tile gid="877"/>
   <tile gid="843"/>
   <tile gid="689"/>
   <tile gid="628"/>
   <tile gid="691"/>
   <tile gid="626"/>
   <tile gid="692"/>
   <tile gid="628"/>
   <tile gid="690"/>
   <tile gid="842"/>
   <tile gid="842"/>
   <tile gid="720"/>
   <tile gid="877"/>
   <tile gid="842"/>
   <tile gid="842"/>
   <tile gid="880"/>
   <tile gid="813"/>
   <tile gid="584"/>
   <tile gid="429"/>
   <tile gid="375"/>
   <tile gid="375"/>
   <tile gid="375"/>
   <tile gid="375"/>
   <tile gid="375"/>
   <tile gid="310"/>
   <tile gid="876"/>
   <tile gid="880"/>
   <tile gid="813"/>
   <tile gid="842"/>
   <tile gid="720"/>
   <tile gid="877"/>
   <tile gid="597"/>
   <tile gid="626"/>
   <tile gid="629"/>
   <tile gid="842"/>
   <tile gid="720"/>
   <tile gid="877"/>
   <tile gid="842"/>
   <tile gid="880"/>
   <tile gid="813"/>
   <tile gid="309"/>
   <tile gid="375"/>
   <tile gid="375"/>
   <tile gid="375"/>
   <tile gid="375"/>
   <tile gid="375"/>
   <tile gid="787"/>
   <tile gid="787"/>
   <tile gid="787"/>
   <tile gid="787"/>
   <tile gid="787"/>
   <tile gid="381"/>
   <tile gid="877"/>
   <tile gid="842"/>
   <tile gid="843"/>
   <tile gid="843"/>
   <tile gid="880"/>
   <tile gid="813"/>
   <tile gid="597"/>
   <tile gid="626"/>
   <tile gid="629"/>
   <tile gid="842"/>
   <tile gid="880"/>
   <tile gid="813"/>
   <tile gid="843"/>
   <tile gid="842"/>
   <tile gid="842"/>
   <tile gid="380"/>
   <tile gid="723"/>
   <tile gid="723"/>
   <tile gid="723"/>
   <tile gid="723"/>
   <tile gid="723"/>
   <tile gid="786"/>
   <tile gid="720"/>
   <tile gid="785"/>
   <tile gid="720"/>
   <tile gid="785"/>
   <tile gid="413"/>
   <tile gid="342"/>
   <tile gid="876"/>
   <tile gid="842"/>
   <tile gid="842"/>
   <tile gid="842"/>
   <tile gid="842"/>
   <tile gid="597"/>
   <tile gid="626"/>
   <tile gid="629"/>
   <tile gid="842"/>
   <tile gid="842"/>
   <tile gid="843"/>
   <tile gid="842"/>
   <tile gid="842"/>
   <tile gid="341"/>
   <tile gid="412"/>
   <tile gid="722"/>
   <tile gid="720"/>
   <tile gid="721"/>
   <tile gid="720"/>
   <tile gid="721"/>
   <tile gid="786"/>
   <tile gid="784"/>
   <tile gid="720"/>
   <tile gid="846"/>
   <tile gid="755"/>
   <tile gid="786"/>
   <tile gid="424"/>
   <tile gid="657"/>
   <tile gid="596"/>
   <tile gid="596"/>
   <tile gid="596"/>
   <tile gid="596"/>
   <tile gid="659"/>
   <tile gid="626"/>
   <tile gid="660"/>
   <tile gid="596"/>
   <tile gid="596"/>
   <tile gid="596"/>
   <tile gid="596"/>
   <tile gid="658"/>
   <tile gid="422"/>
   <tile gid="722"/>
   <tile gid="722"/>
   <tile gid="752"/>
   <tile gid="720"/>
   <tile gid="879"/>
   <tile gid="756"/>
   <tile gid="786"/>
   <tile gid="720"/>
   <tile gid="846"/>
   <tile gid="720"/>
   <tile gid="785"/>
   <tile gid="786"/>
   <tile gid="520"/>
   <tile gid="597"/>
   <tile gid="626"/>
   <tile gid="626"/>
   <tile gid="626"/>
   <tile gid="626"/>
   <tile gid="126"/>
   <tile gid="127"/>
   <tile gid="128"/>
   <tile gid="1007"/>
   <tile gid="626"/>
   <tile gid="626"/>
   <tile gid="626"/>
   <tile gid="629"/>
   <tile gid="423"/>
   <tile gid="722"/>
   <tile gid="722"/>
   <tile gid="720"/>
   <tile gid="879"/>
   <tile gid="720"/>
   <tile gid="721"/>
   <tile gid="786"/>
   <tile gid="784"/>
   <tile gid="755"/>
   <tile gid="784"/>
   <tile gid="755"/>
   <tile gid="349"/>
   <tile gid="342"/>
   <tile gid="655"/>
   <tile gid="628"/>
   <tile gid="628"/>
   <tile gid="628"/>
   <tile gid="691"/>
   <tile gid="626"/>
   <tile gid="626"/>
   <tile gid="626"/>
   <tile gid="692"/>
   <tile gid="628"/>
   <tile gid="628"/>
   <tile gid="628"/>
   <tile gid="690"/>
   <tile gid="341"/>
   <tile gid="348"/>
   <tile gid="722"/>
   <tile gid="752"/>
   <tile gid="756"/>
   <tile gid="752"/>
   <tile gid="756"/>
   <tile gid="786"/>
   <tile gid="786"/>
   <tile gid="786"/>
   <tile gid="786"/>
   <tile gid="786"/>
   <tile gid="381"/>
   <tile gid="874"/>
   <tile gid="843"/>
   <tile gid="843"/>
   <tile gid="842"/>
   <tile gid="843"/>
   <tile gid="597"/>
   <tile gid="626"/>
   <tile gid="626"/>
   <tile gid="626"/>
   <tile gid="629"/>
   <tile gid="843"/>
   <tile gid="842"/>
   <tile gid="843"/>
   <tile gid="843"/>
   <tile gid="844"/>
   <tile gid="380"/>
   <tile gid="722"/>
   <tile gid="722"/>
   <tile gid="722"/>
   <tile gid="722"/>
   <tile gid="722"/>
  </data>
 </layer>
</map>
