<?xml version="1.0" encoding="UTF-8"?>
<map version="1.0" orientation="orthogonal" width="27" height="20" tilewidth="16" tileheight="16">
 <tileset firstgid="1" name="0F001009" tilewidth="16" tileheight="16">
  <image source="0F001009.png" trans="ffffff"/>
 </tileset>
 <layer name="Tile Layer 1" width="27" height="20">
  <properties>
   <property name="Anims1" value="0"/>
   <property name="Anims2" value="0"/>
   <property name="ChapterID" value="Chapter18C"/>
   <property name="Main" value=""/>
   <property name="MapChangesID" value="MapChange18CID"/>
   <property name="MapID" value="Map18CID"/>
   <property name="ObjectType" value="Frontier1OBJ"/>
   <property name="PaletteID" value="Frontier1PAL"/>
   <property name="TileConfig" value="FrontierCONFIG"/>
  </properties>
  <data>
  <tile gid="360"/>
  <tile gid="360"/>
  <tile gid="360"/>
  <tile gid="360"/>
  <tile gid="360"/>
  <tile gid="360"/>
  <tile gid="360"/>
  <tile gid="360"/>
  <tile gid="360"/>
  <tile gid="360"/>
  <tile gid="360"/>
  <tile gid="360"/>
  <tile gid="360"/>
  <tile gid="360"/>
  <tile gid="360"/>
  <tile gid="360"/>
  <tile gid="360"/>
  <tile gid="360"/>
  <tile gid="360"/>
  <tile gid="360"/>
  <tile gid="360"/>
  <tile gid="360"/>
  <tile gid="360"/>
  <tile gid="360"/>
  <tile gid="360"/>
  <tile gid="360"/>
  <tile gid="360"/>
  <tile gid="360"/>
  <tile gid="360"/>
  <tile gid="360"/>
  <tile gid="360"/>
  <tile gid="360"/>
  <tile gid="360"/>
  <tile gid="360"/>
  <tile gid="360"/>
  <tile gid="360"/>
  <tile gid="360"/>
  <tile gid="360"/>
  <tile gid="360"/>
  <tile gid="360"/>
  <tile gid="360"/>
  <tile gid="360"/>
  <tile gid="360"/>
  <tile gid="360"/>
  <tile gid="360"/>
  <tile gid="360"/>
  <tile gid="360"/>
  <tile gid="360"/>
  <tile gid="360"/>
  <tile gid="360"/>
  <tile gid="360"/>
  <tile gid="360"/>
  <tile gid="360"/>
  <tile gid="360"/>
  <tile gid="360"/>
  <tile gid="360"/>
  <tile gid="360"/>
  <tile gid="360"/>
  <tile gid="360"/>
  <tile gid="360"/>
  <tile gid="360"/>
  <tile gid="360"/>
  <tile gid="360"/>
  <tile gid="360"/>
  <tile gid="360"/>
  <tile gid="360"/>
  <tile gid="360"/>
  <tile gid="360"/>
  <tile gid="360"/>
  <tile gid="360"/>
  <tile gid="360"/>
  <tile gid="360"/>
  <tile gid="360"/>
  <tile gid="360"/>
  <tile gid="360"/>
  <tile gid="360"/>
  <tile gid="360"/>
  <tile gid="360"/>
  <tile gid="360"/>
  <tile gid="360"/>
  <tile gid="360"/>
  <tile gid="360"/>
  <tile gid="360"/>
  <tile gid="360"/>
  <tile gid="360"/>
  <tile gid="360"/>
  <tile gid="360"/>
  <tile gid="360"/>
  <tile gid="360"/>
  <tile gid="360"/>
  <tile gid="360"/>
  <tile gid="360"/>
  <tile gid="360"/>
  <tile gid="360"/>
  <tile gid="360"/>
  <tile gid="360"/>
  <tile gid="360"/>
  <tile gid="360"/>
  <tile gid="360"/>
  <tile gid="360"/>
  <tile gid="360"/>
  <tile gid="360"/>
  <tile gid="360"/>
  <tile gid="360"/>
  <tile gid="852"/>
  <tile gid="391"/>
  <tile gid="359"/>
  <tile gid="360"/>
  <tile gid="360"/>
  <tile gid="360"/>
  <tile gid="360"/>
  <tile gid="360"/>
  <tile gid="360"/>
  <tile gid="360"/>
  <tile gid="360"/>
  <tile gid="360"/>
  <tile gid="360"/>
  <tile gid="360"/>
  <tile gid="360"/>
  <tile gid="360"/>
  <tile gid="360"/>
  <tile gid="360"/>
  <tile gid="360"/>
  <tile gid="360"/>
  <tile gid="360"/>
  <tile gid="360"/>
  <tile gid="360"/>
  <tile gid="360"/>
  <tile gid="360"/>
  <tile gid="360"/>
  <tile gid="360"/>
  <tile gid="884"/>
  <tile gid="139"/>
  <tile gid="967"/>
  <tile gid="389"/>
  <tile gid="360"/>
  <tile gid="360"/>
  <tile gid="360"/>
  <tile gid="360"/>
  <tile gid="852"/>
  <tile gid="360"/>
  <tile gid="360"/>
  <tile gid="360"/>
  <tile gid="360"/>
  <tile gid="360"/>
  <tile gid="360"/>
  <tile gid="360"/>
  <tile gid="360"/>
  <tile gid="360"/>
  <tile gid="360"/>
  <tile gid="360"/>
  <tile gid="360"/>
  <tile gid="360"/>
  <tile gid="360"/>
  <tile gid="360"/>
  <tile gid="360"/>
  <tile gid="391"/>
  <tile gid="390"/>
  <tile gid="108"/>
  <tile gid="73"/>
  <tile gid="11"/>
  <tile gid="8"/>
  <tile gid="360"/>
  <tile gid="360"/>
  <tile gid="360"/>
  <tile gid="360"/>
  <tile gid="884"/>
  <tile gid="360"/>
  <tile gid="360"/>
  <tile gid="360"/>
  <tile gid="360"/>
  <tile gid="360"/>
  <tile gid="360"/>
  <tile gid="360"/>
  <tile gid="360"/>
  <tile gid="360"/>
  <tile gid="360"/>
  <tile gid="360"/>
  <tile gid="360"/>
  <tile gid="360"/>
  <tile gid="360"/>
  <tile gid="391"/>
  <tile gid="390"/>
  <tile gid="68"/>
  <tile gid="14"/>
  <tile gid="73"/>
  <tile gid="147"/>
  <tile gid="73"/>
  <tile gid="82"/>
  <tile gid="360"/>
  <tile gid="360"/>
  <tile gid="391"/>
  <tile gid="390"/>
  <tile gid="108"/>
  <tile gid="389"/>
  <tile gid="359"/>
  <tile gid="360"/>
  <tile gid="360"/>
  <tile gid="360"/>
  <tile gid="360"/>
  <tile gid="360"/>
  <tile gid="360"/>
  <tile gid="360"/>
  <tile gid="360"/>
  <tile gid="360"/>
  <tile gid="360"/>
  <tile gid="391"/>
  <tile gid="390"/>
  <tile gid="102"/>
  <tile gid="51"/>
  <tile gid="102"/>
  <tile gid="73"/>
  <tile gid="73"/>
  <tile gid="179"/>
  <tile gid="73"/>
  <tile gid="50"/>
  <tile gid="391"/>
  <tile gid="390"/>
  <tile gid="102"/>
  <tile gid="102"/>
  <tile gid="48"/>
  <tile gid="15"/>
  <tile gid="102"/>
  <tile gid="389"/>
  <tile gid="359"/>
  <tile gid="360"/>
  <tile gid="360"/>
  <tile gid="360"/>
  <tile gid="360"/>
  <tile gid="360"/>
  <tile gid="361"/>
  <tile gid="391"/>
  <tile gid="390"/>
  <tile gid="102"/>
  <tile gid="44"/>
  <tile gid="14"/>
  <tile gid="72"/>
  <tile gid="15"/>
  <tile gid="133"/>
  <tile gid="19"/>
  <tile gid="133"/>
  <tile gid="742"/>
  <tile gid="866"/>
  <tile gid="102"/>
  <tile gid="14"/>
  <tile gid="18"/>
  <tile gid="18"/>
  <tile gid="147"/>
  <tile gid="74"/>
  <tile gid="18"/>
  <tile gid="15"/>
  <tile gid="102"/>
  <tile gid="389"/>
  <tile gid="852"/>
  <tile gid="359"/>
  <tile gid="391"/>
  <tile gid="390"/>
  <tile gid="753"/>
  <tile gid="102"/>
  <tile gid="102"/>
  <tile gid="7"/>
  <tile gid="6"/>
  <tile gid="80"/>
  <tile gid="72"/>
  <tile gid="72"/>
  <tile gid="16"/>
  <tile gid="742"/>
  <tile gid="866"/>
  <tile gid="898"/>
  <tile gid="898"/>
  <tile gid="14"/>
  <tile gid="72"/>
  <tile gid="74"/>
  <tile gid="74"/>
  <tile gid="179"/>
  <tile gid="74"/>
  <tile gid="72"/>
  <tile gid="73"/>
  <tile gid="73"/>
  <tile gid="871"/>
  <tile gid="884"/>
  <tile gid="102"/>
  <tile gid="102"/>
  <tile gid="102"/>
  <tile gid="102"/>
  <tile gid="51"/>
  <tile gid="7"/>
  <tile gid="6"/>
  <tile gid="721"/>
  <tile gid="110"/>
  <tile gid="50"/>
  <tile gid="47"/>
  <tile gid="866"/>
  <tile gid="898"/>
  <tile gid="898"/>
  <tile gid="898"/>
  <tile gid="898"/>
  <tile gid="48"/>
  <tile gid="72"/>
  <tile gid="74"/>
  <tile gid="73"/>
  <tile gid="72"/>
  <tile gid="388"/>
  <tile gid="147"/>
  <tile gid="74"/>
  <tile gid="73"/>
  <tile gid="74"/>
  <tile gid="108"/>
  <tile gid="102"/>
  <tile gid="102"/>
  <tile gid="753"/>
  <tile gid="14"/>
  <tile gid="111"/>
  <tile gid="73"/>
  <tile gid="73"/>
  <tile gid="6"/>
  <tile gid="40"/>
  <tile gid="102"/>
  <tile gid="866"/>
  <tile gid="898"/>
  <tile gid="898"/>
  <tile gid="898"/>
  <tile gid="898"/>
  <tile gid="898"/>
  <tile gid="46"/>
  <tile gid="81"/>
  <tile gid="721"/>
  <tile gid="73"/>
  <tile gid="73"/>
  <tile gid="76"/>
  <tile gid="179"/>
  <tile gid="43"/>
  <tile gid="40"/>
  <tile gid="102"/>
  <tile gid="866"/>
  <tile gid="865"/>
  <tile gid="102"/>
  <tile gid="17"/>
  <tile gid="111"/>
  <tile gid="721"/>
  <tile gid="73"/>
  <tile gid="388"/>
  <tile gid="140"/>
  <tile gid="852"/>
  <tile gid="468"/>
  <tile gid="898"/>
  <tile gid="898"/>
  <tile gid="898"/>
  <tile gid="898"/>
  <tile gid="898"/>
  <tile gid="898"/>
  <tile gid="871"/>
  <tile gid="852"/>
  <tile gid="39"/>
  <tile gid="43"/>
  <tile gid="43"/>
  <tile gid="73"/>
  <tile gid="40"/>
  <tile gid="102"/>
  <tile gid="742"/>
  <tile gid="866"/>
  <tile gid="898"/>
  <tile gid="897"/>
  <tile gid="865"/>
  <tile gid="102"/>
  <tile gid="39"/>
  <tile gid="43"/>
  <tile gid="6"/>
  <tile gid="76"/>
  <tile gid="73"/>
  <tile gid="884"/>
  <tile gid="866"/>
  <tile gid="898"/>
  <tile gid="898"/>
  <tile gid="898"/>
  <tile gid="898"/>
  <tile gid="898"/>
  <tile gid="898"/>
  <tile gid="753"/>
  <tile gid="884"/>
  <tile gid="742"/>
  <tile gid="774"/>
  <tile gid="102"/>
  <tile gid="12"/>
  <tile gid="102"/>
  <tile gid="866"/>
  <tile gid="898"/>
  <tile gid="898"/>
  <tile gid="898"/>
  <tile gid="897"/>
  <tile gid="897"/>
  <tile gid="865"/>
  <tile gid="742"/>
  <tile gid="774"/>
  <tile gid="39"/>
  <tile gid="40"/>
  <tile gid="742"/>
  <tile gid="866"/>
  <tile gid="898"/>
  <tile gid="898"/>
  <tile gid="898"/>
  <tile gid="898"/>
  <tile gid="898"/>
  <tile gid="898"/>
  <tile gid="898"/>
  <tile gid="102"/>
  <tile gid="866"/>
  <tile gid="898"/>
  <tile gid="897"/>
  <tile gid="865"/>
  <tile gid="741"/>
  <tile gid="866"/>
  <tile gid="898"/>
  <tile gid="898"/>
  <tile gid="898"/>
  <tile gid="898"/>
  <tile gid="897"/>
  <tile gid="897"/>
  <tile gid="897"/>
  <tile gid="897"/>
  <tile gid="897"/>
  <tile gid="865"/>
  <tile gid="866"/>
  <tile gid="898"/>
  <tile gid="898"/>
  <tile gid="898"/>
  <tile gid="898"/>
  <tile gid="898"/>
  <tile gid="898"/>
  <tile gid="898"/>
  <tile gid="898"/>
  <tile gid="898"/>
  <tile gid="866"/>
  <tile gid="898"/>
  <tile gid="898"/>
  <tile gid="897"/>
  <tile gid="897"/>
  <tile gid="897"/>
  <tile gid="898"/>
  <tile gid="898"/>
  <tile gid="898"/>
  <tile gid="898"/>
  <tile gid="898"/>
  <tile gid="897"/>
  <tile gid="897"/>
  <tile gid="897"/>
  <tile gid="897"/>
  <tile gid="897"/>
  <tile gid="897"/>
  <tile gid="898"/>
  <tile gid="898"/>
  <tile gid="898"/>
  <tile gid="898"/>
  <tile gid="898"/>
  <tile gid="898"/>
  <tile gid="898"/>
  <tile gid="898"/>
  <tile gid="898"/>
  <tile gid="898"/>
  <tile gid="898"/>
  <tile gid="898"/>
  <tile gid="898"/>
  <tile gid="897"/>
  <tile gid="897"/>
  <tile gid="897"/>
  <tile gid="898"/>
  <tile gid="898"/>
  <tile gid="898"/>
  <tile gid="898"/>
  <tile gid="898"/>
  <tile gid="897"/>
  <tile gid="897"/>
  <tile gid="897"/>
  <tile gid="897"/>
  <tile gid="897"/>
  <tile gid="897"/>
  <tile gid="898"/>
  <tile gid="898"/>
  <tile gid="898"/>
  <tile gid="898"/>
  <tile gid="898"/>
  <tile gid="898"/>
  <tile gid="898"/>
  <tile gid="898"/>
  <tile gid="898"/>
  <tile gid="898"/>
  <tile gid="898"/>
  <tile gid="898"/>
  <tile gid="898"/>
  <tile gid="897"/>
  <tile gid="897"/>
  <tile gid="897"/>
  <tile gid="898"/>
  <tile gid="898"/>
  <tile gid="898"/>
  <tile gid="898"/>
  <tile gid="898"/>
  <tile gid="897"/>
  <tile gid="897"/>
  <tile gid="897"/>
  <tile gid="897"/>
  <tile gid="897"/>
  <tile gid="897"/>
  <tile gid="898"/>
  <tile gid="898"/>
  <tile gid="898"/>
  <tile gid="898"/>
  <tile gid="898"/>
  <tile gid="898"/>
  <tile gid="898"/>
  <tile gid="898"/>
  <tile gid="898"/>
  <tile gid="898"/>
  <tile gid="898"/>
  <tile gid="898"/>
  <tile gid="898"/>
  <tile gid="897"/>
  <tile gid="897"/>
  <tile gid="897"/>
  <tile gid="898"/>
  <tile gid="898"/>
  <tile gid="898"/>
  <tile gid="898"/>
  <tile gid="898"/>
  <tile gid="897"/>
  <tile gid="897"/>
  <tile gid="897"/>
  <tile gid="897"/>
  <tile gid="897"/>
  <tile gid="897"/>
  <tile gid="898"/>
  <tile gid="898"/>
  <tile gid="898"/>
  <tile gid="898"/>
  <tile gid="898"/>
  <tile gid="898"/>
  <tile gid="898"/>
  <tile gid="898"/>
  <tile gid="898"/>
  <tile gid="898"/>
  </data>
 </layer>
</map>
