<?xml version="1.0" encoding="UTF-8"?>
<map version="1.10" tiledversion="1.11.0" orientation="orthogonal" renderorder="right-down" width="25" height="15" tilewidth="16" tileheight="16" infinite="0" nextlayerid="6" nextobjectid="1">
 <tileset firstgid="1" name="01000201" tilewidth="16" tileheight="16" tilecount="1024" columns="32">
  <image source="01000201.png" trans="ffffff" width="512" height="512"/>
 </tileset>
 <layer id="1" name="Tile Layer 1" width="25" height="15">
  <properties>
   <property name="Anims1" value="0"/>
   <property name="Anims2" value="0"/>
   <property name="ChapterID" value="Chapter6"/>
   <property name="Main" value=""/>
   <property name="MapChangesID" value="MapChange6ID"/>
   <property name="MapID" value="Map6ID"/>
   <property name="ObjectType" value="Village1OBJ"/>
   <property name="PaletteID" value="Village1PAL"/>
   <property name="TileConfig" value="VillageCONFIG"/>
  </properties>
  <data>
   <tile gid="942"/>
   <tile gid="942"/>
   <tile gid="942"/>
   <tile gid="679"/>
   <tile gid="37"/>
   <tile gid="149"/>
   <tile gid="95"/>
   <tile gid="96"/>
   <tile gid="611"/>
   <tile gid="612"/>
   <tile gid="500"/>
   <tile gid="858"/>
   <tile gid="853"/>
   <tile gid="853"/>
   <tile gid="727"/>
   <tile gid="679"/>
   <tile gid="941"/>
   <tile gid="942"/>
   <tile gid="942"/>
   <tile gid="942"/>
   <tile gid="942"/>
   <tile gid="776"/>
   <tile gid="941"/>
   <tile gid="776"/>
   <tile gid="941"/>
   <tile gid="942"/>
   <tile gid="776"/>
   <tile gid="941"/>
   <tile gid="679"/>
   <tile gid="37"/>
   <tile gid="121"/>
   <tile gid="127"/>
   <tile gid="128"/>
   <tile gid="565"/>
   <tile gid="500"/>
   <tile gid="532"/>
   <tile gid="854"/>
   <tile gid="885"/>
   <tile gid="793"/>
   <tile gid="161"/>
   <tile gid="679"/>
   <tile gid="941"/>
   <tile gid="776"/>
   <tile gid="941"/>
   <tile gid="776"/>
   <tile gid="941"/>
   <tile gid="910"/>
   <tile gid="942"/>
   <tile gid="910"/>
   <tile gid="942"/>
   <tile gid="942"/>
   <tile gid="910"/>
   <tile gid="942"/>
   <tile gid="741"/>
   <tile gid="37"/>
   <tile gid="133"/>
   <tile gid="166"/>
   <tile gid="500"/>
   <tile gid="532"/>
   <tile gid="532"/>
   <tile gid="858"/>
   <tile gid="886"/>
   <tile gid="885"/>
   <tile gid="793"/>
   <tile gid="324"/>
   <tile gid="679"/>
   <tile gid="941"/>
   <tile gid="910"/>
   <tile gid="942"/>
   <tile gid="910"/>
   <tile gid="942"/>
   <tile gid="739"/>
   <tile gid="644"/>
   <tile gid="644"/>
   <tile gid="644"/>
   <tile gid="942"/>
   <tile gid="942"/>
   <tile gid="942"/>
   <tile gid="308"/>
   <tile gid="37"/>
   <tile gid="173"/>
   <tile gid="404"/>
   <tile gid="532"/>
   <tile gid="532"/>
   <tile gid="858"/>
   <tile gid="853"/>
   <tile gid="853"/>
   <tile gid="827"/>
   <tile gid="727"/>
   <tile gid="356"/>
   <tile gid="769"/>
   <tile gid="644"/>
   <tile gid="770"/>
   <tile gid="941"/>
   <tile gid="769"/>
   <tile gid="644"/>
   <tile gid="770"/>
   <tile gid="587"/>
   <tile gid="587"/>
   <tile gid="587"/>
   <tile gid="942"/>
   <tile gid="776"/>
   <tile gid="941"/>
   <tile gid="340"/>
   <tile gid="37"/>
   <tile gid="420"/>
   <tile gid="404"/>
   <tile gid="532"/>
   <tile gid="858"/>
   <tile gid="853"/>
   <tile gid="853"/>
   <tile gid="731"/>
   <tile gid="35"/>
   <tile gid="420"/>
   <tile gid="388"/>
   <tile gid="586"/>
   <tile gid="587"/>
   <tile gid="588"/>
   <tile gid="371"/>
   <tile gid="586"/>
   <tile gid="587"/>
   <tile gid="588"/>
   <tile gid="66"/>
   <tile gid="6"/>
   <tile gid="452"/>
   <tile gid="942"/>
   <tile gid="910"/>
   <tile gid="942"/>
   <tile gid="679"/>
   <tile gid="37"/>
   <tile gid="141"/>
   <tile gid="420"/>
   <tile gid="855"/>
   <tile gid="853"/>
   <tile gid="885"/>
   <tile gid="793"/>
   <tile gid="193"/>
   <tile gid="420"/>
   <tile gid="68"/>
   <tile gid="471"/>
   <tile gid="6"/>
   <tile gid="6"/>
   <tile gid="6"/>
   <tile gid="6"/>
   <tile gid="6"/>
   <tile gid="6"/>
   <tile gid="760"/>
   <tile gid="759"/>
   <tile gid="545"/>
   <tile gid="514"/>
   <tile gid="942"/>
   <tile gid="942"/>
   <tile gid="739"/>
   <tile gid="772"/>
   <tile gid="37"/>
   <tile gid="304"/>
   <tile gid="226"/>
   <tile gid="404"/>
   <tile gid="853"/>
   <tile gid="853"/>
   <tile gid="725"/>
   <tile gid="193"/>
   <tile gid="258"/>
   <tile gid="470"/>
   <tile gid="420"/>
   <tile gid="584"/>
   <tile gid="584"/>
   <tile gid="133"/>
   <tile gid="209"/>
   <tile gid="134"/>
   <tile gid="616"/>
   <tile gid="796"/>
   <tile gid="854"/>
   <tile gid="825"/>
   <tile gid="859"/>
   <tile gid="644"/>
   <tile gid="644"/>
   <tile gid="772"/>
   <tile gid="588"/>
   <tile gid="37"/>
   <tile gid="297"/>
   <tile gid="271"/>
   <tile gid="690"/>
   <tile gid="691"/>
   <tile gid="691"/>
   <tile gid="692"/>
   <tile gid="134"/>
   <tile gid="290"/>
   <tile gid="614"/>
   <tile gid="533"/>
   <tile gid="436"/>
   <tile gid="437"/>
   <tile gid="205"/>
   <tile gid="272"/>
   <tile gid="166"/>
   <tile gid="760"/>
   <tile gid="853"/>
   <tile gid="885"/>
   <tile gid="885"/>
   <tile gid="853"/>
   <tile gid="587"/>
   <tile gid="587"/>
   <tile gid="588"/>
   <tile gid="66"/>
   <tile gid="420"/>
   <tile gid="205"/>
   <tile gid="272"/>
   <tile gid="754"/>
   <tile gid="755"/>
   <tile gid="755"/>
   <tile gid="756"/>
   <tile gid="303"/>
   <tile gid="202"/>
   <tile gid="194"/>
   <tile gid="225"/>
   <tile gid="203"/>
   <tile gid="208"/>
   <tile gid="272"/>
   <tile gid="166"/>
   <tile gid="501"/>
   <tile gid="726"/>
   <tile gid="827"/>
   <tile gid="886"/>
   <tile gid="888"/>
   <tile gid="727"/>
   <tile gid="6"/>
   <tile gid="6"/>
   <tile gid="6"/>
   <tile gid="194"/>
   <tile gid="133"/>
   <tile gid="272"/>
   <tile gid="166"/>
   <tile gid="404"/>
   <tile gid="853"/>
   <tile gid="853"/>
   <tile gid="531"/>
   <tile gid="499"/>
   <tile gid="225"/>
   <tile gid="226"/>
   <tile gid="133"/>
   <tile gid="272"/>
   <tile gid="303"/>
   <tile gid="242"/>
   <tile gid="470"/>
   <tile gid="417"/>
   <tile gid="419"/>
   <tile gid="193"/>
   <tile gid="726"/>
   <tile gid="731"/>
   <tile gid="129"/>
   <tile gid="420"/>
   <tile gid="194"/>
   <tile gid="193"/>
   <tile gid="226"/>
   <tile gid="235"/>
   <tile gid="236"/>
   <tile gid="420"/>
   <tile gid="500"/>
   <tile gid="853"/>
   <tile gid="853"/>
   <tile gid="857"/>
   <tile gid="531"/>
   <tile gid="403"/>
   <tile gid="420"/>
   <tile gid="235"/>
   <tile gid="236"/>
   <tile gid="584"/>
   <tile gid="584"/>
   <tile gid="324"/>
   <tile gid="503"/>
   <tile gid="438"/>
   <tile gid="420"/>
   <tile gid="582"/>
   <tile gid="583"/>
   <tile gid="35"/>
   <tile gid="204"/>
   <tile gid="226"/>
   <tile gid="420"/>
   <tile gid="141"/>
   <tile gid="193"/>
   <tile gid="226"/>
   <tile gid="404"/>
   <tile gid="532"/>
   <tile gid="854"/>
   <tile gid="856"/>
   <tile gid="853"/>
   <tile gid="857"/>
   <tile gid="403"/>
   <tile gid="67"/>
   <tile gid="420"/>
   <tile gid="473"/>
   <tile gid="502"/>
   <tile gid="417"/>
   <tile gid="387"/>
   <tile gid="226"/>
   <tile gid="548"/>
   <tile gid="149"/>
   <tile gid="95"/>
   <tile gid="96"/>
   <tile gid="67"/>
   <tile gid="272"/>
   <tile gid="134"/>
   <tile gid="133"/>
   <tile gid="298"/>
   <tile gid="420"/>
   <tile gid="565"/>
   <tile gid="500"/>
   <tile gid="858"/>
   <tile gid="886"/>
   <tile gid="885"/>
   <tile gid="856"/>
   <tile gid="853"/>
   <tile gid="499"/>
   <tile gid="565"/>
   <tile gid="471"/>
   <tile gid="7"/>
   <tile gid="46"/>
   <tile gid="469"/>
   <tile gid="133"/>
   <tile gid="140"/>
   <tile gid="226"/>
   <tile gid="121"/>
   <tile gid="127"/>
   <tile gid="128"/>
   <tile gid="471"/>
   <tile gid="303"/>
   <tile gid="303"/>
   <tile gid="272"/>
   <tile gid="206"/>
   <tile gid="404"/>
   <tile gid="532"/>
   <tile gid="532"/>
   <tile gid="853"/>
   <tile gid="853"/>
   <tile gid="886"/>
   <tile gid="888"/>
   <tile gid="853"/>
   <tile gid="531"/>
   <tile gid="531"/>
   <tile gid="499"/>
   <tile gid="78"/>
   <tile gid="506"/>
   <tile gid="164"/>
   <tile gid="205"/>
   <tile gid="238"/>
   <tile gid="226"/>
   <tile gid="201"/>
   <tile gid="266"/>
   <tile gid="67"/>
   <tile gid="403"/>
   <tile gid="420"/>
   <tile gid="226"/>
   <tile gid="165"/>
   <tile gid="272"/>
   <tile gid="134"/>
   <tile gid="406"/>
   <tile gid="858"/>
   <tile gid="854"/>
   <tile gid="885"/>
   <tile gid="856"/>
   <tile gid="853"/>
   <tile gid="853"/>
   <tile gid="857"/>
   <tile gid="531"/>
   <tile gid="405"/>
   <tile gid="420"/>
   <tile gid="141"/>
   <tile gid="133"/>
   <tile gid="272"/>
   <tile gid="200"/>
   <tile gid="420"/>
   <tile gid="193"/>
   <tile gid="304"/>
   <tile gid="471"/>
   <tile gid="35"/>
  </data>
 </layer>
 <layer id="2" name="Map Change 0" width="25" height="15">
  <properties>
   <property name="Height" value="2"/>
   <property name="ID" value="0"/>
   <property name="Width" value="3"/>
   <property name="X" value="5"/>
   <property name="Y" value="0"/>
  </properties>
  <data>
   <tile/>
   <tile/>
   <tile/>
   <tile/>
   <tile/>
   <tile gid="29"/>
   <tile gid="30"/>
   <tile gid="31"/>
   <tile/>
   <tile/>
   <tile/>
   <tile/>
   <tile/>
   <tile/>
   <tile/>
   <tile/>
   <tile/>
   <tile/>
   <tile/>
   <tile/>
   <tile/>
   <tile/>
   <tile/>
   <tile/>
   <tile/>
   <tile/>
   <tile/>
   <tile/>
   <tile/>
   <tile/>
   <tile gid="61"/>
   <tile gid="62"/>
   <tile gid="63"/>
   <tile/>
   <tile/>
   <tile/>
   <tile/>
   <tile/>
   <tile/>
   <tile/>
   <tile/>
   <tile/>
   <tile/>
   <tile/>
   <tile/>
   <tile/>
   <tile/>
   <tile/>
   <tile/>
   <tile/>
   <tile/>
   <tile/>
   <tile/>
   <tile/>
   <tile/>
   <tile/>
   <tile/>
   <tile/>
   <tile/>
   <tile/>
   <tile/>
   <tile/>
   <tile/>
   <tile/>
   <tile/>
   <tile/>
   <tile/>
   <tile/>
   <tile/>
   <tile/>
   <tile/>
   <tile/>
   <tile/>
   <tile/>
   <tile/>
   <tile/>
   <tile/>
   <tile/>
   <tile/>
   <tile/>
   <tile/>
   <tile/>
   <tile/>
   <tile/>
   <tile/>
   <tile/>
   <tile/>
   <tile/>
   <tile/>
   <tile/>
   <tile/>
   <tile/>
   <tile/>
   <tile/>
   <tile/>
   <tile/>
   <tile/>
   <tile/>
   <tile/>
   <tile/>
   <tile/>
   <tile/>
   <tile/>
   <tile/>
   <tile/>
   <tile/>
   <tile/>
   <tile/>
   <tile/>
   <tile/>
   <tile/>
   <tile/>
   <tile/>
   <tile/>
   <tile/>
   <tile/>
   <tile/>
   <tile/>
   <tile/>
   <tile/>
   <tile/>
   <tile/>
   <tile/>
   <tile/>
   <tile/>
   <tile/>
   <tile/>
   <tile/>
   <tile/>
   <tile/>
   <tile/>
   <tile/>
   <tile/>
   <tile/>
   <tile/>
   <tile/>
   <tile/>
   <tile/>
   <tile/>
   <tile/>
   <tile/>
   <tile/>
   <tile/>
   <tile/>
   <tile/>
   <tile/>
   <tile/>
   <tile/>
   <tile/>
   <tile/>
   <tile/>
   <tile/>
   <tile/>
   <tile/>
   <tile/>
   <tile/>
   <tile/>
   <tile/>
   <tile/>
   <tile/>
   <tile/>
   <tile/>
   <tile/>
   <tile/>
   <tile/>
   <tile/>
   <tile/>
   <tile/>
   <tile/>
   <tile/>
   <tile/>
   <tile/>
   <tile/>
   <tile/>
   <tile/>
   <tile/>
   <tile/>
   <tile/>
   <tile/>
   <tile/>
   <tile/>
   <tile/>
   <tile/>
   <tile/>
   <tile/>
   <tile/>
   <tile/>
   <tile/>
   <tile/>
   <tile/>
   <tile/>
   <tile/>
   <tile/>
   <tile/>
   <tile/>
   <tile/>
   <tile/>
   <tile/>
   <tile/>
   <tile/>
   <tile/>
   <tile/>
   <tile/>
   <tile/>
   <tile/>
   <tile/>
   <tile/>
   <tile/>
   <tile/>
   <tile/>
   <tile/>
   <tile/>
   <tile/>
   <tile/>
   <tile/>
   <tile/>
   <tile/>
   <tile/>
   <tile/>
   <tile/>
   <tile/>
   <tile/>
   <tile/>
   <tile/>
   <tile/>
   <tile/>
   <tile/>
   <tile/>
   <tile/>
   <tile/>
   <tile/>
   <tile/>
   <tile/>
   <tile/>
   <tile/>
   <tile/>
   <tile/>
   <tile/>
   <tile/>
   <tile/>
   <tile/>
   <tile/>
   <tile/>
   <tile/>
   <tile/>
   <tile/>
   <tile/>
   <tile/>
   <tile/>
   <tile/>
   <tile/>
   <tile/>
   <tile/>
   <tile/>
   <tile/>
   <tile/>
   <tile/>
   <tile/>
   <tile/>
   <tile/>
   <tile/>
   <tile/>
   <tile/>
   <tile/>
   <tile/>
   <tile/>
   <tile/>
   <tile/>
   <tile/>
   <tile/>
   <tile/>
   <tile/>
   <tile/>
   <tile/>
   <tile/>
   <tile/>
   <tile/>
   <tile/>
   <tile/>
   <tile/>
   <tile/>
   <tile/>
   <tile/>
   <tile/>
   <tile/>
   <tile/>
   <tile/>
   <tile/>
   <tile/>
   <tile/>
   <tile/>
   <tile/>
   <tile/>
   <tile/>
   <tile/>
   <tile/>
   <tile/>
   <tile/>
   <tile/>
   <tile/>
   <tile/>
   <tile/>
   <tile/>
   <tile/>
   <tile/>
   <tile/>
   <tile/>
   <tile/>
   <tile/>
   <tile/>
   <tile/>
   <tile/>
   <tile/>
   <tile/>
   <tile/>
   <tile/>
   <tile/>
   <tile/>
   <tile/>
   <tile/>
   <tile/>
   <tile/>
   <tile/>
   <tile/>
   <tile/>
   <tile/>
   <tile/>
   <tile/>
   <tile/>
   <tile/>
   <tile/>
   <tile/>
   <tile/>
   <tile/>
   <tile/>
   <tile/>
   <tile/>
   <tile/>
   <tile/>
   <tile/>
   <tile/>
   <tile/>
   <tile/>
   <tile/>
   <tile/>
   <tile/>
   <tile/>
   <tile/>
   <tile/>
   <tile/>
   <tile/>
   <tile/>
   <tile/>
   <tile/>
   <tile/>
   <tile/>
   <tile/>
   <tile/>
   <tile/>
   <tile/>
   <tile/>
   <tile/>
   <tile/>
   <tile/>
   <tile/>
   <tile/>
   <tile/>
   <tile/>
   <tile/>
   <tile/>
   <tile/>
   <tile/>
   <tile/>
   <tile/>
   <tile/>
  </data>
 </layer>
 <layer id="3" name="Map Change 1" width="25" height="15">
  <properties>
   <property name="Height" value="1"/>
   <property name="ID" value="1"/>
   <property name="Width" value="1"/>
   <property name="X" value="6"/>
   <property name="Y" value="1"/>
  </properties>
  <data>
   <tile/>
   <tile/>
   <tile/>
   <tile/>
   <tile/>
   <tile/>
   <tile/>
   <tile/>
   <tile/>
   <tile/>
   <tile/>
   <tile/>
   <tile/>
   <tile/>
   <tile/>
   <tile/>
   <tile/>
   <tile/>
   <tile/>
   <tile/>
   <tile/>
   <tile/>
   <tile/>
   <tile/>
   <tile/>
   <tile/>
   <tile/>
   <tile/>
   <tile/>
   <tile/>
   <tile/>
   <tile gid="32"/>
   <tile/>
   <tile/>
   <tile/>
   <tile/>
   <tile/>
   <tile/>
   <tile/>
   <tile/>
   <tile/>
   <tile/>
   <tile/>
   <tile/>
   <tile/>
   <tile/>
   <tile/>
   <tile/>
   <tile/>
   <tile/>
   <tile/>
   <tile/>
   <tile/>
   <tile/>
   <tile/>
   <tile/>
   <tile/>
   <tile/>
   <tile/>
   <tile/>
   <tile/>
   <tile/>
   <tile/>
   <tile/>
   <tile/>
   <tile/>
   <tile/>
   <tile/>
   <tile/>
   <tile/>
   <tile/>
   <tile/>
   <tile/>
   <tile/>
   <tile/>
   <tile/>
   <tile/>
   <tile/>
   <tile/>
   <tile/>
   <tile/>
   <tile/>
   <tile/>
   <tile/>
   <tile/>
   <tile/>
   <tile/>
   <tile/>
   <tile/>
   <tile/>
   <tile/>
   <tile/>
   <tile/>
   <tile/>
   <tile/>
   <tile/>
   <tile/>
   <tile/>
   <tile/>
   <tile/>
   <tile/>
   <tile/>
   <tile/>
   <tile/>
   <tile/>
   <tile/>
   <tile/>
   <tile/>
   <tile/>
   <tile/>
   <tile/>
   <tile/>
   <tile/>
   <tile/>
   <tile/>
   <tile/>
   <tile/>
   <tile/>
   <tile/>
   <tile/>
   <tile/>
   <tile/>
   <tile/>
   <tile/>
   <tile/>
   <tile/>
   <tile/>
   <tile/>
   <tile/>
   <tile/>
   <tile/>
   <tile/>
   <tile/>
   <tile/>
   <tile/>
   <tile/>
   <tile/>
   <tile/>
   <tile/>
   <tile/>
   <tile/>
   <tile/>
   <tile/>
   <tile/>
   <tile/>
   <tile/>
   <tile/>
   <tile/>
   <tile/>
   <tile/>
   <tile/>
   <tile/>
   <tile/>
   <tile/>
   <tile/>
   <tile/>
   <tile/>
   <tile/>
   <tile/>
   <tile/>
   <tile/>
   <tile/>
   <tile/>
   <tile/>
   <tile/>
   <tile/>
   <tile/>
   <tile/>
   <tile/>
   <tile/>
   <tile/>
   <tile/>
   <tile/>
   <tile/>
   <tile/>
   <tile/>
   <tile/>
   <tile/>
   <tile/>
   <tile/>
   <tile/>
   <tile/>
   <tile/>
   <tile/>
   <tile/>
   <tile/>
   <tile/>
   <tile/>
   <tile/>
   <tile/>
   <tile/>
   <tile/>
   <tile/>
   <tile/>
   <tile/>
   <tile/>
   <tile/>
   <tile/>
   <tile/>
   <tile/>
   <tile/>
   <tile/>
   <tile/>
   <tile/>
   <tile/>
   <tile/>
   <tile/>
   <tile/>
   <tile/>
   <tile/>
   <tile/>
   <tile/>
   <tile/>
   <tile/>
   <tile/>
   <tile/>
   <tile/>
   <tile/>
   <tile/>
   <tile/>
   <tile/>
   <tile/>
   <tile/>
   <tile/>
   <tile/>
   <tile/>
   <tile/>
   <tile/>
   <tile/>
   <tile/>
   <tile/>
   <tile/>
   <tile/>
   <tile/>
   <tile/>
   <tile/>
   <tile/>
   <tile/>
   <tile/>
   <tile/>
   <tile/>
   <tile/>
   <tile/>
   <tile/>
   <tile/>
   <tile/>
   <tile/>
   <tile/>
   <tile/>
   <tile/>
   <tile/>
   <tile/>
   <tile/>
   <tile/>
   <tile/>
   <tile/>
   <tile/>
   <tile/>
   <tile/>
   <tile/>
   <tile/>
   <tile/>
   <tile/>
   <tile/>
   <tile/>
   <tile/>
   <tile/>
   <tile/>
   <tile/>
   <tile/>
   <tile/>
   <tile/>
   <tile/>
   <tile/>
   <tile/>
   <tile/>
   <tile/>
   <tile/>
   <tile/>
   <tile/>
   <tile/>
   <tile/>
   <tile/>
   <tile/>
   <tile/>
   <tile/>
   <tile/>
   <tile/>
   <tile/>
   <tile/>
   <tile/>
   <tile/>
   <tile/>
   <tile/>
   <tile/>
   <tile/>
   <tile/>
   <tile/>
   <tile/>
   <tile/>
   <tile/>
   <tile/>
   <tile/>
   <tile/>
   <tile/>
   <tile/>
   <tile/>
   <tile/>
   <tile/>
   <tile/>
   <tile/>
   <tile/>
   <tile/>
   <tile/>
   <tile/>
   <tile/>
   <tile/>
   <tile/>
   <tile/>
   <tile/>
   <tile/>
   <tile/>
   <tile/>
   <tile/>
   <tile/>
   <tile/>
   <tile/>
   <tile/>
   <tile/>
   <tile/>
   <tile/>
   <tile/>
   <tile/>
   <tile/>
   <tile/>
   <tile/>
   <tile/>
   <tile/>
   <tile/>
   <tile/>
   <tile/>
   <tile/>
   <tile/>
   <tile/>
   <tile/>
   <tile/>
   <tile/>
   <tile/>
   <tile/>
   <tile/>
   <tile/>
   <tile/>
   <tile/>
   <tile/>
   <tile/>
   <tile/>
   <tile/>
   <tile/>
   <tile/>
   <tile/>
   <tile/>
   <tile/>
   <tile/>
   <tile/>
   <tile/>
   <tile/>
   <tile/>
   <tile/>
   <tile/>
   <tile/>
   <tile/>
   <tile/>
   <tile/>
   <tile/>
   <tile/>
  </data>
 </layer>
 <layer id="4" name="Map Change 2" width="25" height="15">
  <properties>
   <property name="Height" value="2"/>
   <property name="ID" value="2"/>
   <property name="Width" value="3"/>
   <property name="X" value="21"/>
   <property name="Y" value="11"/>
  </properties>
  <data>
   <tile/>
   <tile/>
   <tile/>
   <tile/>
   <tile/>
   <tile/>
   <tile/>
   <tile/>
   <tile/>
   <tile/>
   <tile/>
   <tile/>
   <tile/>
   <tile/>
   <tile/>
   <tile/>
   <tile/>
   <tile/>
   <tile/>
   <tile/>
   <tile/>
   <tile/>
   <tile/>
   <tile/>
   <tile/>
   <tile/>
   <tile/>
   <tile/>
   <tile/>
   <tile/>
   <tile/>
   <tile/>
   <tile/>
   <tile/>
   <tile/>
   <tile/>
   <tile/>
   <tile/>
   <tile/>
   <tile/>
   <tile/>
   <tile/>
   <tile/>
   <tile/>
   <tile/>
   <tile/>
   <tile/>
   <tile/>
   <tile/>
   <tile/>
   <tile/>
   <tile/>
   <tile/>
   <tile/>
   <tile/>
   <tile/>
   <tile/>
   <tile/>
   <tile/>
   <tile/>
   <tile/>
   <tile/>
   <tile/>
   <tile/>
   <tile/>
   <tile/>
   <tile/>
   <tile/>
   <tile/>
   <tile/>
   <tile/>
   <tile/>
   <tile/>
   <tile/>
   <tile/>
   <tile/>
   <tile/>
   <tile/>
   <tile/>
   <tile/>
   <tile/>
   <tile/>
   <tile/>
   <tile/>
   <tile/>
   <tile/>
   <tile/>
   <tile/>
   <tile/>
   <tile/>
   <tile/>
   <tile/>
   <tile/>
   <tile/>
   <tile/>
   <tile/>
   <tile/>
   <tile/>
   <tile/>
   <tile/>
   <tile/>
   <tile/>
   <tile/>
   <tile/>
   <tile/>
   <tile/>
   <tile/>
   <tile/>
   <tile/>
   <tile/>
   <tile/>
   <tile/>
   <tile/>
   <tile/>
   <tile/>
   <tile/>
   <tile/>
   <tile/>
   <tile/>
   <tile/>
   <tile/>
   <tile/>
   <tile/>
   <tile/>
   <tile/>
   <tile/>
   <tile/>
   <tile/>
   <tile/>
   <tile/>
   <tile/>
   <tile/>
   <tile/>
   <tile/>
   <tile/>
   <tile/>
   <tile/>
   <tile/>
   <tile/>
   <tile/>
   <tile/>
   <tile/>
   <tile/>
   <tile/>
   <tile/>
   <tile/>
   <tile/>
   <tile/>
   <tile/>
   <tile/>
   <tile/>
   <tile/>
   <tile/>
   <tile/>
   <tile/>
   <tile/>
   <tile/>
   <tile/>
   <tile/>
   <tile/>
   <tile/>
   <tile/>
   <tile/>
   <tile/>
   <tile/>
   <tile/>
   <tile/>
   <tile/>
   <tile/>
   <tile/>
   <tile/>
   <tile/>
   <tile/>
   <tile/>
   <tile/>
   <tile/>
   <tile/>
   <tile/>
   <tile/>
   <tile/>
   <tile/>
   <tile/>
   <tile/>
   <tile/>
   <tile/>
   <tile/>
   <tile/>
   <tile/>
   <tile/>
   <tile/>
   <tile/>
   <tile/>
   <tile/>
   <tile/>
   <tile/>
   <tile/>
   <tile/>
   <tile/>
   <tile/>
   <tile/>
   <tile/>
   <tile/>
   <tile/>
   <tile/>
   <tile/>
   <tile/>
   <tile/>
   <tile/>
   <tile/>
   <tile/>
   <tile/>
   <tile/>
   <tile/>
   <tile/>
   <tile/>
   <tile/>
   <tile/>
   <tile/>
   <tile/>
   <tile/>
   <tile/>
   <tile/>
   <tile/>
   <tile/>
   <tile/>
   <tile/>
   <tile/>
   <tile/>
   <tile/>
   <tile/>
   <tile/>
   <tile/>
   <tile/>
   <tile/>
   <tile/>
   <tile/>
   <tile/>
   <tile/>
   <tile/>
   <tile/>
   <tile/>
   <tile/>
   <tile/>
   <tile/>
   <tile/>
   <tile/>
   <tile/>
   <tile/>
   <tile/>
   <tile/>
   <tile/>
   <tile/>
   <tile/>
   <tile/>
   <tile/>
   <tile/>
   <tile/>
   <tile/>
   <tile/>
   <tile/>
   <tile/>
   <tile/>
   <tile/>
   <tile/>
   <tile/>
   <tile/>
   <tile/>
   <tile/>
   <tile/>
   <tile/>
   <tile/>
   <tile/>
   <tile/>
   <tile/>
   <tile/>
   <tile/>
   <tile/>
   <tile/>
   <tile/>
   <tile/>
   <tile/>
   <tile/>
   <tile/>
   <tile/>
   <tile/>
   <tile/>
   <tile/>
   <tile/>
   <tile/>
   <tile/>
   <tile/>
   <tile/>
   <tile/>
   <tile/>
   <tile/>
   <tile/>
   <tile gid="29"/>
   <tile gid="30"/>
   <tile gid="31"/>
   <tile/>
   <tile/>
   <tile/>
   <tile/>
   <tile/>
   <tile/>
   <tile/>
   <tile/>
   <tile/>
   <tile/>
   <tile/>
   <tile/>
   <tile/>
   <tile/>
   <tile/>
   <tile/>
   <tile/>
   <tile/>
   <tile/>
   <tile/>
   <tile/>
   <tile/>
   <tile gid="61"/>
   <tile gid="62"/>
   <tile gid="63"/>
   <tile/>
   <tile/>
   <tile/>
   <tile/>
   <tile/>
   <tile/>
   <tile/>
   <tile/>
   <tile/>
   <tile/>
   <tile/>
   <tile/>
   <tile/>
   <tile/>
   <tile/>
   <tile/>
   <tile/>
   <tile/>
   <tile/>
   <tile/>
   <tile/>
   <tile/>
   <tile/>
   <tile/>
   <tile/>
   <tile/>
   <tile/>
   <tile/>
   <tile/>
   <tile/>
   <tile/>
   <tile/>
   <tile/>
   <tile/>
   <tile/>
   <tile/>
   <tile/>
   <tile/>
   <tile/>
   <tile/>
   <tile/>
   <tile/>
   <tile/>
   <tile/>
   <tile/>
   <tile/>
   <tile/>
   <tile/>
   <tile/>
   <tile/>
   <tile/>
  </data>
 </layer>
 <layer id="5" name="Map Change 3" width="25" height="15">
  <properties>
   <property name="Height" value="1"/>
   <property name="ID" value="3"/>
   <property name="Width" value="1"/>
   <property name="X" value="22"/>
   <property name="Y" value="12"/>
  </properties>
  <data>
   <tile/>
   <tile/>
   <tile/>
   <tile/>
   <tile/>
   <tile/>
   <tile/>
   <tile/>
   <tile/>
   <tile/>
   <tile/>
   <tile/>
   <tile/>
   <tile/>
   <tile/>
   <tile/>
   <tile/>
   <tile/>
   <tile/>
   <tile/>
   <tile/>
   <tile/>
   <tile/>
   <tile/>
   <tile/>
   <tile/>
   <tile/>
   <tile/>
   <tile/>
   <tile/>
   <tile/>
   <tile/>
   <tile/>
   <tile/>
   <tile/>
   <tile/>
   <tile/>
   <tile/>
   <tile/>
   <tile/>
   <tile/>
   <tile/>
   <tile/>
   <tile/>
   <tile/>
   <tile/>
   <tile/>
   <tile/>
   <tile/>
   <tile/>
   <tile/>
   <tile/>
   <tile/>
   <tile/>
   <tile/>
   <tile/>
   <tile/>
   <tile/>
   <tile/>
   <tile/>
   <tile/>
   <tile/>
   <tile/>
   <tile/>
   <tile/>
   <tile/>
   <tile/>
   <tile/>
   <tile/>
   <tile/>
   <tile/>
   <tile/>
   <tile/>
   <tile/>
   <tile/>
   <tile/>
   <tile/>
   <tile/>
   <tile/>
   <tile/>
   <tile/>
   <tile/>
   <tile/>
   <tile/>
   <tile/>
   <tile/>
   <tile/>
   <tile/>
   <tile/>
   <tile/>
   <tile/>
   <tile/>
   <tile/>
   <tile/>
   <tile/>
   <tile/>
   <tile/>
   <tile/>
   <tile/>
   <tile/>
   <tile/>
   <tile/>
   <tile/>
   <tile/>
   <tile/>
   <tile/>
   <tile/>
   <tile/>
   <tile/>
   <tile/>
   <tile/>
   <tile/>
   <tile/>
   <tile/>
   <tile/>
   <tile/>
   <tile/>
   <tile/>
   <tile/>
   <tile/>
   <tile/>
   <tile/>
   <tile/>
   <tile/>
   <tile/>
   <tile/>
   <tile/>
   <tile/>
   <tile/>
   <tile/>
   <tile/>
   <tile/>
   <tile/>
   <tile/>
   <tile/>
   <tile/>
   <tile/>
   <tile/>
   <tile/>
   <tile/>
   <tile/>
   <tile/>
   <tile/>
   <tile/>
   <tile/>
   <tile/>
   <tile/>
   <tile/>
   <tile/>
   <tile/>
   <tile/>
   <tile/>
   <tile/>
   <tile/>
   <tile/>
   <tile/>
   <tile/>
   <tile/>
   <tile/>
   <tile/>
   <tile/>
   <tile/>
   <tile/>
   <tile/>
   <tile/>
   <tile/>
   <tile/>
   <tile/>
   <tile/>
   <tile/>
   <tile/>
   <tile/>
   <tile/>
   <tile/>
   <tile/>
   <tile/>
   <tile/>
   <tile/>
   <tile/>
   <tile/>
   <tile/>
   <tile/>
   <tile/>
   <tile/>
   <tile/>
   <tile/>
   <tile/>
   <tile/>
   <tile/>
   <tile/>
   <tile/>
   <tile/>
   <tile/>
   <tile/>
   <tile/>
   <tile/>
   <tile/>
   <tile/>
   <tile/>
   <tile/>
   <tile/>
   <tile/>
   <tile/>
   <tile/>
   <tile/>
   <tile/>
   <tile/>
   <tile/>
   <tile/>
   <tile/>
   <tile/>
   <tile/>
   <tile/>
   <tile/>
   <tile/>
   <tile/>
   <tile/>
   <tile/>
   <tile/>
   <tile/>
   <tile/>
   <tile/>
   <tile/>
   <tile/>
   <tile/>
   <tile/>
   <tile/>
   <tile/>
   <tile/>
   <tile/>
   <tile/>
   <tile/>
   <tile/>
   <tile/>
   <tile/>
   <tile/>
   <tile/>
   <tile/>
   <tile/>
   <tile/>
   <tile/>
   <tile/>
   <tile/>
   <tile/>
   <tile/>
   <tile/>
   <tile/>
   <tile/>
   <tile/>
   <tile/>
   <tile/>
   <tile/>
   <tile/>
   <tile/>
   <tile/>
   <tile/>
   <tile/>
   <tile/>
   <tile/>
   <tile/>
   <tile/>
   <tile/>
   <tile/>
   <tile/>
   <tile/>
   <tile/>
   <tile/>
   <tile/>
   <tile/>
   <tile/>
   <tile/>
   <tile/>
   <tile/>
   <tile/>
   <tile/>
   <tile/>
   <tile/>
   <tile/>
   <tile/>
   <tile/>
   <tile/>
   <tile/>
   <tile/>
   <tile/>
   <tile/>
   <tile/>
   <tile/>
   <tile/>
   <tile/>
   <tile/>
   <tile/>
   <tile/>
   <tile/>
   <tile/>
   <tile/>
   <tile/>
   <tile/>
   <tile/>
   <tile/>
   <tile/>
   <tile/>
   <tile/>
   <tile/>
   <tile/>
   <tile/>
   <tile/>
   <tile/>
   <tile/>
   <tile/>
   <tile/>
   <tile/>
   <tile/>
   <tile/>
   <tile/>
   <tile/>
   <tile/>
   <tile/>
   <tile/>
   <tile/>
   <tile/>
   <tile/>
   <tile/>
   <tile gid="32"/>
   <tile/>
   <tile/>
   <tile/>
   <tile/>
   <tile/>
   <tile/>
   <tile/>
   <tile/>
   <tile/>
   <tile/>
   <tile/>
   <tile/>
   <tile/>
   <tile/>
   <tile/>
   <tile/>
   <tile/>
   <tile/>
   <tile/>
   <tile/>
   <tile/>
   <tile/>
   <tile/>
   <tile/>
   <tile/>
   <tile/>
   <tile/>
   <tile/>
   <tile/>
   <tile/>
   <tile/>
   <tile/>
   <tile/>
   <tile/>
   <tile/>
   <tile/>
   <tile/>
   <tile/>
   <tile/>
   <tile/>
   <tile/>
   <tile/>
   <tile/>
   <tile/>
   <tile/>
   <tile/>
   <tile/>
   <tile/>
   <tile/>
   <tile/>
   <tile/>
   <tile/>
  </data>
 </layer>
</map>
