<?xml version="1.0" encoding="UTF-8"?>
<map version="1.10" tiledversion="1.11.0" orientation="orthogonal" renderorder="right-down" width="21" height="16" tilewidth="16" tileheight="16" infinite="0" nextlayerid="2" nextobjectid="1">
 <tileset firstgid="1" name="0D000E08" tilewidth="16" tileheight="16" tilecount="1024" columns="32">
  <image source="0D000E08.png" trans="ffffff" width="512" height="512"/>
 </tileset>
 <layer id="1" name="Tile Layer 1" width="21" height="16">
  <properties>
   <property name="Anims1" value="0"/>
   <property name="Anims2" value="0"/>
   <property name="ChapterID" value="Chapter7"/>
   <property name="Main" value=""/>
   <property name="MapChangesID" value="MapChange7ID"/>
   <property name="MapID" value="Map7ID"/>
   <property name="ObjectType" value="Caves1OBJ"/>
   <property name="PaletteID" value="Caves1PAL"/>
   <property name="TileConfig" value="CavesCONFIG"/>
  </properties>
  <data>
   <tile gid="321"/>
   <tile gid="322"/>
   <tile gid="323"/>
   <tile gid="324"/>
   <tile gid="325"/>
   <tile gid="75"/>
   <tile gid="76"/>
   <tile gid="76"/>
   <tile gid="44"/>
   <tile gid="45"/>
   <tile gid="706"/>
   <tile gid="674"/>
   <tile gid="675"/>
   <tile gid="32"/>
   <tile gid="189"/>
   <tile gid="516"/>
   <tile gid="88"/>
   <tile gid="88"/>
   <tile gid="159"/>
   <tile gid="29"/>
   <tile gid="29"/>
   <tile gid="353"/>
   <tile gid="354"/>
   <tile gid="355"/>
   <tile gid="356"/>
   <tile gid="357"/>
   <tile gid="139"/>
   <tile gid="108"/>
   <tile gid="108"/>
   <tile gid="75"/>
   <tile gid="77"/>
   <tile gid="706"/>
   <tile gid="675"/>
   <tile gid="674"/>
   <tile gid="32"/>
   <tile gid="119"/>
   <tile gid="88"/>
   <tile gid="88"/>
   <tile gid="147"/>
   <tile gid="88"/>
   <tile gid="158"/>
   <tile gid="159"/>
   <tile gid="385"/>
   <tile gid="386"/>
   <tile gid="387"/>
   <tile gid="371"/>
   <tile gid="389"/>
   <tile gid="139"/>
   <tile gid="140"/>
   <tile gid="108"/>
   <tile gid="108"/>
   <tile gid="109"/>
   <tile gid="166"/>
   <tile gid="167"/>
   <tile gid="264"/>
   <tile gid="32"/>
   <tile gid="93"/>
   <tile gid="189"/>
   <tile gid="88"/>
   <tile gid="179"/>
   <tile gid="553"/>
   <tile gid="554"/>
   <tile gid="484"/>
   <tile gid="740"/>
   <tile gid="484"/>
   <tile gid="708"/>
   <tile gid="275"/>
   <tile gid="708"/>
   <tile gid="98"/>
   <tile gid="172"/>
   <tile gid="139"/>
   <tile gid="108"/>
   <tile gid="141"/>
   <tile gid="166"/>
   <tile gid="167"/>
   <tile gid="264"/>
   <tile gid="32"/>
   <tile gid="29"/>
   <tile gid="119"/>
   <tile gid="88"/>
   <tile gid="88"/>
   <tile gid="585"/>
   <tile gid="586"/>
   <tile gid="516"/>
   <tile gid="675"/>
   <tile gid="673"/>
   <tile gid="739"/>
   <tile gid="740"/>
   <tile gid="674"/>
   <tile gid="132"/>
   <tile gid="181"/>
   <tile gid="178"/>
   <tile gid="178"/>
   <tile gid="181"/>
   <tile gid="88"/>
   <tile gid="88"/>
   <tile gid="88"/>
   <tile gid="159"/>
   <tile gid="29"/>
   <tile gid="93"/>
   <tile gid="189"/>
   <tile gid="88"/>
   <tile gid="120"/>
   <tile gid="120"/>
   <tile gid="121"/>
   <tile gid="674"/>
   <tile gid="674"/>
   <tile gid="675"/>
   <tile gid="484"/>
   <tile gid="707"/>
   <tile gid="132"/>
   <tile gid="88"/>
   <tile gid="484"/>
   <tile gid="340"/>
   <tile gid="88"/>
   <tile gid="88"/>
   <tile gid="347"/>
   <tile gid="315"/>
   <tile gid="316"/>
   <tile gid="158"/>
   <tile gid="88"/>
   <tile gid="88"/>
   <tile gid="191"/>
   <tile gid="94"/>
   <tile gid="94"/>
   <tile gid="94"/>
   <tile gid="675"/>
   <tile gid="675"/>
   <tile gid="674"/>
   <tile gid="673"/>
   <tile gid="739"/>
   <tile gid="132"/>
   <tile gid="88"/>
   <tile gid="516"/>
   <tile gid="88"/>
   <tile gid="250"/>
   <tile gid="252"/>
   <tile gid="88"/>
   <tile gid="88"/>
   <tile gid="88"/>
   <tile gid="802"/>
   <tile gid="803"/>
   <tile gid="484"/>
   <tile gid="706"/>
   <tile gid="159"/>
   <tile gid="29"/>
   <tile gid="29"/>
   <tile gid="290"/>
   <tile gid="290"/>
   <tile gid="290"/>
   <tile gid="290"/>
   <tile gid="293"/>
   <tile gid="198"/>
   <tile gid="16"/>
   <tile gid="88"/>
   <tile gid="88"/>
   <tile gid="344"/>
   <tile gid="88"/>
   <tile gid="88"/>
   <tile gid="88"/>
   <tile gid="120"/>
   <tile gid="834"/>
   <tile gid="675"/>
   <tile gid="673"/>
   <tile gid="899"/>
   <tile gid="88"/>
   <tile gid="159"/>
   <tile gid="29"/>
   <tile gid="323"/>
   <tile gid="324"/>
   <tile gid="325"/>
   <tile gid="75"/>
   <tile gid="44"/>
   <tile gid="44"/>
   <tile gid="45"/>
   <tile gid="88"/>
   <tile gid="88"/>
   <tile gid="88"/>
   <tile gid="88"/>
   <tile gid="147"/>
   <tile gid="191"/>
   <tile gid="93"/>
   <tile gid="189"/>
   <tile gid="88"/>
   <tile gid="804"/>
   <tile gid="88"/>
   <tile gid="88"/>
   <tile gid="191"/>
   <tile gid="29"/>
   <tile gid="355"/>
   <tile gid="356"/>
   <tile gid="357"/>
   <tile gid="139"/>
   <tile gid="75"/>
   <tile gid="76"/>
   <tile gid="77"/>
   <tile gid="119"/>
   <tile gid="120"/>
   <tile gid="120"/>
   <tile gid="88"/>
   <tile gid="179"/>
   <tile gid="121"/>
   <tile gid="32"/>
   <tile gid="119"/>
   <tile gid="441"/>
   <tile gid="442"/>
   <tile gid="443"/>
   <tile gid="88"/>
   <tile gid="88"/>
   <tile gid="159"/>
   <tile gid="387"/>
   <tile gid="388"/>
   <tile gid="389"/>
   <tile gid="139"/>
   <tile gid="140"/>
   <tile gid="140"/>
   <tile gid="141"/>
   <tile gid="95"/>
   <tile gid="94"/>
   <tile gid="96"/>
   <tile gid="119"/>
   <tile gid="121"/>
   <tile gid="95"/>
   <tile gid="29"/>
   <tile gid="93"/>
   <tile gid="189"/>
   <tile gid="347"/>
   <tile gid="250"/>
   <tile gid="252"/>
   <tile gid="88"/>
   <tile gid="88"/>
   <tile gid="31"/>
   <tile gid="31"/>
   <tile gid="31"/>
   <tile gid="96"/>
   <tile gid="140"/>
   <tile gid="140"/>
   <tile gid="141"/>
   <tile gid="32"/>
   <tile gid="29"/>
   <tile gid="29"/>
   <tile gid="94"/>
   <tile gid="94"/>
   <tile gid="29"/>
   <tile gid="29"/>
   <tile gid="29"/>
   <tile gid="189"/>
   <tile gid="88"/>
   <tile gid="314"/>
   <tile gid="147"/>
   <tile gid="88"/>
   <tile gid="748"/>
   <tile gid="31"/>
   <tile gid="543"/>
   <tile gid="544"/>
   <tile gid="29"/>
   <tile gid="94"/>
   <tile gid="94"/>
   <tile gid="94"/>
   <tile gid="29"/>
   <tile gid="29"/>
   <tile gid="29"/>
   <tile gid="29"/>
   <tile gid="29"/>
   <tile gid="543"/>
   <tile gid="544"/>
   <tile gid="29"/>
   <tile gid="119"/>
   <tile gid="242"/>
   <tile gid="88"/>
   <tile gid="179"/>
   <tile gid="88"/>
   <tile gid="780"/>
   <tile gid="29"/>
   <tile gid="575"/>
   <tile gid="576"/>
   <tile gid="29"/>
   <tile gid="29"/>
   <tile gid="29"/>
   <tile gid="29"/>
   <tile gid="157"/>
   <tile gid="158"/>
   <tile gid="158"/>
   <tile gid="159"/>
   <tile gid="29"/>
   <tile gid="575"/>
   <tile gid="576"/>
   <tile gid="29"/>
   <tile gid="96"/>
   <tile gid="274"/>
   <tile gid="374"/>
   <tile gid="88"/>
   <tile gid="88"/>
   <tile gid="246"/>
   <tile gid="31"/>
   <tile gid="31"/>
   <tile gid="31"/>
   <tile gid="29"/>
   <tile gid="29"/>
   <tile gid="29"/>
   <tile gid="157"/>
   <tile gid="250"/>
   <tile gid="252"/>
   <tile gid="484"/>
   <tile gid="372"/>
   <tile gid="32"/>
   <tile gid="29"/>
   <tile gid="29"/>
   <tile gid="29"/>
   <tile gid="29"/>
   <tile gid="94"/>
   <tile gid="96"/>
   <tile gid="119"/>
   <tile gid="88"/>
   <tile gid="278"/>
   <tile gid="31"/>
   <tile gid="31"/>
   <tile gid="29"/>
   <tile gid="29"/>
   <tile gid="29"/>
   <tile gid="29"/>
   <tile gid="189"/>
   <tile gid="344"/>
   <tile gid="147"/>
   <tile gid="516"/>
   <tile gid="88"/>
   <tile gid="159"/>
   <tile gid="29"/>
   <tile gid="29"/>
   <tile gid="29"/>
   <tile gid="29"/>
   <tile gid="29"/>
   <tile gid="29"/>
   <tile gid="96"/>
   <tile gid="119"/>
   <tile gid="311"/>
  </data>
 </layer>
</map>
