<?xml version="1.0" encoding="UTF-8"?>
<map version="1.10" tiledversion="1.11.0" orientation="orthogonal" renderorder="right-down" width="20" height="18" tilewidth="16" tileheight="16" infinite="0" nextlayerid="2" nextobjectid="1">
 <tileset firstgid="1" name="01000204" tilewidth="16" tileheight="16" tilecount="1024" columns="32">
  <image source="01000204.png" trans="ffffff" width="512" height="512"/>
 </tileset>
 <layer id="1" name="Tile Layer 1" width="20" height="18">
  <properties>
   <property name="Anims1" value="0"/>
   <property name="Anims2" value="0"/>
   <property name="ChapterID" value="Chapter5"/>
   <property name="Main" value=""/>
   <property name="MapChangesID" value="MapChange5ID"/>
   <property name="MapID" value="Map5ID"/>
   <property name="ObjectType" value="Village1OBJ"/>
   <property name="PaletteID" value="Village1PAL"/>
   <property name="TileConfig" value="GuildhallCONFIG"/>
  </properties>
  <data>
   <tile gid="1009"/>
   <tile gid="945"/>
   <tile gid="1009"/>
   <tile gid="945"/>
   <tile gid="1009"/>
   <tile gid="945"/>
   <tile gid="1009"/>
   <tile gid="945"/>
   <tile gid="630"/>
   <tile gid="536"/>
   <tile gid="536"/>
   <tile gid="662"/>
   <tile gid="1009"/>
   <tile gid="945"/>
   <tile gid="1009"/>
   <tile gid="945"/>
   <tile gid="1009"/>
   <tile gid="945"/>
   <tile gid="1009"/>
   <tile gid="945"/>
   <tile gid="945"/>
   <tile gid="1009"/>
   <tile gid="945"/>
   <tile gid="1009"/>
   <tile gid="945"/>
   <tile gid="1009"/>
   <tile gid="945"/>
   <tile gid="1009"/>
   <tile gid="599"/>
   <tile gid="629"/>
   <tile gid="629"/>
   <tile gid="600"/>
   <tile gid="945"/>
   <tile gid="1009"/>
   <tile gid="945"/>
   <tile gid="1009"/>
   <tile gid="945"/>
   <tile gid="1009"/>
   <tile gid="945"/>
   <tile gid="1009"/>
   <tile gid="1009"/>
   <tile gid="945"/>
   <tile gid="1009"/>
   <tile gid="945"/>
   <tile gid="1009"/>
   <tile gid="945"/>
   <tile gid="1009"/>
   <tile gid="945"/>
   <tile gid="1009"/>
   <tile gid="945"/>
   <tile gid="1009"/>
   <tile gid="945"/>
   <tile gid="1009"/>
   <tile gid="945"/>
   <tile gid="1009"/>
   <tile gid="945"/>
   <tile gid="1009"/>
   <tile gid="945"/>
   <tile gid="1009"/>
   <tile gid="945"/>
   <tile gid="676"/>
   <tile gid="1008"/>
   <tile gid="945"/>
   <tile gid="739"/>
   <tile gid="644"/>
   <tile gid="644"/>
   <tile gid="770"/>
   <tile gid="684"/>
   <tile gid="277"/>
   <tile gid="278"/>
   <tile gid="278"/>
   <tile gid="279"/>
   <tile gid="684"/>
   <tile gid="769"/>
   <tile gid="644"/>
   <tile gid="644"/>
   <tile gid="676"/>
   <tile gid="1008"/>
   <tile gid="945"/>
   <tile gid="739"/>
   <tile gid="741"/>
   <tile gid="277"/>
   <tile gid="279"/>
   <tile gid="741"/>
   <tile gid="619"/>
   <tile gid="619"/>
   <tile gid="619"/>
   <tile gid="620"/>
   <tile gid="277"/>
   <tile gid="278"/>
   <tile gid="278"/>
   <tile gid="279"/>
   <tile gid="618"/>
   <tile gid="619"/>
   <tile gid="619"/>
   <tile gid="619"/>
   <tile gid="741"/>
   <tile gid="277"/>
   <tile gid="279"/>
   <tile gid="741"/>
   <tile gid="617"/>
   <tile gid="277"/>
   <tile gid="279"/>
   <tile gid="617"/>
   <tile gid="619"/>
   <tile gid="619"/>
   <tile gid="619"/>
   <tile gid="620"/>
   <tile gid="309"/>
   <tile gid="310"/>
   <tile gid="310"/>
   <tile gid="311"/>
   <tile gid="618"/>
   <tile gid="619"/>
   <tile gid="619"/>
   <tile gid="619"/>
   <tile gid="617"/>
   <tile gid="277"/>
   <tile gid="279"/>
   <tile gid="617"/>
   <tile gid="617"/>
   <tile gid="309"/>
   <tile gid="311"/>
   <tile gid="617"/>
   <tile gid="845"/>
   <tile gid="846"/>
   <tile gid="846"/>
   <tile gid="846"/>
   <tile gid="878"/>
   <tile gid="567"/>
   <tile gid="568"/>
   <tile gid="878"/>
   <tile gid="846"/>
   <tile gid="846"/>
   <tile gid="846"/>
   <tile gid="846"/>
   <tile gid="617"/>
   <tile gid="309"/>
   <tile gid="311"/>
   <tile gid="617"/>
   <tile gid="846"/>
   <tile gid="878"/>
   <tile gid="878"/>
   <tile gid="846"/>
   <tile gid="878"/>
   <tile gid="341"/>
   <tile gid="342"/>
   <tile gid="342"/>
   <tile gid="344"/>
   <tile gid="663"/>
   <tile gid="662"/>
   <tile gid="341"/>
   <tile gid="342"/>
   <tile gid="342"/>
   <tile gid="344"/>
   <tile gid="877"/>
   <tile gid="846"/>
   <tile gid="878"/>
   <tile gid="878"/>
   <tile gid="846"/>
   <tile gid="878"/>
   <tile gid="783"/>
   <tile gid="878"/>
   <tile gid="878"/>
   <tile gid="878"/>
   <tile gid="341"/>
   <tile gid="342"/>
   <tile gid="342"/>
   <tile gid="344"/>
   <tile gid="663"/>
   <tile gid="662"/>
   <tile gid="341"/>
   <tile gid="342"/>
   <tile gid="342"/>
   <tile gid="344"/>
   <tile gid="877"/>
   <tile gid="878"/>
   <tile gid="878"/>
   <tile gid="878"/>
   <tile gid="878"/>
   <tile gid="342"/>
   <tile gid="342"/>
   <tile gid="344"/>
   <tile gid="877"/>
   <tile gid="878"/>
   <tile gid="341"/>
   <tile gid="342"/>
   <tile gid="342"/>
   <tile gid="344"/>
   <tile gid="663"/>
   <tile gid="662"/>
   <tile gid="341"/>
   <tile gid="342"/>
   <tile gid="342"/>
   <tile gid="344"/>
   <tile gid="877"/>
   <tile gid="878"/>
   <tile gid="341"/>
   <tile gid="342"/>
   <tile gid="342"/>
   <tile gid="342"/>
   <tile gid="342"/>
   <tile gid="344"/>
   <tile gid="877"/>
   <tile gid="878"/>
   <tile gid="819"/>
   <tile gid="846"/>
   <tile gid="846"/>
   <tile gid="819"/>
   <tile gid="630"/>
   <tile gid="662"/>
   <tile gid="819"/>
   <tile gid="846"/>
   <tile gid="846"/>
   <tile gid="819"/>
   <tile gid="878"/>
   <tile gid="878"/>
   <tile gid="341"/>
   <tile gid="342"/>
   <tile gid="342"/>
   <tile gid="342"/>
   <tile gid="342"/>
   <tile gid="344"/>
   <tile gid="877"/>
   <tile gid="878"/>
   <tile gid="878"/>
   <tile gid="878"/>
   <tile gid="878"/>
   <tile gid="878"/>
   <tile gid="630"/>
   <tile gid="662"/>
   <tile gid="878"/>
   <tile gid="878"/>
   <tile gid="878"/>
   <tile gid="878"/>
   <tile gid="878"/>
   <tile gid="878"/>
   <tile gid="341"/>
   <tile gid="342"/>
   <tile gid="342"/>
   <tile gid="846"/>
   <tile gid="846"/>
   <tile gid="819"/>
   <tile gid="878"/>
   <tile gid="878"/>
   <tile gid="341"/>
   <tile gid="342"/>
   <tile gid="342"/>
   <tile gid="344"/>
   <tile gid="663"/>
   <tile gid="662"/>
   <tile gid="341"/>
   <tile gid="342"/>
   <tile gid="342"/>
   <tile gid="344"/>
   <tile gid="877"/>
   <tile gid="878"/>
   <tile gid="819"/>
   <tile gid="846"/>
   <tile gid="846"/>
   <tile gid="878"/>
   <tile gid="878"/>
   <tile gid="878"/>
   <tile gid="878"/>
   <tile gid="878"/>
   <tile gid="341"/>
   <tile gid="342"/>
   <tile gid="342"/>
   <tile gid="344"/>
   <tile gid="663"/>
   <tile gid="662"/>
   <tile gid="341"/>
   <tile gid="342"/>
   <tile gid="342"/>
   <tile gid="344"/>
   <tile gid="877"/>
   <tile gid="878"/>
   <tile gid="783"/>
   <tile gid="878"/>
   <tile gid="878"/>
   <tile gid="342"/>
   <tile gid="342"/>
   <tile gid="344"/>
   <tile gid="877"/>
   <tile gid="878"/>
   <tile gid="341"/>
   <tile gid="342"/>
   <tile gid="342"/>
   <tile gid="344"/>
   <tile gid="663"/>
   <tile gid="662"/>
   <tile gid="341"/>
   <tile gid="342"/>
   <tile gid="342"/>
   <tile gid="344"/>
   <tile gid="877"/>
   <tile gid="878"/>
   <tile gid="341"/>
   <tile gid="342"/>
   <tile gid="342"/>
   <tile gid="342"/>
   <tile gid="342"/>
   <tile gid="344"/>
   <tile gid="877"/>
   <tile gid="878"/>
   <tile gid="819"/>
   <tile gid="846"/>
   <tile gid="846"/>
   <tile gid="819"/>
   <tile gid="630"/>
   <tile gid="662"/>
   <tile gid="819"/>
   <tile gid="783"/>
   <tile gid="846"/>
   <tile gid="819"/>
   <tile gid="878"/>
   <tile gid="878"/>
   <tile gid="341"/>
   <tile gid="342"/>
   <tile gid="342"/>
   <tile gid="342"/>
   <tile gid="342"/>
   <tile gid="344"/>
   <tile gid="877"/>
   <tile gid="878"/>
   <tile gid="878"/>
   <tile gid="878"/>
   <tile gid="878"/>
   <tile gid="878"/>
   <tile gid="630"/>
   <tile gid="662"/>
   <tile gid="878"/>
   <tile gid="782"/>
   <tile gid="878"/>
   <tile gid="878"/>
   <tile gid="878"/>
   <tile gid="878"/>
   <tile gid="341"/>
   <tile gid="342"/>
   <tile gid="342"/>
   <tile gid="846"/>
   <tile gid="846"/>
   <tile gid="819"/>
   <tile gid="878"/>
   <tile gid="878"/>
   <tile gid="341"/>
   <tile gid="342"/>
   <tile gid="342"/>
   <tile gid="344"/>
   <tile gid="663"/>
   <tile gid="662"/>
   <tile gid="341"/>
   <tile gid="342"/>
   <tile gid="342"/>
   <tile gid="344"/>
   <tile gid="877"/>
   <tile gid="878"/>
   <tile gid="819"/>
   <tile gid="846"/>
   <tile gid="846"/>
  </data>
 </layer>
</map>
