<?xml version="1.0" encoding="UTF-8"?>
<map version="1.0" orientation="orthogonal" width="21" height="30" tilewidth="16" tileheight="16">
 <tileset firstgid="1" name="01000201" tilewidth="16" tileheight="16">
  <image source="01000201.png" trans="ffffff"/>
 </tileset>
 <layer name="Tile Layer 1" width="21" height="30">
  <properties>
   <property name="Anims1" value="0"/>
   <property name="Anims2" value="0"/>
   <property name="ChapterID" value="EndgameB"/>
   <property name="Main" value=""/>
   <property name="MapChangesID" value="MapChange22BD"/>
   <property name="MapID" value="Map22BID"/>
   <property name="ObjectType" value="Village1OBJ"/>
   <property name="PaletteID" value="Village1PAL"/>
   <property name="TileConfig" value="VillageCONFIG"/>
  </properties>
  <data>
  <tile gid="853"/>
  <tile gid="853"/>
  <tile gid="853"/>
  <tile gid="853"/>
  <tile gid="853"/>
  <tile gid="853"/>
  <tile gid="853"/>
  <tile gid="853"/>
  <tile gid="853"/>
  <tile gid="853"/>
  <tile gid="853"/>
  <tile gid="853"/>
  <tile gid="853"/>
  <tile gid="853"/>
  <tile gid="853"/>
  <tile gid="853"/>
  <tile gid="853"/>
  <tile gid="853"/>
  <tile gid="853"/>
  <tile gid="853"/>
  <tile gid="853"/>
  <tile gid="853"/>
  <tile gid="853"/>
  <tile gid="853"/>
  <tile gid="853"/>
  <tile gid="853"/>
  <tile gid="853"/>
  <tile gid="853"/>
  <tile gid="853"/>
  <tile gid="853"/>
  <tile gid="853"/>
  <tile gid="853"/>
  <tile gid="853"/>
  <tile gid="853"/>
  <tile gid="853"/>
  <tile gid="853"/>
  <tile gid="853"/>
  <tile gid="853"/>
  <tile gid="853"/>
  <tile gid="853"/>
  <tile gid="853"/>
  <tile gid="853"/>
  <tile gid="853"/>
  <tile gid="853"/>
  <tile gid="853"/>
  <tile gid="853"/>
  <tile gid="853"/>
  <tile gid="853"/>
  <tile gid="853"/>
  <tile gid="853"/>
  <tile gid="854"/>
  <tile gid="885"/>
  <tile gid="885"/>
  <tile gid="856"/>
  <tile gid="853"/>
  <tile gid="853"/>
  <tile gid="853"/>
  <tile gid="853"/>
  <tile gid="853"/>
  <tile gid="853"/>
  <tile gid="853"/>
  <tile gid="853"/>
  <tile gid="853"/>
  <tile gid="853"/>
  <tile gid="853"/>
  <tile gid="853"/>
  <tile gid="853"/>
  <tile gid="853"/>
  <tile gid="853"/>
  <tile gid="853"/>
  <tile gid="853"/>
  <tile gid="886"/>
  <tile gid="885"/>
  <tile gid="885"/>
  <tile gid="885"/>
  <tile gid="885"/>
  <tile gid="853"/>
  <tile gid="853"/>
  <tile gid="853"/>
  <tile gid="853"/>
  <tile gid="853"/>
  <tile gid="853"/>
  <tile gid="853"/>
  <tile gid="853"/>
  <tile gid="853"/>
  <tile gid="853"/>
  <tile gid="853"/>
  <tile gid="853"/>
  <tile gid="853"/>
  <tile gid="853"/>
  <tile gid="853"/>
  <tile gid="853"/>
  <tile gid="853"/>
  <tile gid="886"/>
  <tile gid="885"/>
  <tile gid="885"/>
  <tile gid="888"/>
  <tile gid="853"/>
  <tile gid="853"/>
  <tile gid="831"/>
  <tile gid="853"/>
  <tile gid="853"/>
  <tile gid="853"/>
  <tile gid="853"/>
  <tile gid="853"/>
  <tile gid="853"/>
  <tile gid="853"/>
  <tile gid="853"/>
  <tile gid="853"/>
  <tile gid="853"/>
  <tile gid="831"/>
  <tile gid="853"/>
  <tile gid="853"/>
  <tile gid="853"/>
  <tile gid="853"/>
  <tile gid="853"/>
  <tile gid="853"/>
  <tile gid="853"/>
  <tile gid="853"/>
  <tile gid="798"/>
  <tile gid="697"/>
  <tile gid="829"/>
  <tile gid="853"/>
  <tile gid="853"/>
  <tile gid="853"/>
  <tile gid="853"/>
  <tile gid="853"/>
  <tile gid="853"/>
  <tile gid="831"/>
  <tile gid="853"/>
  <tile gid="828"/>
  <tile gid="892"/>
  <tile gid="829"/>
  <tile gid="853"/>
  <tile gid="853"/>
  <tile gid="853"/>
  <tile gid="853"/>
  <tile gid="853"/>
  <tile gid="853"/>
  <tile gid="853"/>
  <tile gid="798"/>
  <tile gid="272"/>
  <tile gid="800"/>
  <tile gid="853"/>
  <tile gid="853"/>
  <tile gid="853"/>
  <tile gid="853"/>
  <tile gid="853"/>
  <tile gid="828"/>
  <tile gid="800"/>
  <tile gid="828"/>
  <tile gid="272"/>
  <tile gid="272"/>
  <tile gid="272"/>
  <tile gid="829"/>
  <tile gid="831"/>
  <tile gid="831"/>
  <tile gid="853"/>
  <tile gid="853"/>
  <tile gid="853"/>
  <tile gid="831"/>
  <tile gid="828"/>
  <tile gid="272"/>
  <tile gid="892"/>
  <tile gid="832"/>
  <tile gid="829"/>
  <tile gid="853"/>
  <tile gid="853"/>
  <tile gid="832"/>
  <tile gid="272"/>
  <tile gid="272"/>
  <tile gid="272"/>
  <tile gid="272"/>
  <tile gid="272"/>
  <tile gid="272"/>
  <tile gid="272"/>
  <tile gid="272"/>
  <tile gid="272"/>
  <tile gid="829"/>
  <tile gid="853"/>
  <tile gid="828"/>
  <tile gid="272"/>
  <tile gid="272"/>
  <tile gid="272"/>
  <tile gid="272"/>
  <tile gid="272"/>
  <tile gid="272"/>
  <tile gid="829"/>
  <tile gid="853"/>
  <tile gid="272"/>
  <tile gid="272"/>
  <tile gid="272"/>
  <tile gid="272"/>
  <tile gid="272"/>
  <tile gid="864"/>
  <tile gid="272"/>
  <tile gid="800"/>
  <tile gid="768"/>
  <tile gid="272"/>
  <tile gid="892"/>
  <tile gid="832"/>
  <tile gid="272"/>
  <tile gid="272"/>
  <tile gid="272"/>
  <tile gid="272"/>
  <tile gid="272"/>
  <tile gid="272"/>
  <tile gid="272"/>
  <tile gid="697"/>
  <tile gid="799"/>
  <tile gid="272"/>
  <tile gid="892"/>
  <tile gid="272"/>
  <tile gid="272"/>
  <tile gid="272"/>
  <tile gid="832"/>
  <tile gid="272"/>
  <tile gid="272"/>
  <tile gid="272"/>
  <tile gid="272"/>
  <tile gid="272"/>
  <tile gid="272"/>
  <tile gid="272"/>
  <tile gid="272"/>
  <tile gid="272"/>
  <tile gid="272"/>
  <tile gid="272"/>
  <tile gid="272"/>
  <tile gid="272"/>
  <tile gid="272"/>
  <tile gid="829"/>
  <tile gid="272"/>
  <tile gid="272"/>
  <tile gid="272"/>
  <tile gid="272"/>
  <tile gid="272"/>
  <tile gid="272"/>
  <tile gid="892"/>
  <tile gid="272"/>
  <tile gid="272"/>
  <tile gid="272"/>
  <tile gid="272"/>
  <tile gid="272"/>
  <tile gid="272"/>
  <tile gid="958"/>
  <tile gid="960"/>
  <tile gid="272"/>
  <tile gid="272"/>
  <tile gid="864"/>
  <tile gid="272"/>
  <tile gid="272"/>
  <tile gid="800"/>
  <tile gid="272"/>
  <tile gid="272"/>
  <tile gid="272"/>
  <tile gid="864"/>
  <tile gid="697"/>
  <tile gid="272"/>
  <tile gid="272"/>
  <tile gid="272"/>
  <tile gid="272"/>
  <tile gid="892"/>
  <tile gid="272"/>
  <tile gid="272"/>
  <tile gid="272"/>
  <tile gid="1022"/>
  <tile gid="1024"/>
  <tile gid="272"/>
  <tile gid="800"/>
  <tile gid="853"/>
  <tile gid="768"/>
  <tile gid="272"/>
  <tile gid="272"/>
  <tile gid="165"/>
  <tile gid="272"/>
  <tile gid="800"/>
  <tile gid="853"/>
  <tile gid="768"/>
  <tile gid="272"/>
  <tile gid="272"/>
  <tile gid="272"/>
  <tile gid="272"/>
  <tile gid="272"/>
  <tile gid="272"/>
  <tile gid="303"/>
  <tile gid="272"/>
  <tile gid="272"/>
  <tile gid="272"/>
  <tile gid="272"/>
  <tile gid="272"/>
  <tile gid="832"/>
  <tile gid="272"/>
  <tile gid="272"/>
  <tile gid="272"/>
  <tile gid="193"/>
  <tile gid="165"/>
  <tile gid="272"/>
  <tile gid="832"/>
  <tile gid="272"/>
  <tile gid="272"/>
  <tile gid="272"/>
  <tile gid="697"/>
  <tile gid="272"/>
  <tile gid="272"/>
  <tile gid="602"/>
  <tile gid="548"/>
  <tile gid="603"/>
  <tile gid="272"/>
  <tile gid="272"/>
  <tile gid="892"/>
  <tile gid="272"/>
  <tile gid="697"/>
  <tile gid="272"/>
  <tile gid="272"/>
  <tile gid="272"/>
  <tile gid="193"/>
  <tile gid="667"/>
  <tile gid="603"/>
  <tile gid="272"/>
  <tile gid="272"/>
  <tile gid="272"/>
  <tile gid="272"/>
  <tile gid="272"/>
  <tile gid="272"/>
  <tile gid="166"/>
  <tile gid="667"/>
  <tile gid="193"/>
  <tile gid="193"/>
  <tile gid="603"/>
  <tile gid="697"/>
  <tile gid="272"/>
  <tile gid="272"/>
  <tile gid="272"/>
  <tile gid="272"/>
  <tile gid="272"/>
  <tile gid="272"/>
  <tile gid="474"/>
  <tile gid="36"/>
  <tile gid="404"/>
  <tile gid="272"/>
  <tile gid="272"/>
  <tile gid="166"/>
  <tile gid="165"/>
  <tile gid="303"/>
  <tile gid="166"/>
  <tile gid="565"/>
  <tile gid="565"/>
  <tile gid="565"/>
  <tile gid="193"/>
  <tile gid="193"/>
  <tile gid="165"/>
  <tile gid="272"/>
  <tile gid="458"/>
  <tile gid="459"/>
  <tile gid="165"/>
  <tile gid="272"/>
  <tile gid="697"/>
  <tile gid="667"/>
  <tile gid="67"/>
  <tile gid="420"/>
  <tile gid="603"/>
  <tile gid="166"/>
  <tile gid="193"/>
  <tile gid="193"/>
  <tile gid="420"/>
  <tile gid="500"/>
  <tile gid="570"/>
  <tile gid="570"/>
  <tile gid="570"/>
  <tile gid="499"/>
  <tile gid="420"/>
  <tile gid="193"/>
  <tile gid="361"/>
  <tile gid="362"/>
  <tile gid="459"/>
  <tile gid="193"/>
  <tile gid="603"/>
  <tile gid="272"/>
  <tile gid="193"/>
  <tile gid="420"/>
  <tile gid="502"/>
  <tile gid="193"/>
  <tile gid="193"/>
  <tile gid="193"/>
  <tile gid="193"/>
  <tile gid="500"/>
  <tile gid="564"/>
  <tile gid="584"/>
  <tile gid="667"/>
  <tile gid="616"/>
  <tile gid="563"/>
  <tile gid="499"/>
  <tile gid="193"/>
  <tile gid="361"/>
  <tile gid="458"/>
  <tile gid="459"/>
  <tile gid="584"/>
  <tile gid="420"/>
  <tile gid="603"/>
  <tile gid="582"/>
  <tile gid="583"/>
  <tile gid="404"/>
  <tile gid="193"/>
  <tile gid="584"/>
  <tile gid="193"/>
  <tile gid="193"/>
  <tile gid="406"/>
  <tile gid="420"/>
  <tile gid="666"/>
  <tile gid="893"/>
  <tile gid="668"/>
  <tile gid="420"/>
  <tile gid="405"/>
  <tile gid="193"/>
  <tile gid="361"/>
  <tile gid="458"/>
  <tile gid="363"/>
  <tile gid="583"/>
  <tile gid="584"/>
  <tile gid="193"/>
  <tile gid="666"/>
  <tile gid="668"/>
  <tile gid="420"/>
  <tile gid="502"/>
  <tile gid="193"/>
  <tile gid="615"/>
  <tile gid="193"/>
  <tile gid="420"/>
  <tile gid="467"/>
  <tile gid="616"/>
  <tile gid="667"/>
  <tile gid="584"/>
  <tile gid="470"/>
  <tile gid="420"/>
  <tile gid="193"/>
  <tile gid="361"/>
  <tile gid="458"/>
  <tile gid="458"/>
  <tile gid="426"/>
  <tile gid="426"/>
  <tile gid="426"/>
  <tile gid="193"/>
  <tile gid="193"/>
  <tile gid="193"/>
  <tile gid="404"/>
  <tile gid="420"/>
  <tile gid="193"/>
  <tile gid="616"/>
  <tile gid="193"/>
  <tile gid="502"/>
  <tile gid="420"/>
  <tile gid="161"/>
  <tile gid="420"/>
  <tile gid="501"/>
  <tile gid="193"/>
  <tile gid="193"/>
  <tile gid="361"/>
  <tile gid="362"/>
  <tile gid="458"/>
  <tile gid="458"/>
  <tile gid="458"/>
  <tile gid="362"/>
  <tile gid="417"/>
  <tile gid="419"/>
  <tile gid="435"/>
  <tile gid="534"/>
  <tile gid="472"/>
  <tile gid="614"/>
  <tile gid="321"/>
  <tile gid="323"/>
  <tile gid="193"/>
  <tile gid="502"/>
  <tile gid="130"/>
  <tile gid="501"/>
  <tile gid="193"/>
  <tile gid="321"/>
  <tile gid="323"/>
  <tile gid="364"/>
  <tile gid="394"/>
  <tile gid="490"/>
  <tile gid="394"/>
  <tile gid="490"/>
  <tile gid="394"/>
  <tile gid="193"/>
  <tile gid="193"/>
  <tile gid="502"/>
  <tile gid="548"/>
  <tile gid="584"/>
  <tile gid="472"/>
  <tile gid="385"/>
  <tile gid="387"/>
  <tile gid="193"/>
  <tile gid="193"/>
  <tile gid="193"/>
  <tile gid="193"/>
  <tile gid="193"/>
  <tile gid="385"/>
  <tile gid="387"/>
  <tile gid="193"/>
  <tile gid="193"/>
  <tile gid="193"/>
  <tile gid="193"/>
  <tile gid="193"/>
  <tile gid="193"/>
  <tile gid="134"/>
  <tile gid="193"/>
  <tile gid="193"/>
  <tile gid="472"/>
  <tile gid="420"/>
  <tile gid="584"/>
  <tile gid="502"/>
  <tile gid="193"/>
  <tile gid="193"/>
  <tile gid="616"/>
  <tile gid="193"/>
  <tile gid="584"/>
  <tile gid="193"/>
  <tile gid="193"/>
  <tile gid="916"/>
  <tile gid="982"/>
  <tile gid="982"/>
  <tile gid="917"/>
  <tile gid="667"/>
  <tile gid="916"/>
  <tile gid="982"/>
  <tile gid="298"/>
  <tile gid="193"/>
  <tile gid="193"/>
  <tile gid="420"/>
  <tile gid="467"/>
  <tile gid="193"/>
  <tile gid="404"/>
  <tile gid="36"/>
  <tile gid="193"/>
  <tile gid="193"/>
  <tile gid="548"/>
  <tile gid="193"/>
  <tile gid="193"/>
  <tile gid="193"/>
  <tile gid="952"/>
  <tile gid="668"/>
  <tile gid="666"/>
  <tile gid="948"/>
  <tile gid="982"/>
  <tile gid="949"/>
  <tile gid="584"/>
  <tile gid="272"/>
  <tile gid="134"/>
  <tile gid="435"/>
  <tile gid="534"/>
  <tile gid="582"/>
  <tile gid="193"/>
  <tile gid="583"/>
  <tile gid="67"/>
  <tile gid="36"/>
  <tile gid="584"/>
  <tile gid="193"/>
  <tile gid="616"/>
  <tile gid="193"/>
  <tile gid="193"/>
  <tile gid="653"/>
  <tile gid="193"/>
  <tile gid="193"/>
  <tile gid="193"/>
  <tile gid="193"/>
  <tile gid="193"/>
  <tile gid="133"/>
  <tile gid="272"/>
  <tile gid="298"/>
  <tile gid="472"/>
  <tile gid="132"/>
  <tile gid="193"/>
  <tile gid="420"/>
  <tile gid="193"/>
  <tile gid="193"/>
  <tile gid="67"/>
  <tile gid="36"/>
  <tile gid="132"/>
  <tile gid="435"/>
  <tile gid="436"/>
  <tile gid="436"/>
  <tile gid="915"/>
  <tile gid="436"/>
  <tile gid="437"/>
  <tile gid="193"/>
  <tile gid="133"/>
  <tile gid="271"/>
  <tile gid="272"/>
  <tile gid="272"/>
  <tile gid="272"/>
  <tile gid="134"/>
  <tile gid="67"/>
  <tile gid="614"/>
  <tile gid="193"/>
  <tile gid="615"/>
  <tile gid="131"/>
  <tile gid="68"/>
  <tile gid="3"/>
  <tile gid="164"/>
  <tile gid="472"/>
  <tile gid="616"/>
  <tile gid="548"/>
  <tile gid="952"/>
  <tile gid="584"/>
  <tile gid="470"/>
  <tile gid="193"/>
  <tile gid="165"/>
  <tile gid="303"/>
  <tile gid="272"/>
  <tile gid="165"/>
  <tile gid="272"/>
  <tile gid="298"/>
  <tile gid="193"/>
  <tile gid="67"/>
  <tile gid="132"/>
  <tile gid="131"/>
  <tile gid="68"/>
  <tile gid="193"/>
  <tile gid="193"/>
  <tile gid="193"/>
  <tile gid="193"/>
  <tile gid="502"/>
  <tile gid="616"/>
  <tile gid="952"/>
  <tile gid="193"/>
  <tile gid="584"/>
  <tile gid="533"/>
  <tile gid="437"/>
  <tile gid="193"/>
  <tile gid="297"/>
  </data>
 </layer>
</map>
