<?xml version="1.0" encoding="UTF-8"?>
<map version="1.10" tiledversion="1.11.0" orientation="orthogonal" renderorder="right-down" width="19" height="19" tilewidth="16" tileheight="16" infinite="0" nextlayerid="2" nextobjectid="1">
 <tileset firstgid="1" name="01000201" tilewidth="16" tileheight="16" tilecount="1024" columns="32">
  <image source="01000201.png" trans="ffffff" width="512" height="512"/>
 </tileset>
 <layer id="1" name="Tile Layer 1" width="19" height="19">
  <properties>
   <property name="Anims1" value="0"/>
   <property name="Anims2" value="0"/>
   <property name="ChapterID" value="DuelingGrounds"/>
   <property name="Main" value=""/>
   <property name="MapChangesID" value="0"/>
   <property name="MapID" value="DuelingGroundsMapID"/>
   <property name="ObjectType" value="Village1OBJ"/>
   <property name="PaletteID" value="Village1PAL"/>
   <property name="TileConfig" value="GuildhallCONFIG"/>
  </properties>
  <data>
   <tile gid="1009"/>
   <tile gid="945"/>
   <tile gid="1009"/>
   <tile gid="679"/>
   <tile gid="780"/>
   <tile gid="618"/>
   <tile gid="618"/>
   <tile gid="619"/>
   <tile gid="619"/>
   <tile gid="619"/>
   <tile gid="619"/>
   <tile gid="619"/>
   <tile gid="620"/>
   <tile gid="620"/>
   <tile gid="780"/>
   <tile gid="679"/>
   <tile gid="1008"/>
   <tile gid="945"/>
   <tile gid="1009"/>
   <tile gid="945"/>
   <tile gid="1009"/>
   <tile gid="675"/>
   <tile gid="772"/>
   <tile gid="780"/>
   <tile gid="618"/>
   <tile gid="675"/>
   <tile gid="644"/>
   <tile gid="644"/>
   <tile gid="644"/>
   <tile gid="644"/>
   <tile gid="644"/>
   <tile gid="676"/>
   <tile gid="620"/>
   <tile gid="780"/>
   <tile gid="771"/>
   <tile gid="676"/>
   <tile gid="1008"/>
   <tile gid="945"/>
   <tile gid="644"/>
   <tile gid="644"/>
   <tile gid="772"/>
   <tile gid="620"/>
   <tile gid="780"/>
   <tile gid="675"/>
   <tile gid="772"/>
   <tile gid="976"/>
   <tile gid="913"/>
   <tile gid="977"/>
   <tile gid="913"/>
   <tile gid="977"/>
   <tile gid="771"/>
   <tile gid="676"/>
   <tile gid="780"/>
   <tile gid="618"/>
   <tile gid="771"/>
   <tile gid="644"/>
   <tile gid="644"/>
   <tile gid="619"/>
   <tile gid="619"/>
   <tile gid="620"/>
   <tile gid="620"/>
   <tile gid="780"/>
   <tile gid="679"/>
   <tile gid="976"/>
   <tile gid="945"/>
   <tile gid="1009"/>
   <tile gid="945"/>
   <tile gid="1009"/>
   <tile gid="945"/>
   <tile gid="977"/>
   <tile gid="679"/>
   <tile gid="780"/>
   <tile gid="618"/>
   <tile gid="618"/>
   <tile gid="619"/>
   <tile gid="619"/>
   <tile gid="619"/>
   <tile gid="619"/>
   <tile gid="620"/>
   <tile gid="620"/>
   <tile gid="716"/>
   <tile gid="679"/>
   <tile gid="944"/>
   <tile gid="1009"/>
   <tile gid="945"/>
   <tile gid="1009"/>
   <tile gid="945"/>
   <tile gid="1009"/>
   <tile gid="945"/>
   <tile gid="679"/>
   <tile gid="716"/>
   <tile gid="618"/>
   <tile gid="618"/>
   <tile gid="619"/>
   <tile gid="619"/>
   <tile gid="619"/>
   <tile gid="619"/>
   <tile gid="620"/>
   <tile gid="716"/>
   <tile gid="275"/>
   <tile gid="743"/>
   <tile gid="1008"/>
   <tile gid="945"/>
   <tile gid="1009"/>
   <tile gid="945"/>
   <tile gid="1009"/>
   <tile gid="945"/>
   <tile gid="1009"/>
   <tile gid="743"/>
   <tile gid="276"/>
   <tile gid="716"/>
   <tile gid="618"/>
   <tile gid="619"/>
   <tile gid="619"/>
   <tile gid="644"/>
   <tile gid="676"/>
   <tile gid="620"/>
   <tile gid="780"/>
   <tile gid="716"/>
   <tile gid="679"/>
   <tile gid="944"/>
   <tile gid="1009"/>
   <tile gid="945"/>
   <tile gid="1009"/>
   <tile gid="945"/>
   <tile gid="1009"/>
   <tile gid="945"/>
   <tile gid="679"/>
   <tile gid="716"/>
   <tile gid="780"/>
   <tile gid="618"/>
   <tile gid="675"/>
   <tile gid="644"/>
   <tile gid="910"/>
   <tile gid="679"/>
   <tile gid="620"/>
   <tile gid="780"/>
   <tile gid="780"/>
   <tile gid="679"/>
   <tile gid="1008"/>
   <tile gid="945"/>
   <tile gid="1009"/>
   <tile gid="945"/>
   <tile gid="1009"/>
   <tile gid="945"/>
   <tile gid="1009"/>
   <tile gid="679"/>
   <tile gid="780"/>
   <tile gid="780"/>
   <tile gid="618"/>
   <tile gid="679"/>
   <tile gid="909"/>
   <tile gid="942"/>
   <tile gid="771"/>
   <tile gid="644"/>
   <tile gid="676"/>
   <tile gid="780"/>
   <tile gid="771"/>
   <tile gid="676"/>
   <tile gid="1008"/>
   <tile gid="945"/>
   <tile gid="1009"/>
   <tile gid="945"/>
   <tile gid="1009"/>
   <tile gid="675"/>
   <tile gid="772"/>
   <tile gid="780"/>
   <tile gid="675"/>
   <tile gid="644"/>
   <tile gid="772"/>
   <tile gid="941"/>
   <tile gid="942"/>
   <tile gid="910"/>
   <tile gid="910"/>
   <tile gid="679"/>
   <tile gid="780"/>
   <tile gid="618"/>
   <tile gid="771"/>
   <tile gid="644"/>
   <tile gid="644"/>
   <tile gid="644"/>
   <tile gid="644"/>
   <tile gid="644"/>
   <tile gid="772"/>
   <tile gid="620"/>
   <tile gid="780"/>
   <tile gid="679"/>
   <tile gid="909"/>
   <tile gid="910"/>
   <tile gid="942"/>
   <tile gid="942"/>
   <tile gid="942"/>
   <tile gid="942"/>
   <tile gid="771"/>
   <tile gid="644"/>
   <tile gid="676"/>
   <tile gid="618"/>
   <tile gid="619"/>
   <tile gid="619"/>
   <tile gid="619"/>
   <tile gid="619"/>
   <tile gid="619"/>
   <tile gid="620"/>
   <tile gid="675"/>
   <tile gid="644"/>
   <tile gid="772"/>
   <tile gid="941"/>
   <tile gid="942"/>
   <tile gid="942"/>
   <tile gid="676"/>
   <tile gid="941"/>
   <tile gid="942"/>
   <tile gid="910"/>
   <tile gid="818"/>
   <tile gid="679"/>
   <tile gid="618"/>
   <tile gid="619"/>
   <tile gid="619"/>
   <tile gid="619"/>
   <tile gid="619"/>
   <tile gid="619"/>
   <tile gid="620"/>
   <tile gid="679"/>
   <tile gid="818"/>
   <tile gid="910"/>
   <tile gid="942"/>
   <tile gid="942"/>
   <tile gid="675"/>
   <tile gid="679"/>
   <tile gid="941"/>
   <tile gid="942"/>
   <tile gid="942"/>
   <tile gid="942"/>
   <tile gid="771"/>
   <tile gid="644"/>
   <tile gid="676"/>
   <tile gid="912"/>
   <tile gid="913"/>
   <tile gid="913"/>
   <tile gid="675"/>
   <tile gid="644"/>
   <tile gid="772"/>
   <tile gid="941"/>
   <tile gid="942"/>
   <tile gid="942"/>
   <tile gid="942"/>
   <tile gid="679"/>
   <tile gid="643"/>
   <tile gid="644"/>
   <tile gid="676"/>
   <tile gid="941"/>
   <tile gid="942"/>
   <tile gid="910"/>
   <tile gid="910"/>
   <tile gid="679"/>
   <tile gid="944"/>
   <tile gid="1009"/>
   <tile gid="945"/>
   <tile gid="679"/>
   <tile gid="909"/>
   <tile gid="910"/>
   <tile gid="942"/>
   <tile gid="942"/>
   <tile gid="675"/>
   <tile gid="644"/>
   <tile gid="770"/>
   <tile gid="586"/>
   <tile gid="587"/>
   <tile gid="679"/>
   <tile gid="941"/>
   <tile gid="942"/>
   <tile gid="942"/>
   <tile gid="942"/>
   <tile gid="771"/>
   <tile gid="644"/>
   <tile gid="644"/>
   <tile gid="644"/>
   <tile gid="772"/>
   <tile gid="941"/>
   <tile gid="942"/>
   <tile gid="942"/>
   <tile gid="942"/>
   <tile gid="679"/>
   <tile gid="587"/>
   <tile gid="588"/>
   <tile gid="586"/>
   <tile gid="587"/>
   <tile gid="643"/>
   <tile gid="644"/>
   <tile gid="676"/>
   <tile gid="941"/>
   <tile gid="942"/>
   <tile gid="910"/>
   <tile gid="910"/>
   <tile gid="910"/>
   <tile gid="910"/>
   <tile gid="910"/>
   <tile gid="942"/>
   <tile gid="942"/>
   <tile gid="675"/>
   <tile gid="644"/>
   <tile gid="770"/>
   <tile gid="587"/>
   <tile gid="588"/>
   <tile gid="586"/>
   <tile gid="587"/>
   <tile gid="586"/>
   <tile gid="587"/>
   <tile gid="679"/>
   <tile gid="941"/>
   <tile gid="942"/>
   <tile gid="942"/>
   <tile gid="942"/>
   <tile gid="942"/>
   <tile gid="942"/>
   <tile gid="942"/>
   <tile gid="942"/>
   <tile gid="942"/>
   <tile gid="679"/>
   <tile gid="587"/>
   <tile gid="588"/>
   <tile gid="587"/>
   <tile gid="588"/>
   <tile gid="586"/>
   <tile gid="587"/>
   <tile gid="586"/>
   <tile gid="587"/>
   <tile gid="643"/>
   <tile gid="644"/>
   <tile gid="676"/>
   <tile gid="277"/>
   <tile gid="278"/>
   <tile gid="278"/>
   <tile gid="278"/>
   <tile gid="279"/>
   <tile gid="675"/>
   <tile gid="644"/>
   <tile gid="770"/>
   <tile gid="587"/>
   <tile gid="588"/>
   <tile gid="587"/>
   <tile gid="588"/>
   <tile gid="586"/>
   <tile gid="587"/>
   <tile gid="586"/>
   <tile gid="587"/>
   <tile gid="586"/>
   <tile gid="587"/>
   <tile gid="741"/>
   <tile gid="277"/>
   <tile gid="278"/>
   <tile gid="278"/>
   <tile gid="278"/>
   <tile gid="279"/>
   <tile gid="741"/>
   <tile gid="587"/>
   <tile gid="588"/>
   <tile gid="587"/>
   <tile gid="588"/>
   <tile gid="587"/>
   <tile gid="588"/>
  </data>
 </layer>
</map>
