<?xml version="1.0" encoding="UTF-8"?>
<map version="1.10" tiledversion="1.11.0" orientation="orthogonal" renderorder="right-down" width="15" height="10" tilewidth="16" tileheight="16" infinite="0" nextlayerid="2" nextobjectid="1">
 <tileset firstgid="1" name="01000201" tilewidth="16" tileheight="16" tilecount="1024" columns="32">
  <image source="01000201.png" trans="ffffff" width="512" height="512"/>
 </tileset>
 <layer id="1" name="Tile Layer 1" width="15" height="10">
  <properties>
   <property name="Anims1" value="0"/>
   <property name="Anims2" value="0"/>
   <property name="ChapterID" value="EmeraldGrove"/>
   <property name="Main" value=""/>
   <property name="MapChangesID" value="0"/>
   <property name="MapID" value="EmeraldGroveMapID"/>
   <property name="ObjectType" value="Village1OBJ"/>
   <property name="PaletteID" value="Village1PAL"/>
   <property name="TileConfig" value="GuildhallCONFIG"/>
  </properties>
  <data>
   <tile gid="272"/>
   <tile gid="272"/>
   <tile gid="134"/>
   <tile gid="503"/>
   <tile gid="513"/>
   <tile gid="386"/>
   <tile gid="514"/>
   <tile gid="514"/>
   <tile gid="514"/>
   <tile gid="354"/>
   <tile gid="354"/>
   <tile gid="482"/>
   <tile gid="354"/>
   <tile gid="354"/>
   <tile gid="354"/>
   <tile gid="272"/>
   <tile gid="272"/>
   <tile gid="272"/>
   <tile gid="140"/>
   <tile gid="503"/>
   <tile gid="435"/>
   <tile gid="436"/>
   <tile gid="436"/>
   <tile gid="437"/>
   <tile gid="513"/>
   <tile gid="386"/>
   <tile gid="354"/>
   <tile gid="354"/>
   <tile gid="482"/>
   <tile gid="354"/>
   <tile gid="272"/>
   <tile gid="272"/>
   <tile gid="272"/>
   <tile gid="200"/>
   <tile gid="194"/>
   <tile gid="321"/>
   <tile gid="322"/>
   <tile gid="322"/>
   <tile gid="323"/>
   <tile gid="533"/>
   <tile gid="437"/>
   <tile gid="481"/>
   <tile gid="354"/>
   <tile gid="482"/>
   <tile gid="354"/>
   <tile gid="303"/>
   <tile gid="272"/>
   <tile gid="303"/>
   <tile gid="166"/>
   <tile gid="321"/>
   <tile gid="354"/>
   <tile gid="354"/>
   <tile gid="482"/>
   <tile gid="354"/>
   <tile gid="451"/>
   <tile gid="4"/>
   <tile gid="385"/>
   <tile gid="386"/>
   <tile gid="514"/>
   <tile gid="354"/>
   <tile gid="472"/>
   <tile gid="173"/>
   <tile gid="321"/>
   <tile gid="322"/>
   <tile gid="354"/>
   <tile gid="482"/>
   <tile gid="354"/>
   <tile gid="354"/>
   <tile gid="354"/>
   <tile gid="483"/>
   <tile gid="893"/>
   <tile gid="533"/>
   <tile gid="436"/>
   <tile gid="437"/>
   <tile gid="353"/>
   <tile gid="323"/>
   <tile gid="502"/>
   <tile gid="353"/>
   <tile gid="482"/>
   <tile gid="354"/>
   <tile gid="354"/>
   <tile gid="354"/>
   <tile gid="482"/>
   <tile gid="482"/>
   <tile gid="354"/>
   <tile gid="323"/>
   <tile gid="450"/>
   <tile gid="450"/>
   <tile gid="322"/>
   <tile gid="354"/>
   <tile gid="355"/>
   <tile gid="404"/>
   <tile gid="385"/>
   <tile gid="354"/>
   <tile gid="354"/>
   <tile gid="482"/>
   <tile gid="354"/>
   <tile gid="354"/>
   <tile gid="354"/>
   <tile gid="482"/>
   <tile gid="354"/>
   <tile gid="514"/>
   <tile gid="386"/>
   <tile gid="354"/>
   <tile gid="482"/>
   <tile gid="354"/>
   <tile gid="547"/>
   <tile gid="469"/>
   <tile gid="353"/>
   <tile gid="354"/>
   <tile gid="354"/>
   <tile gid="482"/>
   <tile gid="482"/>
   <tile gid="354"/>
   <tile gid="482"/>
   <tile gid="613"/>
   <tile gid="501"/>
   <tile gid="474"/>
   <tile gid="385"/>
   <tile gid="354"/>
   <tile gid="354"/>
   <tile gid="386"/>
   <tile gid="322"/>
   <tile gid="385"/>
   <tile gid="482"/>
   <tile gid="354"/>
   <tile gid="354"/>
   <tile gid="354"/>
   <tile gid="354"/>
   <tile gid="355"/>
   <tile gid="473"/>
   <tile gid="321"/>
   <tile gid="323"/>
   <tile gid="467"/>
   <tile gid="353"/>
   <tile gid="483"/>
   <tile gid="502"/>
   <tile gid="353"/>
   <tile gid="354"/>
   <tile gid="354"/>
   <tile gid="354"/>
   <tile gid="482"/>
   <tile gid="354"/>
   <tile gid="354"/>
   <tile gid="354"/>
   <tile gid="321"/>
   <tile gid="354"/>
   <tile gid="354"/>
   <tile gid="322"/>
   <tile gid="354"/>
  </data>
 </layer>
</map>
