<?xml version="1.0" encoding="UTF-8"?>
<map version="1.10" tiledversion="1.11.0" orientation="orthogonal" renderorder="right-down" width="15" height="10" tilewidth="16" tileheight="16" infinite="0" nextlayerid="2" nextobjectid="1">
 <tileset firstgid="1" name="08000905" tilewidth="16" tileheight="16" tilecount="1024" columns="32">
  <image source="08000905.png" trans="ffffff" width="512" height="512"/>
 </tileset>
 <layer id="1" name="Tile Layer 1" width="15" height="10">
  <properties>
   <property name="Anims1" value="0"/>
   <property name="Anims2" value="0"/>
   <property name="ChapterID" value="Gamerspace"/>
   <property name="Main" value=""/>
   <property name="MapChangesID" value="0"/>
   <property name="MapID" value="GamerspaceMapID"/>
   <property name="ObjectType" value="Tavern1OBJ"/>
   <property name="PaletteID" value="Tavern1PAL"/>
   <property name="TileConfig" value="TavernCONFIG"/>
  </properties>
  <data>
   <tile gid="2"/>
   <tile gid="2"/>
   <tile gid="2"/>
   <tile gid="2"/>
   <tile gid="2"/>
   <tile gid="2"/>
   <tile gid="2"/>
   <tile gid="2"/>
   <tile gid="2"/>
   <tile gid="2"/>
   <tile gid="2"/>
   <tile gid="2"/>
   <tile gid="2"/>
   <tile gid="2"/>
   <tile gid="2"/>
   <tile gid="2"/>
   <tile gid="2"/>
   <tile gid="2"/>
   <tile gid="2"/>
   <tile gid="2"/>
   <tile gid="2"/>
   <tile gid="2"/>
   <tile gid="39"/>
   <tile gid="2"/>
   <tile gid="2"/>
   <tile gid="2"/>
   <tile gid="2"/>
   <tile gid="2"/>
   <tile gid="2"/>
   <tile gid="2"/>
   <tile gid="2"/>
   <tile gid="2"/>
   <tile gid="2"/>
   <tile gid="321"/>
   <tile gid="322"/>
   <tile gid="323"/>
   <tile gid="324"/>
   <tile gid="358"/>
   <tile gid="321"/>
   <tile gid="322"/>
   <tile gid="323"/>
   <tile gid="324"/>
   <tile gid="2"/>
   <tile gid="2"/>
   <tile gid="2"/>
   <tile gid="2"/>
   <tile gid="2"/>
   <tile gid="2"/>
   <tile gid="353"/>
   <tile gid="386"/>
   <tile gid="386"/>
   <tile gid="356"/>
   <tile gid="354"/>
   <tile gid="353"/>
   <tile gid="386"/>
   <tile gid="386"/>
   <tile gid="356"/>
   <tile gid="2"/>
   <tile gid="2"/>
   <tile gid="2"/>
   <tile gid="2"/>
   <tile gid="2"/>
   <tile gid="2"/>
   <tile gid="353"/>
   <tile gid="260"/>
   <tile gid="261"/>
   <tile gid="388"/>
   <tile gid="354"/>
   <tile gid="385"/>
   <tile gid="260"/>
   <tile gid="261"/>
   <tile gid="356"/>
   <tile gid="2"/>
   <tile gid="2"/>
   <tile gid="2"/>
   <tile gid="2"/>
   <tile gid="2"/>
   <tile gid="2"/>
   <tile gid="353"/>
   <tile gid="292"/>
   <tile gid="293"/>
   <tile gid="356"/>
   <tile gid="354"/>
   <tile gid="353"/>
   <tile gid="292"/>
   <tile gid="293"/>
   <tile gid="356"/>
   <tile gid="2"/>
   <tile gid="2"/>
   <tile gid="2"/>
   <tile gid="2"/>
   <tile gid="2"/>
   <tile gid="2"/>
   <tile gid="353"/>
   <tile gid="386"/>
   <tile gid="386"/>
   <tile gid="388"/>
   <tile gid="354"/>
   <tile gid="385"/>
   <tile gid="386"/>
   <tile gid="386"/>
   <tile gid="356"/>
   <tile gid="2"/>
   <tile gid="2"/>
   <tile gid="2"/>
   <tile gid="2"/>
   <tile gid="2"/>
   <tile gid="2"/>
   <tile gid="417"/>
   <tile gid="418"/>
   <tile gid="419"/>
   <tile gid="420"/>
   <tile gid="354"/>
   <tile gid="417"/>
   <tile gid="418"/>
   <tile gid="419"/>
   <tile gid="420"/>
   <tile gid="2"/>
   <tile gid="2"/>
   <tile gid="2"/>
   <tile gid="2"/>
   <tile gid="2"/>
   <tile gid="2"/>
   <tile gid="2"/>
   <tile gid="2"/>
   <tile gid="2"/>
   <tile gid="360"/>
   <tile gid="360"/>
   <tile gid="360"/>
   <tile gid="2"/>
   <tile gid="2"/>
   <tile gid="2"/>
   <tile gid="2"/>
   <tile gid="2"/>
   <tile gid="2"/>
   <tile gid="2"/>
   <tile gid="2"/>
   <tile gid="2"/>
   <tile gid="2"/>
   <tile gid="2"/>
   <tile gid="2"/>
   <tile gid="360"/>
   <tile gid="360"/>
   <tile gid="360"/>
   <tile gid="2"/>
   <tile gid="2"/>
   <tile gid="2"/>
   <tile gid="2"/>
   <tile gid="2"/>
   <tile gid="2"/>
  </data>
 </layer>
</map>
