<?xml version="1.0" encoding="UTF-8"?>
<map version="1.10" tiledversion="1.11.0" orientation="orthogonal" renderorder="right-down" width="18" height="10" tilewidth="16" tileheight="16" infinite="0" nextlayerid="2" nextobjectid="1">
 <tileset firstgid="1" name="09000A06" tilewidth="16" tileheight="16" tilecount="1024" columns="32">
  <image source="09000A06.png" trans="ffffff" width="512" height="512"/>
 </tileset>
 <layer id="1" name="Tile Layer 1" width="18" height="10">
  <properties>
   <property name="Anims1" value="0"/>
   <property name="Anims2" value="0"/>
   <property name="ChapterID" value="ImperialPost"/>
   <property name="Main" value=""/>
   <property name="MapChangesID" value="0"/>
   <property name="MapID" value="ImperialPostMapID"/>
   <property name="ObjectType" value="Metropolis1OBJ"/>
   <property name="PaletteID" value="Metropolis1PAL"/>
   <property name="TileConfig" value="MetropolisCONFIG"/>
  </properties>
  <data>
   <tile gid="430"/>
   <tile gid="923"/>
   <tile gid="925"/>
   <tile gid="495"/>
   <tile gid="496"/>
   <tile gid="923"/>
   <tile gid="1021"/>
   <tile gid="144"/>
   <tile gid="231"/>
   <tile gid="232"/>
   <tile gid="94"/>
   <tile gid="213"/>
   <tile gid="213"/>
   <tile gid="213"/>
   <tile gid="25"/>
   <tile gid="199"/>
   <tile gid="274"/>
   <tile gid="200"/>
   <tile gid="462"/>
   <tile gid="923"/>
   <tile gid="925"/>
   <tile gid="722"/>
   <tile gid="754"/>
   <tile gid="923"/>
   <tile gid="1021"/>
   <tile gid="1021"/>
   <tile gid="112"/>
   <tile gid="37"/>
   <tile gid="24"/>
   <tile gid="213"/>
   <tile gid="213"/>
   <tile gid="23"/>
   <tile gid="199"/>
   <tile gid="434"/>
   <tile gid="402"/>
   <tile gid="306"/>
   <tile gid="462"/>
   <tile gid="923"/>
   <tile gid="1021"/>
   <tile gid="892"/>
   <tile gid="892"/>
   <tile gid="1021"/>
   <tile gid="1021"/>
   <tile gid="1021"/>
   <tile gid="144"/>
   <tile gid="68"/>
   <tile gid="37"/>
   <tile gid="94"/>
   <tile gid="93"/>
   <tile gid="6"/>
   <tile gid="231"/>
   <tile gid="306"/>
   <tile gid="232"/>
   <tile gid="129"/>
   <tile gid="462"/>
   <tile gid="923"/>
   <tile gid="1021"/>
   <tile gid="1021"/>
   <tile gid="1021"/>
   <tile gid="228"/>
   <tile gid="230"/>
   <tile gid="1021"/>
   <tile gid="144"/>
   <tile gid="117"/>
   <tile gid="54"/>
   <tile gid="213"/>
   <tile gid="23"/>
   <tile gid="6"/>
   <tile gid="427"/>
   <tile gid="485"/>
   <tile gid="485"/>
   <tile gid="485"/>
   <tile gid="226"/>
   <tile gid="924"/>
   <tile gid="1021"/>
   <tile gid="1021"/>
   <tile gid="105"/>
   <tile gid="1021"/>
   <tile gid="1021"/>
   <tile gid="105"/>
   <tile gid="924"/>
   <tile gid="49"/>
   <tile gid="50"/>
   <tile gid="51"/>
   <tile gid="6"/>
   <tile gid="107"/>
   <tile gid="459"/>
   <tile gid="917"/>
   <tile gid="917"/>
   <tile gid="917"/>
   <tile gid="258"/>
   <tile gid="924"/>
   <tile gid="1021"/>
   <tile gid="1021"/>
   <tile gid="137"/>
   <tile gid="1021"/>
   <tile gid="1021"/>
   <tile gid="137"/>
   <tile gid="144"/>
   <tile gid="94"/>
   <tile gid="213"/>
   <tile gid="93"/>
   <tile gid="38"/>
   <tile gid="139"/>
   <tile gid="459"/>
   <tile gid="917"/>
   <tile gid="917"/>
   <tile gid="917"/>
   <tile gid="462"/>
   <tile gid="923"/>
   <tile gid="1021"/>
   <tile gid="1021"/>
   <tile gid="169"/>
   <tile gid="1021"/>
   <tile gid="1021"/>
   <tile gid="169"/>
   <tile gid="924"/>
   <tile gid="49"/>
   <tile gid="50"/>
   <tile gid="51"/>
   <tile gid="70"/>
   <tile gid="171"/>
   <tile gid="523"/>
   <tile gid="754"/>
   <tile gid="825"/>
   <tile gid="722"/>
   <tile gid="462"/>
   <tile gid="923"/>
   <tile gid="1021"/>
   <tile gid="1021"/>
   <tile gid="1021"/>
   <tile gid="228"/>
   <tile gid="230"/>
   <tile gid="1021"/>
   <tile gid="176"/>
   <tile gid="94"/>
   <tile gid="213"/>
   <tile gid="213"/>
   <tile gid="55"/>
   <tile gid="68"/>
   <tile gid="171"/>
   <tile gid="917"/>
   <tile gid="917"/>
   <tile gid="917"/>
   <tile gid="462"/>
   <tile gid="955"/>
   <tile gid="956"/>
   <tile gid="956"/>
   <tile gid="1021"/>
   <tile gid="1021"/>
   <tile gid="1021"/>
   <tile gid="144"/>
   <tile gid="37"/>
   <tile gid="24"/>
   <tile gid="213"/>
   <tile gid="213"/>
   <tile gid="213"/>
   <tile gid="53"/>
   <tile gid="119"/>
   <tile gid="171"/>
   <tile gid="172"/>
   <tile gid="172"/>
   <tile gid="495"/>
   <tile gid="432"/>
   <tile gid="432"/>
   <tile gid="430"/>
   <tile gid="923"/>
   <tile gid="1021"/>
   <tile gid="1021"/>
   <tile gid="144"/>
   <tile gid="199"/>
   <tile gid="200"/>
   <tile gid="26"/>
   <tile gid="213"/>
   <tile gid="213"/>
   <tile gid="213"/>
   <tile gid="93"/>
   <tile gid="228"/>
   <tile gid="229"/>
   <tile gid="230"/>
  </data>
 </layer>
</map>
