<?xml version="1.0" encoding="UTF-8"?>
<map version="1.0" orientation="orthogonal" width="15" height="13" tilewidth="16" tileheight="16">
 <tileset firstgid="1" name="0A000B06" tilewidth="16" tileheight="16">
  <image source="0A000B06.png" trans="ffffff"/>
 </tileset>
 <layer name="Tile Layer 1" width="15" height="13">
  <properties>
   <property name="Anims1" value="0"/>
   <property name="Anims2" value="0"/>
   <property name="ChapterID" value="MinisterPark"/>
   <property name="Main" value=""/>
   <property name="MapChangesID" value="0"/>
   <property name="MapID" value="MinisterParkMapID"/>
   <property name="ObjectType" value="Metropolis1OBJ"/>
   <property name="PaletteID" value="Metropolis1PAL"/>
   <property name="TileConfig" value="MetropolisCONFIG"/>
  </properties>
  <data>
  <tile gid="987"/>
  <tile gid="987"/>
  <tile gid="987"/>
  <tile gid="987"/>
  <tile gid="987"/>
  <tile gid="987"/>
  <tile gid="987"/>
  <tile gid="195"/>
  <tile gid="987"/>
  <tile gid="176"/>
  <tile gid="37"/>
  <tile gid="199"/>
  <tile gid="402"/>
  <tile gid="402"/>
  <tile gid="306"/>
  <tile gid="987"/>
  <tile gid="987"/>
  <tile gid="987"/>
  <tile gid="987"/>
  <tile gid="987"/>
  <tile gid="987"/>
  <tile gid="987"/>
  <tile gid="987"/>
  <tile gid="144"/>
  <tile gid="38"/>
  <tile gid="205"/>
  <tile gid="402"/>
  <tile gid="402"/>
  <tile gid="402"/>
  <tile gid="200"/>
  <tile gid="987"/>
  <tile gid="260"/>
  <tile gid="987"/>
  <tile gid="987"/>
  <tile gid="987"/>
  <tile gid="987"/>
  <tile gid="987"/>
  <tile gid="987"/>
  <tile gid="176"/>
  <tile gid="70"/>
  <tile gid="265"/>
  <tile gid="402"/>
  <tile gid="402"/>
  <tile gid="402"/>
  <tile gid="402"/>
  <tile gid="481"/>
  <tile gid="820"/>
  <tile gid="932"/>
  <tile gid="933"/>
  <tile gid="934"/>
  <tile gid="175"/>
  <tile gid="175"/>
  <tile gid="176"/>
  <tile gid="37"/>
  <tile gid="37"/>
  <tile gid="231"/>
  <tile gid="402"/>
  <tile gid="232"/>
  <tile gid="231"/>
  <tile gid="402"/>
  <tile gid="513"/>
  <tile gid="166"/>
  <tile gid="996"/>
  <tile gid="997"/>
  <tile gid="998"/>
  <tile gid="165"/>
  <tile gid="70"/>
  <tile gid="38"/>
  <tile gid="69"/>
  <tile gid="69"/>
  <tile gid="205"/>
  <tile gid="402"/>
  <tile gid="200"/>
  <tile gid="199"/>
  <tile gid="402"/>
  <tile gid="37"/>
  <tile gid="69"/>
  <tile gid="744"/>
  <tile gid="35"/>
  <tile gid="745"/>
  <tile gid="166"/>
  <tile gid="69"/>
  <tile gid="70"/>
  <tile gid="38"/>
  <tile gid="38"/>
  <tile gid="237"/>
  <tile gid="402"/>
  <tile gid="402"/>
  <tile gid="402"/>
  <tile gid="232"/>
  <tile gid="37"/>
  <tile gid="37"/>
  <tile gid="37"/>
  <tile gid="38"/>
  <tile gid="69"/>
  <tile gid="37"/>
  <tile gid="228"/>
  <tile gid="229"/>
  <tile gid="230"/>
  <tile gid="70"/>
  <tile gid="37"/>
  <tile gid="231"/>
  <tile gid="306"/>
  <tile gid="232"/>
  <tile gid="37"/>
  <tile gid="118"/>
  <tile gid="118"/>
  <tile gid="119"/>
  <tile gid="70"/>
  <tile gid="69"/>
  <tile gid="69"/>
  <tile gid="70"/>
  <tile gid="38"/>
  <tile gid="38"/>
  <tile gid="37"/>
  <tile gid="38"/>
  <tile gid="69"/>
  <tile gid="69"/>
  <tile gid="70"/>
  <tile gid="37"/>
  <tile gid="213"/>
  <tile gid="213"/>
  <tile gid="213"/>
  <tile gid="53"/>
  <tile gid="38"/>
  <tile gid="69"/>
  <tile gid="110"/>
  <tile gid="111"/>
  <tile gid="112"/>
  <tile gid="38"/>
  <tile gid="105"/>
  <tile gid="37"/>
  <tile gid="37"/>
  <tile gid="205"/>
  <tile gid="378"/>
  <tile gid="213"/>
  <tile gid="213"/>
  <tile gid="213"/>
  <tile gid="29"/>
  <tile gid="69"/>
  <tile gid="37"/>
  <tile gid="142"/>
  <tile gid="143"/>
  <tile gid="144"/>
  <tile gid="37"/>
  <tile gid="137"/>
  <tile gid="69"/>
  <tile gid="37"/>
  <tile gid="265"/>
  <tile gid="402"/>
  <tile gid="213"/>
  <tile gid="213"/>
  <tile gid="213"/>
  <tile gid="213"/>
  <tile gid="53"/>
  <tile gid="37"/>
  <tile gid="174"/>
  <tile gid="175"/>
  <tile gid="176"/>
  <tile gid="69"/>
  <tile gid="169"/>
  <tile gid="38"/>
  <tile gid="37"/>
  <tile gid="503"/>
  <tile gid="402"/>
  <tile gid="213"/>
  <tile gid="213"/>
  <tile gid="213"/>
  <tile gid="213"/>
  <tile gid="25"/>
  <tile gid="38"/>
  <tile gid="69"/>
  <tile gid="69"/>
  <tile gid="70"/>
  <tile gid="37"/>
  <tile gid="69"/>
  <tile gid="70"/>
  <tile gid="38"/>
  <tile gid="37"/>
  <tile gid="503"/>
  <tile gid="213"/>
  <tile gid="213"/>
  <tile gid="213"/>
  <tile gid="25"/>
  <tile gid="69"/>
  <tile gid="70"/>
  <tile gid="69"/>
  <tile gid="70"/>
  <tile gid="69"/>
  <tile gid="37"/>
  <tile gid="69"/>
  <tile gid="69"/>
  <tile gid="70"/>
  <tile gid="38"/>
  <tile gid="38"/>
  </data>
 </layer>
</map>
