<?xml version="1.0" encoding="UTF-8"?>
<map version="1.10" tiledversion="1.11.0" orientation="orthogonal" renderorder="right-down" width="15" height="18" tilewidth="16" tileheight="16" infinite="0" nextlayerid="2" nextobjectid="1">
 <tileset firstgid="1" name="01000204" tilewidth="16" tileheight="16" tilecount="1024" columns="32">
  <image source="01000204.png" trans="ffffff" width="512" height="512"/>
 </tileset>
 <layer id="1" name="Tile Layer 1" width="15" height="18">
  <properties>
   <property name="Anims1" value="0"/>
   <property name="Anims2" value="0"/>
   <property name="ChapterID" value="Museum"/>
   <property name="Main" value=""/>
   <property name="MapChangesID" value="0"/>
   <property name="MapID" value="MuseumMapID"/>
   <property name="ObjectType" value="Tavern1OBJ"/>
   <property name="PaletteID" value="Tavern1PAL"/>
   <property name="TileConfig" value="TavernCONFIG"/>
  </properties>
  <data>
   <tile gid="1"/>
   <tile gid="46"/>
   <tile gid="70"/>
   <tile gid="70"/>
   <tile gid="10"/>
   <tile gid="11"/>
   <tile gid="272"/>
   <tile gid="129"/>
   <tile gid="260"/>
   <tile gid="261"/>
   <tile gid="162"/>
   <tile gid="6"/>
   <tile gid="2"/>
   <tile gid="1"/>
   <tile gid="2"/>
   <tile gid="1"/>
   <tile gid="6"/>
   <tile gid="196"/>
   <tile gid="197"/>
   <tile gid="42"/>
   <tile gid="43"/>
   <tile gid="304"/>
   <tile gid="129"/>
   <tile gid="292"/>
   <tile gid="293"/>
   <tile gid="6"/>
   <tile gid="47"/>
   <tile gid="2"/>
   <tile gid="1"/>
   <tile gid="2"/>
   <tile gid="1"/>
   <tile gid="38"/>
   <tile gid="228"/>
   <tile gid="229"/>
   <tile gid="129"/>
   <tile gid="129"/>
   <tile gid="129"/>
   <tile gid="129"/>
   <tile gid="129"/>
   <tile gid="6"/>
   <tile gid="47"/>
   <tile gid="2"/>
   <tile gid="2"/>
   <tile gid="1"/>
   <tile gid="2"/>
   <tile gid="1"/>
   <tile gid="75"/>
   <tile gid="129"/>
   <tile gid="129"/>
   <tile gid="129"/>
   <tile gid="129"/>
   <tile gid="194"/>
   <tile gid="195"/>
   <tile gid="129"/>
   <tile gid="5"/>
   <tile gid="70"/>
   <tile gid="272"/>
   <tile gid="9"/>
   <tile gid="10"/>
   <tile gid="11"/>
   <tile gid="1"/>
   <tile gid="107"/>
   <tile gid="129"/>
   <tile gid="129"/>
   <tile gid="129"/>
   <tile gid="129"/>
   <tile gid="226"/>
   <tile gid="227"/>
   <tile gid="129"/>
   <tile gid="37"/>
   <tile gid="129"/>
   <tile gid="304"/>
   <tile gid="41"/>
   <tile gid="42"/>
   <tile gid="43"/>
   <tile gid="1"/>
   <tile gid="38"/>
   <tile gid="129"/>
   <tile gid="129"/>
   <tile gid="267"/>
   <tile gid="129"/>
   <tile gid="129"/>
   <tile gid="129"/>
   <tile gid="129"/>
   <tile gid="101"/>
   <tile gid="102"/>
   <tile gid="103"/>
   <tile gid="105"/>
   <tile gid="129"/>
   <tile gid="129"/>
   <tile gid="1"/>
   <tile gid="38"/>
   <tile gid="129"/>
   <tile gid="268"/>
   <tile gid="6"/>
   <tile gid="70"/>
   <tile gid="8"/>
   <tile gid="129"/>
   <tile gid="129"/>
   <tile gid="129"/>
   <tile gid="129"/>
   <tile gid="129"/>
   <tile gid="129"/>
   <tile gid="129"/>
   <tile gid="129"/>
   <tile gid="1"/>
   <tile gid="75"/>
   <tile gid="129"/>
   <tile gid="300"/>
   <tile gid="5"/>
   <tile gid="44"/>
   <tile gid="9"/>
   <tile gid="129"/>
   <tile gid="258"/>
   <tile gid="259"/>
   <tile gid="129"/>
   <tile gid="129"/>
   <tile gid="129"/>
   <tile gid="129"/>
   <tile gid="129"/>
   <tile gid="1"/>
   <tile gid="107"/>
   <tile gid="129"/>
   <tile gid="129"/>
   <tile gid="69"/>
   <tile gid="97"/>
   <tile gid="73"/>
   <tile gid="129"/>
   <tile gid="290"/>
   <tile gid="291"/>
   <tile gid="129"/>
   <tile gid="129"/>
   <tile gid="132"/>
   <tile gid="133"/>
   <tile gid="267"/>
   <tile gid="1"/>
   <tile gid="38"/>
   <tile gid="129"/>
   <tile gid="129"/>
   <tile gid="101"/>
   <tile gid="102"/>
   <tile gid="105"/>
   <tile gid="129"/>
   <tile gid="129"/>
   <tile gid="129"/>
   <tile gid="129"/>
   <tile gid="129"/>
   <tile gid="6"/>
   <tile gid="70"/>
   <tile gid="70"/>
   <tile gid="1"/>
   <tile gid="8"/>
   <tile gid="131"/>
   <tile gid="129"/>
   <tile gid="129"/>
   <tile gid="129"/>
   <tile gid="129"/>
   <tile gid="129"/>
   <tile gid="129"/>
   <tile gid="130"/>
   <tile gid="6"/>
   <tile gid="70"/>
   <tile gid="47"/>
   <tile gid="1"/>
   <tile gid="2"/>
   <tile gid="1"/>
   <tile gid="46"/>
   <tile gid="163"/>
   <tile gid="129"/>
   <tile gid="129"/>
   <tile gid="129"/>
   <tile gid="129"/>
   <tile gid="129"/>
   <tile gid="129"/>
   <tile gid="6"/>
   <tile gid="47"/>
   <tile gid="2"/>
   <tile gid="2"/>
   <tile gid="2"/>
   <tile gid="2"/>
   <tile gid="1"/>
   <tile gid="15"/>
   <tile gid="70"/>
   <tile gid="8"/>
   <tile gid="102"/>
   <tile gid="301"/>
   <tile gid="129"/>
   <tile gid="129"/>
   <tile gid="129"/>
   <tile gid="14"/>
   <tile gid="1"/>
   <tile gid="1"/>
   <tile gid="1"/>
   <tile gid="2"/>
   <tile gid="2"/>
   <tile gid="1"/>
   <tile gid="2"/>
   <tile gid="2"/>
   <tile gid="46"/>
   <tile gid="45"/>
   <tile gid="111"/>
   <tile gid="129"/>
   <tile gid="78"/>
   <tile gid="6"/>
   <tile gid="47"/>
   <tile gid="1"/>
   <tile gid="2"/>
   <tile gid="2"/>
   <tile gid="1"/>
   <tile gid="1"/>
   <tile gid="1"/>
   <tile gid="2"/>
   <tile gid="1"/>
   <tile gid="46"/>
   <tile gid="102"/>
   <tile gid="105"/>
   <tile gid="129"/>
   <tile gid="101"/>
   <tile gid="14"/>
   <tile gid="2"/>
   <tile gid="1"/>
   <tile gid="2"/>
   <tile gid="2"/>
   <tile gid="1"/>
   <tile gid="2"/>
   <tile gid="1"/>
   <tile gid="2"/>
   <tile gid="1"/>
   <tile gid="46"/>
   <tile gid="129"/>
   <tile gid="129"/>
   <tile gid="129"/>
   <tile gid="129"/>
   <tile gid="14"/>
   <tile gid="2"/>
   <tile gid="1"/>
   <tile gid="2"/>
   <tile gid="2"/>
   <tile gid="1"/>
   <tile gid="2"/>
   <tile gid="1"/>
   <tile gid="2"/>
   <tile gid="1"/>
   <tile gid="46"/>
   <tile gid="325"/>
   <tile gid="326"/>
   <tile gid="326"/>
   <tile gid="327"/>
   <tile gid="14"/>
   <tile gid="2"/>
   <tile gid="2"/>
   <tile gid="2"/>
   <tile gid="2"/>
   <tile gid="1"/>
   <tile gid="2"/>
   <tile gid="1"/>
   <tile gid="2"/>
   <tile gid="1"/>
   <tile gid="46"/>
   <tile gid="357"/>
   <tile gid="358"/>
   <tile gid="358"/>
   <tile gid="359"/>
   <tile gid="14"/>
   <tile gid="2"/>
   <tile gid="2"/>
   <tile gid="2"/>
   <tile gid="1"/>
   <tile gid="1"/>
   <tile gid="2"/>
  </data>
 </layer>
</map>
