<?xml version="1.0" encoding="UTF-8"?>
<map version="1.10" tiledversion="1.11.0" orientation="orthogonal" renderorder="right-down" width="18" height="20" tilewidth="16" tileheight="16" infinite="0" nextlayerid="2" nextobjectid="1">
 <tileset firstgid="1" name="01000201" tilewidth="16" tileheight="16" tilecount="1024" columns="32">
  <image source="01000201.png" trans="ffffff" width="512" height="512"/>
 </tileset>
 <layer id="1" name="Tile Layer 1" width="18" height="20">
  <properties>
   <property name="Anims1" value="0"/>
   <property name="Anims2" value="0"/>
   <property name="ChapterID" value="NorthernPass"/>
   <property name="Main" value=""/>
   <property name="MapChangesID" value="0"/>
   <property name="MapID" value="NorthernPassMapID"/>
   <property name="ObjectType" value="City1OBJ"/>
   <property name="PaletteID" value="City1PAL"/>
   <property name="TileConfig" value="CityCONFIG"/>
  </properties>
  <data>
   <tile gid="866"/>
   <tile gid="866"/>
   <tile gid="866"/>
   <tile gid="866"/>
   <tile gid="866"/>
   <tile gid="866"/>
   <tile gid="866"/>
   <tile gid="866"/>
   <tile gid="866"/>
   <tile gid="866"/>
   <tile gid="866"/>
   <tile gid="866"/>
   <tile gid="866"/>
   <tile gid="866"/>
   <tile gid="866"/>
   <tile gid="866"/>
   <tile gid="866"/>
   <tile gid="866"/>
   <tile gid="866"/>
   <tile gid="866"/>
   <tile gid="866"/>
   <tile gid="866"/>
   <tile gid="866"/>
   <tile gid="866"/>
   <tile gid="866"/>
   <tile gid="866"/>
   <tile gid="866"/>
   <tile gid="866"/>
   <tile gid="866"/>
   <tile gid="866"/>
   <tile gid="866"/>
   <tile gid="866"/>
   <tile gid="866"/>
   <tile gid="866"/>
   <tile gid="866"/>
   <tile gid="866"/>
   <tile gid="866"/>
   <tile gid="866"/>
   <tile gid="866"/>
   <tile gid="866"/>
   <tile gid="866"/>
   <tile gid="866"/>
   <tile gid="866"/>
   <tile gid="866"/>
   <tile gid="866"/>
   <tile gid="866"/>
   <tile gid="866"/>
   <tile gid="866"/>
   <tile gid="866"/>
   <tile gid="866"/>
   <tile gid="866"/>
   <tile gid="866"/>
   <tile gid="866"/>
   <tile gid="866"/>
   <tile gid="866"/>
   <tile gid="866"/>
   <tile gid="866"/>
   <tile gid="866"/>
   <tile gid="866"/>
   <tile gid="866"/>
   <tile gid="866"/>
   <tile gid="866"/>
   <tile gid="866"/>
   <tile gid="866"/>
   <tile gid="866"/>
   <tile gid="866"/>
   <tile gid="866"/>
   <tile gid="866"/>
   <tile gid="866"/>
   <tile gid="866"/>
   <tile gid="866"/>
   <tile gid="866"/>
   <tile gid="866"/>
   <tile gid="866"/>
   <tile gid="866"/>
   <tile gid="866"/>
   <tile gid="866"/>
   <tile gid="866"/>
   <tile gid="866"/>
   <tile gid="866"/>
   <tile gid="866"/>
   <tile gid="866"/>
   <tile gid="866"/>
   <tile gid="866"/>
   <tile gid="866"/>
   <tile gid="866"/>
   <tile gid="866"/>
   <tile gid="866"/>
   <tile gid="866"/>
   <tile gid="866"/>
   <tile gid="866"/>
   <tile gid="866"/>
   <tile gid="866"/>
   <tile gid="866"/>
   <tile gid="866"/>
   <tile gid="866"/>
   <tile gid="866"/>
   <tile gid="866"/>
   <tile gid="866"/>
   <tile gid="866"/>
   <tile gid="866"/>
   <tile gid="866"/>
   <tile gid="866"/>
   <tile gid="866"/>
   <tile gid="866"/>
   <tile gid="866"/>
   <tile gid="866"/>
   <tile gid="866"/>
   <tile gid="866"/>
   <tile gid="866"/>
   <tile gid="866"/>
   <tile gid="866"/>
   <tile gid="866"/>
   <tile gid="866"/>
   <tile gid="866"/>
   <tile gid="866"/>
   <tile gid="866"/>
   <tile gid="866"/>
   <tile gid="866"/>
   <tile gid="866"/>
   <tile gid="866"/>
   <tile gid="866"/>
   <tile gid="866"/>
   <tile gid="866"/>
   <tile gid="866"/>
   <tile gid="866"/>
   <tile gid="866"/>
   <tile gid="866"/>
   <tile gid="866"/>
   <tile gid="866"/>
   <tile gid="866"/>
   <tile gid="866"/>
   <tile gid="866"/>
   <tile gid="866"/>
   <tile gid="866"/>
   <tile gid="866"/>
   <tile gid="866"/>
   <tile gid="866"/>
   <tile gid="866"/>
   <tile gid="866"/>
   <tile gid="866"/>
   <tile gid="866"/>
   <tile gid="866"/>
   <tile gid="866"/>
   <tile gid="866"/>
   <tile gid="866"/>
   <tile gid="866"/>
   <tile gid="866"/>
   <tile gid="866"/>
   <tile gid="866"/>
   <tile gid="866"/>
   <tile gid="866"/>
   <tile gid="866"/>
   <tile gid="866"/>
   <tile gid="866"/>
   <tile gid="866"/>
   <tile gid="866"/>
   <tile gid="866"/>
   <tile gid="866"/>
   <tile gid="866"/>
   <tile gid="866"/>
   <tile gid="866"/>
   <tile gid="866"/>
   <tile gid="866"/>
   <tile gid="866"/>
   <tile gid="866"/>
   <tile gid="866"/>
   <tile gid="866"/>
   <tile gid="866"/>
   <tile gid="866"/>
   <tile gid="866"/>
   <tile gid="866"/>
   <tile gid="866"/>
   <tile gid="866"/>
   <tile gid="866"/>
   <tile gid="866"/>
   <tile gid="866"/>
   <tile gid="866"/>
   <tile gid="866"/>
   <tile gid="866"/>
   <tile gid="866"/>
   <tile gid="866"/>
   <tile gid="866"/>
   <tile gid="866"/>
   <tile gid="866"/>
   <tile gid="866"/>
   <tile gid="866"/>
   <tile gid="866"/>
   <tile gid="866"/>
   <tile gid="866"/>
   <tile gid="866"/>
   <tile gid="866"/>
   <tile gid="866"/>
   <tile gid="866"/>
   <tile gid="866"/>
   <tile gid="866"/>
   <tile gid="866"/>
   <tile gid="866"/>
   <tile gid="866"/>
   <tile gid="866"/>
   <tile gid="866"/>
   <tile gid="866"/>
   <tile gid="866"/>
   <tile gid="866"/>
   <tile gid="866"/>
   <tile gid="866"/>
   <tile gid="866"/>
   <tile gid="866"/>
   <tile gid="866"/>
   <tile gid="866"/>
   <tile gid="866"/>
   <tile gid="866"/>
   <tile gid="866"/>
   <tile gid="866"/>
   <tile gid="866"/>
   <tile gid="866"/>
   <tile gid="866"/>
   <tile gid="866"/>
   <tile gid="866"/>
   <tile gid="866"/>
   <tile gid="866"/>
   <tile gid="866"/>
   <tile gid="866"/>
   <tile gid="866"/>
   <tile gid="866"/>
   <tile gid="866"/>
   <tile gid="866"/>
   <tile gid="866"/>
   <tile gid="866"/>
   <tile gid="866"/>
   <tile gid="866"/>
   <tile gid="866"/>
   <tile gid="866"/>
   <tile gid="866"/>
   <tile gid="866"/>
   <tile gid="866"/>
   <tile gid="866"/>
   <tile gid="866"/>
   <tile gid="866"/>
   <tile gid="866"/>
   <tile gid="866"/>
   <tile gid="866"/>
   <tile gid="866"/>
   <tile gid="866"/>
   <tile gid="866"/>
   <tile gid="866"/>
   <tile gid="866"/>
   <tile gid="866"/>
   <tile gid="866"/>
   <tile gid="866"/>
   <tile gid="866"/>
   <tile gid="866"/>
   <tile gid="866"/>
   <tile gid="866"/>
   <tile gid="866"/>
   <tile gid="866"/>
   <tile gid="866"/>
   <tile gid="866"/>
   <tile gid="866"/>
   <tile gid="866"/>
   <tile gid="866"/>
   <tile gid="866"/>
   <tile gid="866"/>
   <tile gid="866"/>
   <tile gid="866"/>
   <tile gid="866"/>
   <tile gid="866"/>
   <tile gid="866"/>
   <tile gid="866"/>
   <tile gid="866"/>
   <tile gid="866"/>
   <tile gid="866"/>
   <tile gid="866"/>
   <tile gid="866"/>
   <tile gid="866"/>
   <tile gid="866"/>
   <tile gid="870"/>
   <tile gid="866"/>
   <tile gid="866"/>
   <tile gid="866"/>
   <tile gid="866"/>
   <tile gid="866"/>
   <tile gid="866"/>
   <tile gid="866"/>
   <tile gid="866"/>
   <tile gid="866"/>
   <tile gid="866"/>
   <tile gid="866"/>
   <tile gid="866"/>
   <tile gid="866"/>
   <tile gid="866"/>
   <tile gid="866"/>
   <tile gid="866"/>
   <tile gid="866"/>
   <tile gid="902"/>
   <tile gid="866"/>
   <tile gid="866"/>
   <tile gid="866"/>
   <tile gid="866"/>
   <tile gid="866"/>
   <tile gid="866"/>
   <tile gid="866"/>
   <tile gid="866"/>
   <tile gid="866"/>
   <tile gid="866"/>
   <tile gid="866"/>
   <tile gid="866"/>
   <tile gid="866"/>
   <tile gid="866"/>
   <tile gid="866"/>
   <tile gid="866"/>
   <tile gid="866"/>
   <tile gid="902"/>
   <tile gid="866"/>
   <tile gid="866"/>
   <tile gid="866"/>
   <tile gid="866"/>
   <tile gid="866"/>
   <tile gid="866"/>
   <tile gid="866"/>
   <tile gid="866"/>
   <tile gid="866"/>
   <tile gid="866"/>
   <tile gid="866"/>
   <tile gid="194"/>
   <tile gid="196"/>
   <tile gid="804"/>
   <tile gid="805"/>
   <tile gid="805"/>
   <tile gid="805"/>
   <tile gid="901"/>
   <tile gid="866"/>
   <tile gid="866"/>
   <tile gid="866"/>
   <tile gid="866"/>
   <tile gid="866"/>
   <tile gid="866"/>
   <tile gid="866"/>
   <tile gid="866"/>
   <tile gid="866"/>
   <tile gid="866"/>
   <tile gid="866"/>
   <tile gid="194"/>
   <tile gid="196"/>
   <tile gid="976"/>
   <tile gid="977"/>
   <tile gid="977"/>
   <tile gid="977"/>
   <tile gid="978"/>
   <tile gid="866"/>
   <tile gid="866"/>
   <tile gid="866"/>
   <tile gid="866"/>
   <tile gid="866"/>
   <tile gid="866"/>
   <tile gid="866"/>
   <tile gid="866"/>
   <tile gid="866"/>
   <tile gid="866"/>
   <tile gid="866"/>
  </data>
 </layer>
</map>
