<?xml version="1.0" encoding="UTF-8"?>
<map version="1.0" orientation="orthogonal" width="15" height="10" tilewidth="16" tileheight="16">
 <tileset firstgid="1" name="01000201" tilewidth="16" tileheight="16">
  <image source="01000201.png" trans="ffffff"/>
 </tileset>
 <layer name="Tile Layer 1" width="15" height="10">
  <properties>
   <property name="Anims1" value="0"/>
   <property name="Anims2" value="0"/>
   <property name="ChapterID" value="RiverHirsch"/>
   <property name="Main" value=""/>
   <property name="MapChangesID" value="0"/>
   <property name="MapID" value="RiverHirschMapID"/>
   <property name="ObjectType" value="Village1OBJ"/>
   <property name="PaletteID" value="Village1PAL"/>
   <property name="TileConfig" value="GuildhallCONFIG"/>
  </properties>
  <data>
  <tile gid="986"/>
  <tile gid="986"/>
  <tile gid="986"/>
  <tile gid="986"/>
  <tile gid="828"/>
  <tile gid="272"/>
  <tile gid="272"/>
  <tile gid="166"/>
  <tile gid="194"/>
  <tile gid="193"/>
  <tile gid="193"/>
  <tile gid="194"/>
  <tile gid="194"/>
  <tile gid="353"/>
  <tile gid="354"/>
  <tile gid="986"/>
  <tile gid="986"/>
  <tile gid="986"/>
  <tile gid="986"/>
  <tile gid="768"/>
  <tile gid="272"/>
  <tile gid="206"/>
  <tile gid="225"/>
  <tile gid="193"/>
  <tile gid="781"/>
  <tile gid="193"/>
  <tile gid="193"/>
  <tile gid="193"/>
  <tile gid="385"/>
  <tile gid="386"/>
  <tile gid="986"/>
  <tile gid="986"/>
  <tile gid="986"/>
  <tile gid="923"/>
  <tile gid="235"/>
  <tile gid="229"/>
  <tile gid="166"/>
  <tile gid="194"/>
  <tile gid="851"/>
  <tile gid="813"/>
  <tile gid="225"/>
  <tile gid="225"/>
  <tile gid="225"/>
  <tile gid="193"/>
  <tile gid="194"/>
  <tile gid="986"/>
  <tile gid="986"/>
  <tile gid="986"/>
  <tile gid="986"/>
  <tile gid="981"/>
  <tile gid="893"/>
  <tile gid="226"/>
  <tile gid="194"/>
  <tile gid="6"/>
  <tile gid="226"/>
  <tile gid="257"/>
  <tile gid="257"/>
  <tile gid="916"/>
  <tile gid="983"/>
  <tile gid="917"/>
  <tile gid="986"/>
  <tile gid="986"/>
  <tile gid="986"/>
  <tile gid="986"/>
  <tile gid="986"/>
  <tile gid="917"/>
  <tile gid="258"/>
  <tile gid="226"/>
  <tile gid="257"/>
  <tile gid="916"/>
  <tile gid="982"/>
  <tile gid="654"/>
  <tile gid="949"/>
  <tile gid="257"/>
  <tile gid="921"/>
  <tile gid="986"/>
  <tile gid="986"/>
  <tile gid="986"/>
  <tile gid="986"/>
  <tile gid="986"/>
  <tile gid="986"/>
  <tile gid="982"/>
  <tile gid="917"/>
  <tile gid="289"/>
  <tile gid="920"/>
  <tile gid="420"/>
  <tile gid="193"/>
  <tile gid="193"/>
  <tile gid="289"/>
  <tile gid="921"/>
  <tile gid="954"/>
  <tile gid="986"/>
  <tile gid="986"/>
  <tile gid="986"/>
  <tile gid="986"/>
  <tile gid="923"/>
  <tile gid="667"/>
  <tile gid="1012"/>
  <tile gid="654"/>
  <tile gid="1017"/>
  <tile gid="917"/>
  <tile gid="225"/>
  <tile gid="584"/>
  <tile gid="616"/>
  <tile gid="1012"/>
  <tile gid="1012"/>
  <tile gid="986"/>
  <tile gid="986"/>
  <tile gid="986"/>
  <tile gid="986"/>
  <tile gid="986"/>
  <tile gid="981"/>
  <tile gid="699"/>
  <tile gid="226"/>
  <tile gid="635"/>
  <tile gid="921"/>
  <tile gid="193"/>
  <tile gid="616"/>
  <tile gid="584"/>
  <tile gid="194"/>
  <tile gid="289"/>
  <tile gid="954"/>
  <tile gid="986"/>
  <tile gid="986"/>
  <tile gid="986"/>
  <tile gid="986"/>
  <tile gid="986"/>
  <tile gid="985"/>
  <tile gid="985"/>
  <tile gid="985"/>
  <tile gid="986"/>
  <tile gid="981"/>
  <tile gid="226"/>
  <tile gid="226"/>
  <tile gid="321"/>
  <tile gid="289"/>
  <tile gid="1012"/>
  <tile gid="986"/>
  <tile gid="986"/>
  <tile gid="986"/>
  <tile gid="986"/>
  <tile gid="986"/>
  <tile gid="986"/>
  <tile gid="986"/>
  <tile gid="986"/>
  <tile gid="986"/>
  <tile gid="986"/>
  <tile gid="985"/>
  <tile gid="981"/>
  <tile gid="353"/>
  </data>
 </layer>
</map>
