<?xml version="1.0" encoding="UTF-8"?>
<map version="1.10" tiledversion="1.11.0" orientation="orthogonal" renderorder="right-down" width="26" height="13" tilewidth="16" tileheight="16" infinite="0" nextlayerid="2" nextobjectid="1">
 <tileset firstgid="1" name="09000A06" tilewidth="16" tileheight="16" tilecount="1024" columns="32">
  <image source="09000A06.png" trans="ffffff" width="512" height="512"/>
 </tileset>
 <layer id="1" name="Tile Layer 1" width="26" height="13">
  <properties>
   <property name="Anims1" value="0"/>
   <property name="Anims2" value="0"/>
   <property name="ChapterID" value="ShadyRow"/>
   <property name="Main" value=""/>
   <property name="MapChangesID" value="0"/>
   <property name="MapID" value="ShadyRowMapID"/>
   <property name="ObjectType" value="Metropolis1OBJ"/>
   <property name="PaletteID" value="Metropolis1PAL"/>
   <property name="TileConfig" value="MetropolisCONFIG"/>
  </properties>
  <data>
   <tile gid="403"/>
   <tile gid="272"/>
   <tile gid="38"/>
   <tile gid="493"/>
   <tile gid="923"/>
   <tile gid="924"/>
   <tile gid="925"/>
   <tile gid="491"/>
   <tile gid="577"/>
   <tile gid="578"/>
   <tile gid="578"/>
   <tile gid="578"/>
   <tile gid="526"/>
   <tile gid="527"/>
   <tile gid="528"/>
   <tile gid="578"/>
   <tile gid="578"/>
   <tile gid="578"/>
   <tile gid="581"/>
   <tile gid="493"/>
   <tile gid="916"/>
   <tile gid="917"/>
   <tile gid="918"/>
   <tile gid="462"/>
   <tile gid="891"/>
   <tile gid="226"/>
   <tile gid="272"/>
   <tile gid="271"/>
   <tile gid="210"/>
   <tile gid="493"/>
   <tile gid="923"/>
   <tile gid="924"/>
   <tile gid="925"/>
   <tile gid="491"/>
   <tile gid="586"/>
   <tile gid="587"/>
   <tile gid="587"/>
   <tile gid="587"/>
   <tile gid="558"/>
   <tile gid="559"/>
   <tile gid="560"/>
   <tile gid="587"/>
   <tile gid="587"/>
   <tile gid="587"/>
   <tile gid="589"/>
   <tile gid="493"/>
   <tile gid="916"/>
   <tile gid="917"/>
   <tile gid="918"/>
   <tile gid="462"/>
   <tile gid="923"/>
   <tile gid="258"/>
   <tile gid="231"/>
   <tile gid="232"/>
   <tile gid="38"/>
   <tile gid="493"/>
   <tile gid="695"/>
   <tile gid="696"/>
   <tile gid="697"/>
   <tile gid="491"/>
   <tile gid="885"/>
   <tile gid="228"/>
   <tile gid="229"/>
   <tile gid="230"/>
   <tile gid="103"/>
   <tile gid="103"/>
   <tile gid="103"/>
   <tile gid="228"/>
   <tile gid="229"/>
   <tile gid="230"/>
   <tile gid="885"/>
   <tile gid="493"/>
   <tile gid="260"/>
   <tile gid="917"/>
   <tile gid="260"/>
   <tile gid="462"/>
   <tile gid="923"/>
   <tile gid="258"/>
   <tile gid="68"/>
   <tile gid="69"/>
   <tile gid="70"/>
   <tile gid="493"/>
   <tile gid="916"/>
   <tile gid="917"/>
   <tile gid="918"/>
   <tile gid="491"/>
   <tile gid="917"/>
   <tile gid="917"/>
   <tile gid="227"/>
   <tile gid="917"/>
   <tile gid="917"/>
   <tile gid="917"/>
   <tile gid="917"/>
   <tile gid="917"/>
   <tile gid="917"/>
   <tile gid="917"/>
   <tile gid="917"/>
   <tile gid="493"/>
   <tile gid="916"/>
   <tile gid="917"/>
   <tile gid="918"/>
   <tile gid="462"/>
   <tile gid="894"/>
   <tile gid="459"/>
   <tile gid="524"/>
   <tile gid="524"/>
   <tile gid="524"/>
   <tile gid="525"/>
   <tile gid="916"/>
   <tile gid="917"/>
   <tile gid="918"/>
   <tile gid="523"/>
   <tile gid="524"/>
   <tile gid="524"/>
   <tile gid="524"/>
   <tile gid="825"/>
   <tile gid="524"/>
   <tile gid="825"/>
   <tile gid="524"/>
   <tile gid="825"/>
   <tile gid="524"/>
   <tile gid="524"/>
   <tile gid="524"/>
   <tile gid="525"/>
   <tile gid="916"/>
   <tile gid="917"/>
   <tile gid="917"/>
   <tile gid="226"/>
   <tile gid="925"/>
   <tile gid="459"/>
   <tile gid="885"/>
   <tile gid="885"/>
   <tile gid="885"/>
   <tile gid="885"/>
   <tile gid="917"/>
   <tile gid="917"/>
   <tile gid="917"/>
   <tile gid="885"/>
   <tile gid="885"/>
   <tile gid="885"/>
   <tile gid="885"/>
   <tile gid="917"/>
   <tile gid="260"/>
   <tile gid="917"/>
   <tile gid="260"/>
   <tile gid="917"/>
   <tile gid="885"/>
   <tile gid="885"/>
   <tile gid="885"/>
   <tile gid="885"/>
   <tile gid="917"/>
   <tile gid="917"/>
   <tile gid="917"/>
   <tile gid="258"/>
   <tile gid="925"/>
   <tile gid="459"/>
   <tile gid="917"/>
   <tile gid="873"/>
   <tile gid="917"/>
   <tile gid="917"/>
   <tile gid="841"/>
   <tile gid="917"/>
   <tile gid="917"/>
   <tile gid="917"/>
   <tile gid="917"/>
   <tile gid="917"/>
   <tile gid="917"/>
   <tile gid="917"/>
   <tile gid="917"/>
   <tile gid="917"/>
   <tile gid="917"/>
   <tile gid="917"/>
   <tile gid="917"/>
   <tile gid="917"/>
   <tile gid="917"/>
   <tile gid="917"/>
   <tile gid="917"/>
   <tile gid="917"/>
   <tile gid="917"/>
   <tile gid="258"/>
   <tile gid="957"/>
   <tile gid="523"/>
   <tile gid="904"/>
   <tile gid="937"/>
   <tile gid="906"/>
   <tile gid="907"/>
   <tile gid="940"/>
   <tile gid="909"/>
   <tile gid="917"/>
   <tile gid="917"/>
   <tile gid="917"/>
   <tile gid="917"/>
   <tile gid="917"/>
   <tile gid="917"/>
   <tile gid="917"/>
   <tile gid="917"/>
   <tile gid="917"/>
   <tile gid="917"/>
   <tile gid="917"/>
   <tile gid="917"/>
   <tile gid="917"/>
   <tile gid="917"/>
   <tile gid="917"/>
   <tile gid="917"/>
   <tile gid="918"/>
   <tile gid="495"/>
   <tile gid="432"/>
   <tile gid="432"/>
   <tile gid="936"/>
   <tile gid="937"/>
   <tile gid="938"/>
   <tile gid="939"/>
   <tile gid="940"/>
   <tile gid="941"/>
   <tile gid="83"/>
   <tile gid="917"/>
   <tile gid="917"/>
   <tile gid="227"/>
   <tile gid="82"/>
   <tile gid="932"/>
   <tile gid="933"/>
   <tile gid="933"/>
   <tile gid="933"/>
   <tile gid="934"/>
   <tile gid="83"/>
   <tile gid="72"/>
   <tile gid="66"/>
   <tile gid="917"/>
   <tile gid="82"/>
   <tile gid="929"/>
   <tile gid="930"/>
   <tile gid="930"/>
   <tile gid="930"/>
   <tile gid="930"/>
   <tile gid="936"/>
   <tile gid="969"/>
   <tile gid="938"/>
   <tile gid="939"/>
   <tile gid="972"/>
   <tile gid="941"/>
   <tile gid="115"/>
   <tile gid="917"/>
   <tile gid="917"/>
   <tile gid="917"/>
   <tile gid="114"/>
   <tile gid="964"/>
   <tile gid="965"/>
   <tile gid="965"/>
   <tile gid="965"/>
   <tile gid="966"/>
   <tile gid="115"/>
   <tile gid="917"/>
   <tile gid="3"/>
   <tile gid="917"/>
   <tile gid="114"/>
   <tile gid="961"/>
   <tile gid="962"/>
   <tile gid="962"/>
   <tile gid="770"/>
   <tile gid="962"/>
   <tile gid="1000"/>
   <tile gid="1001"/>
   <tile gid="1002"/>
   <tile gid="1003"/>
   <tile gid="1004"/>
   <tile gid="1005"/>
   <tile gid="83"/>
   <tile gid="917"/>
   <tile gid="917"/>
   <tile gid="917"/>
   <tile gid="82"/>
   <tile gid="996"/>
   <tile gid="997"/>
   <tile gid="997"/>
   <tile gid="997"/>
   <tile gid="998"/>
   <tile gid="83"/>
   <tile gid="917"/>
   <tile gid="917"/>
   <tile gid="917"/>
   <tile gid="168"/>
   <tile gid="993"/>
   <tile gid="994"/>
   <tile gid="994"/>
   <tile gid="994"/>
   <tile gid="994"/>
   <tile gid="641"/>
   <tile gid="33"/>
   <tile gid="645"/>
   <tile gid="609"/>
   <tile gid="33"/>
   <tile gid="613"/>
   <tile gid="115"/>
   <tile gid="917"/>
   <tile gid="917"/>
   <tile gid="917"/>
   <tile gid="114"/>
   <tile gid="648"/>
   <tile gid="710"/>
   <tile gid="649"/>
   <tile gid="711"/>
   <tile gid="650"/>
   <tile gid="115"/>
   <tile gid="917"/>
   <tile gid="917"/>
   <tile gid="917"/>
   <tile gid="82"/>
   <tile gid="848"/>
   <tile gid="1001"/>
   <tile gid="1001"/>
   <tile gid="1001"/>
   <tile gid="1001"/>
   <tile gid="917"/>
   <tile gid="917"/>
   <tile gid="260"/>
   <tile gid="260"/>
   <tile gid="917"/>
   <tile gid="917"/>
   <tile gid="917"/>
   <tile gid="67"/>
   <tile gid="66"/>
   <tile gid="71"/>
   <tile gid="917"/>
   <tile gid="917"/>
   <tile gid="917"/>
   <tile gid="260"/>
   <tile gid="917"/>
   <tile gid="917"/>
   <tile gid="917"/>
   <tile gid="917"/>
   <tile gid="917"/>
   <tile gid="195"/>
   <tile gid="114"/>
   <tile gid="746"/>
   <tile gid="649"/>
   <tile gid="717"/>
   <tile gid="644"/>
   <tile gid="643"/>
  </data>
 </layer>
</map>
