<?xml version="1.0" encoding="UTF-8"?>
<map version="1.10" tiledversion="1.11.0" orientation="orthogonal" renderorder="right-down" width="35" height="30" tilewidth="16" tileheight="16" infinite="0" nextlayerid="2" nextobjectid="1">
 <tileset firstgid="1" name="08000905" tilewidth="16" tileheight="16" tilecount="1024" columns="32">
  <image source="08000905.png" trans="ffffff" width="512" height="512"/>
 </tileset>
 <layer id="1" name="Tile Layer 1" width="35" height="30">
  <properties>
   <property name="Anims1" value="0"/>
   <property name="Anims2" value="0"/>
   <property name="ChapterID" value="Stratum6F8"/>
   <property name="Main" value=""/>
   <property name="MapChangesID" value="0"/>
   <property name="MapID" value="Stratum6F8MapID"/>
   <property name="ObjectType" value="Tavern1OBJ"/>
   <property name="PaletteID" value="Tavern1PAL"/>
   <property name="TileConfig" value="TavernCONFIG"/>
  </properties>
  <data>
   <tile gid="2"/>
   <tile gid="2"/>
   <tile gid="2"/>
   <tile gid="2"/>
   <tile gid="2"/>
   <tile gid="2"/>
   <tile gid="2"/>
   <tile gid="2"/>
   <tile gid="2"/>
   <tile gid="389"/>
   <tile gid="2"/>
   <tile gid="2"/>
   <tile gid="389"/>
   <tile gid="2"/>
   <tile gid="2"/>
   <tile gid="2"/>
   <tile gid="360"/>
   <tile gid="360"/>
   <tile gid="360"/>
   <tile gid="2"/>
   <tile gid="2"/>
   <tile gid="2"/>
   <tile gid="2"/>
   <tile gid="2"/>
   <tile gid="2"/>
   <tile gid="2"/>
   <tile gid="2"/>
   <tile gid="2"/>
   <tile gid="2"/>
   <tile gid="2"/>
   <tile gid="2"/>
   <tile gid="2"/>
   <tile gid="2"/>
   <tile gid="2"/>
   <tile gid="2"/>
   <tile gid="389"/>
   <tile gid="389"/>
   <tile gid="389"/>
   <tile gid="389"/>
   <tile gid="389"/>
   <tile gid="389"/>
   <tile gid="389"/>
   <tile gid="389"/>
   <tile gid="2"/>
   <tile gid="389"/>
   <tile gid="2"/>
   <tile gid="2"/>
   <tile gid="389"/>
   <tile gid="389"/>
   <tile gid="389"/>
   <tile gid="2"/>
   <tile gid="360"/>
   <tile gid="360"/>
   <tile gid="360"/>
   <tile gid="2"/>
   <tile gid="389"/>
   <tile gid="389"/>
   <tile gid="389"/>
   <tile gid="389"/>
   <tile gid="389"/>
   <tile gid="389"/>
   <tile gid="389"/>
   <tile gid="389"/>
   <tile gid="389"/>
   <tile gid="389"/>
   <tile gid="389"/>
   <tile gid="389"/>
   <tile gid="2"/>
   <tile gid="389"/>
   <tile gid="389"/>
   <tile gid="389"/>
   <tile gid="2"/>
   <tile gid="2"/>
   <tile gid="2"/>
   <tile gid="2"/>
   <tile gid="2"/>
   <tile gid="2"/>
   <tile gid="389"/>
   <tile gid="2"/>
   <tile gid="389"/>
   <tile gid="2"/>
   <tile gid="389"/>
   <tile gid="389"/>
   <tile gid="389"/>
   <tile gid="2"/>
   <tile gid="2"/>
   <tile gid="389"/>
   <tile gid="389"/>
   <tile gid="389"/>
   <tile gid="2"/>
   <tile gid="2"/>
   <tile gid="389"/>
   <tile gid="389"/>
   <tile gid="2"/>
   <tile gid="2"/>
   <tile gid="2"/>
   <tile gid="2"/>
   <tile gid="2"/>
   <tile gid="2"/>
   <tile gid="2"/>
   <tile gid="2"/>
   <tile gid="389"/>
   <tile gid="2"/>
   <tile gid="389"/>
   <tile gid="389"/>
   <tile gid="2"/>
   <tile gid="2"/>
   <tile gid="389"/>
   <tile gid="389"/>
   <tile gid="389"/>
   <tile gid="389"/>
   <tile gid="389"/>
   <tile gid="389"/>
   <tile gid="2"/>
   <tile gid="389"/>
   <tile gid="2"/>
   <tile gid="2"/>
   <tile gid="389"/>
   <tile gid="2"/>
   <tile gid="2"/>
   <tile gid="389"/>
   <tile gid="389"/>
   <tile gid="389"/>
   <tile gid="389"/>
   <tile gid="389"/>
   <tile gid="2"/>
   <tile gid="2"/>
   <tile gid="389"/>
   <tile gid="389"/>
   <tile gid="389"/>
   <tile gid="389"/>
   <tile gid="389"/>
   <tile gid="389"/>
   <tile gid="389"/>
   <tile gid="389"/>
   <tile gid="2"/>
   <tile gid="389"/>
   <tile gid="2"/>
   <tile gid="389"/>
   <tile gid="2"/>
   <tile gid="2"/>
   <tile gid="2"/>
   <tile gid="2"/>
   <tile gid="2"/>
   <tile gid="2"/>
   <tile gid="2"/>
   <tile gid="389"/>
   <tile gid="389"/>
   <tile gid="2"/>
   <tile gid="389"/>
   <tile gid="389"/>
   <tile gid="2"/>
   <tile gid="389"/>
   <tile gid="2"/>
   <tile gid="389"/>
   <tile gid="389"/>
   <tile gid="389"/>
   <tile gid="389"/>
   <tile gid="389"/>
   <tile gid="389"/>
   <tile gid="389"/>
   <tile gid="2"/>
   <tile gid="2"/>
   <tile gid="389"/>
   <tile gid="2"/>
   <tile gid="389"/>
   <tile gid="2"/>
   <tile gid="389"/>
   <tile gid="2"/>
   <tile gid="389"/>
   <tile gid="2"/>
   <tile gid="389"/>
   <tile gid="2"/>
   <tile gid="389"/>
   <tile gid="2"/>
   <tile gid="2"/>
   <tile gid="389"/>
   <tile gid="2"/>
   <tile gid="389"/>
   <tile gid="389"/>
   <tile gid="389"/>
   <tile gid="389"/>
   <tile gid="2"/>
   <tile gid="2"/>
   <tile gid="389"/>
   <tile gid="2"/>
   <tile gid="2"/>
   <tile gid="389"/>
   <tile gid="389"/>
   <tile gid="389"/>
   <tile gid="389"/>
   <tile gid="389"/>
   <tile gid="389"/>
   <tile gid="389"/>
   <tile gid="389"/>
   <tile gid="389"/>
   <tile gid="389"/>
   <tile gid="2"/>
   <tile gid="389"/>
   <tile gid="2"/>
   <tile gid="389"/>
   <tile gid="2"/>
   <tile gid="389"/>
   <tile gid="2"/>
   <tile gid="389"/>
   <tile gid="2"/>
   <tile gid="389"/>
   <tile gid="2"/>
   <tile gid="389"/>
   <tile gid="2"/>
   <tile gid="2"/>
   <tile gid="389"/>
   <tile gid="2"/>
   <tile gid="389"/>
   <tile gid="2"/>
   <tile gid="389"/>
   <tile gid="389"/>
   <tile gid="389"/>
   <tile gid="2"/>
   <tile gid="389"/>
   <tile gid="389"/>
   <tile gid="2"/>
   <tile gid="2"/>
   <tile gid="389"/>
   <tile gid="389"/>
   <tile gid="389"/>
   <tile gid="389"/>
   <tile gid="389"/>
   <tile gid="389"/>
   <tile gid="389"/>
   <tile gid="389"/>
   <tile gid="389"/>
   <tile gid="2"/>
   <tile gid="389"/>
   <tile gid="2"/>
   <tile gid="389"/>
   <tile gid="2"/>
   <tile gid="389"/>
   <tile gid="2"/>
   <tile gid="389"/>
   <tile gid="2"/>
   <tile gid="389"/>
   <tile gid="2"/>
   <tile gid="389"/>
   <tile gid="2"/>
   <tile gid="2"/>
   <tile gid="389"/>
   <tile gid="2"/>
   <tile gid="389"/>
   <tile gid="2"/>
   <tile gid="2"/>
   <tile gid="2"/>
   <tile gid="389"/>
   <tile gid="2"/>
   <tile gid="2"/>
   <tile gid="389"/>
   <tile gid="389"/>
   <tile gid="2"/>
   <tile gid="2"/>
   <tile gid="389"/>
   <tile gid="389"/>
   <tile gid="389"/>
   <tile gid="389"/>
   <tile gid="389"/>
   <tile gid="389"/>
   <tile gid="389"/>
   <tile gid="2"/>
   <tile gid="2"/>
   <tile gid="389"/>
   <tile gid="2"/>
   <tile gid="389"/>
   <tile gid="2"/>
   <tile gid="389"/>
   <tile gid="2"/>
   <tile gid="389"/>
   <tile gid="2"/>
   <tile gid="389"/>
   <tile gid="2"/>
   <tile gid="389"/>
   <tile gid="2"/>
   <tile gid="2"/>
   <tile gid="389"/>
   <tile gid="389"/>
   <tile gid="389"/>
   <tile gid="389"/>
   <tile gid="389"/>
   <tile gid="2"/>
   <tile gid="389"/>
   <tile gid="389"/>
   <tile gid="2"/>
   <tile gid="2"/>
   <tile gid="389"/>
   <tile gid="389"/>
   <tile gid="2"/>
   <tile gid="2"/>
   <tile gid="389"/>
   <tile gid="389"/>
   <tile gid="389"/>
   <tile gid="389"/>
   <tile gid="389"/>
   <tile gid="2"/>
   <tile gid="2"/>
   <tile gid="2"/>
   <tile gid="2"/>
   <tile gid="2"/>
   <tile gid="389"/>
   <tile gid="2"/>
   <tile gid="389"/>
   <tile gid="2"/>
   <tile gid="389"/>
   <tile gid="2"/>
   <tile gid="389"/>
   <tile gid="389"/>
   <tile gid="389"/>
   <tile gid="2"/>
   <tile gid="2"/>
   <tile gid="389"/>
   <tile gid="389"/>
   <tile gid="389"/>
   <tile gid="389"/>
   <tile gid="389"/>
   <tile gid="2"/>
   <tile gid="389"/>
   <tile gid="389"/>
   <tile gid="389"/>
   <tile gid="2"/>
   <tile gid="2"/>
   <tile gid="389"/>
   <tile gid="389"/>
   <tile gid="2"/>
   <tile gid="2"/>
   <tile gid="389"/>
   <tile gid="389"/>
   <tile gid="389"/>
   <tile gid="2"/>
   <tile gid="2"/>
   <tile gid="389"/>
   <tile gid="389"/>
   <tile gid="2"/>
   <tile gid="2"/>
   <tile gid="2"/>
   <tile gid="2"/>
   <tile gid="389"/>
   <tile gid="2"/>
   <tile gid="2"/>
   <tile gid="2"/>
   <tile gid="2"/>
   <tile gid="2"/>
   <tile gid="2"/>
   <tile gid="2"/>
   <tile gid="389"/>
   <tile gid="389"/>
   <tile gid="389"/>
   <tile gid="2"/>
   <tile gid="2"/>
   <tile gid="389"/>
   <tile gid="2"/>
   <tile gid="2"/>
   <tile gid="2"/>
   <tile gid="389"/>
   <tile gid="389"/>
   <tile gid="2"/>
   <tile gid="389"/>
   <tile gid="389"/>
   <tile gid="389"/>
   <tile gid="2"/>
   <tile gid="2"/>
   <tile gid="2"/>
   <tile gid="2"/>
   <tile gid="2"/>
   <tile gid="389"/>
   <tile gid="389"/>
   <tile gid="389"/>
   <tile gid="389"/>
   <tile gid="389"/>
   <tile gid="2"/>
   <tile gid="389"/>
   <tile gid="389"/>
   <tile gid="389"/>
   <tile gid="389"/>
   <tile gid="389"/>
   <tile gid="2"/>
   <tile gid="389"/>
   <tile gid="389"/>
   <tile gid="389"/>
   <tile gid="389"/>
   <tile gid="389"/>
   <tile gid="389"/>
   <tile gid="389"/>
   <tile gid="2"/>
   <tile gid="2"/>
   <tile gid="2"/>
   <tile gid="389"/>
   <tile gid="2"/>
   <tile gid="389"/>
   <tile gid="389"/>
   <tile gid="2"/>
   <tile gid="2"/>
   <tile gid="389"/>
   <tile gid="389"/>
   <tile gid="389"/>
   <tile gid="389"/>
   <tile gid="389"/>
   <tile gid="389"/>
   <tile gid="389"/>
   <tile gid="389"/>
   <tile gid="2"/>
   <tile gid="2"/>
   <tile gid="2"/>
   <tile gid="389"/>
   <tile gid="2"/>
   <tile gid="2"/>
   <tile gid="2"/>
   <tile gid="2"/>
   <tile gid="389"/>
   <tile gid="2"/>
   <tile gid="2"/>
   <tile gid="389"/>
   <tile gid="389"/>
   <tile gid="389"/>
   <tile gid="2"/>
   <tile gid="389"/>
   <tile gid="389"/>
   <tile gid="389"/>
   <tile gid="389"/>
   <tile gid="389"/>
   <tile gid="389"/>
   <tile gid="389"/>
   <tile gid="2"/>
   <tile gid="389"/>
   <tile gid="389"/>
   <tile gid="389"/>
   <tile gid="2"/>
   <tile gid="2"/>
   <tile gid="389"/>
   <tile gid="389"/>
   <tile gid="389"/>
   <tile gid="389"/>
   <tile gid="389"/>
   <tile gid="389"/>
   <tile gid="389"/>
   <tile gid="389"/>
   <tile gid="389"/>
   <tile gid="2"/>
   <tile gid="389"/>
   <tile gid="389"/>
   <tile gid="389"/>
   <tile gid="389"/>
   <tile gid="389"/>
   <tile gid="389"/>
   <tile gid="2"/>
   <tile gid="389"/>
   <tile gid="389"/>
   <tile gid="2"/>
   <tile gid="2"/>
   <tile gid="2"/>
   <tile gid="389"/>
   <tile gid="389"/>
   <tile gid="2"/>
   <tile gid="2"/>
   <tile gid="2"/>
   <tile gid="389"/>
   <tile gid="389"/>
   <tile gid="2"/>
   <tile gid="389"/>
   <tile gid="389"/>
   <tile gid="389"/>
   <tile gid="389"/>
   <tile gid="2"/>
   <tile gid="389"/>
   <tile gid="2"/>
   <tile gid="2"/>
   <tile gid="2"/>
   <tile gid="2"/>
   <tile gid="2"/>
   <tile gid="2"/>
   <tile gid="2"/>
   <tile gid="2"/>
   <tile gid="2"/>
   <tile gid="2"/>
   <tile gid="2"/>
   <tile gid="2"/>
   <tile gid="2"/>
   <tile gid="2"/>
   <tile gid="2"/>
   <tile gid="2"/>
   <tile gid="389"/>
   <tile gid="389"/>
   <tile gid="389"/>
   <tile gid="2"/>
   <tile gid="2"/>
   <tile gid="389"/>
   <tile gid="389"/>
   <tile gid="2"/>
   <tile gid="389"/>
   <tile gid="2"/>
   <tile gid="2"/>
   <tile gid="2"/>
   <tile gid="2"/>
   <tile gid="2"/>
   <tile gid="2"/>
   <tile gid="2"/>
   <tile gid="2"/>
   <tile gid="2"/>
   <tile gid="389"/>
   <tile gid="2"/>
   <tile gid="389"/>
   <tile gid="389"/>
   <tile gid="389"/>
   <tile gid="389"/>
   <tile gid="2"/>
   <tile gid="389"/>
   <tile gid="389"/>
   <tile gid="389"/>
   <tile gid="389"/>
   <tile gid="389"/>
   <tile gid="389"/>
   <tile gid="389"/>
   <tile gid="389"/>
   <tile gid="389"/>
   <tile gid="2"/>
   <tile gid="2"/>
   <tile gid="2"/>
   <tile gid="389"/>
   <tile gid="2"/>
   <tile gid="2"/>
   <tile gid="2"/>
   <tile gid="2"/>
   <tile gid="2"/>
   <tile gid="389"/>
   <tile gid="2"/>
   <tile gid="389"/>
   <tile gid="389"/>
   <tile gid="389"/>
   <tile gid="389"/>
   <tile gid="389"/>
   <tile gid="389"/>
   <tile gid="2"/>
   <tile gid="2"/>
   <tile gid="2"/>
   <tile gid="2"/>
   <tile gid="389"/>
   <tile gid="2"/>
   <tile gid="389"/>
   <tile gid="389"/>
   <tile gid="389"/>
   <tile gid="389"/>
   <tile gid="2"/>
   <tile gid="389"/>
   <tile gid="2"/>
   <tile gid="2"/>
   <tile gid="2"/>
   <tile gid="2"/>
   <tile gid="2"/>
   <tile gid="389"/>
   <tile gid="389"/>
   <tile gid="389"/>
   <tile gid="2"/>
   <tile gid="389"/>
   <tile gid="2"/>
   <tile gid="2"/>
   <tile gid="2"/>
   <tile gid="389"/>
   <tile gid="389"/>
   <tile gid="389"/>
   <tile gid="2"/>
   <tile gid="389"/>
   <tile gid="2"/>
   <tile gid="2"/>
   <tile gid="2"/>
   <tile gid="2"/>
   <tile gid="389"/>
   <tile gid="389"/>
   <tile gid="389"/>
   <tile gid="389"/>
   <tile gid="2"/>
   <tile gid="389"/>
   <tile gid="2"/>
   <tile gid="2"/>
   <tile gid="2"/>
   <tile gid="2"/>
   <tile gid="2"/>
   <tile gid="2"/>
   <tile gid="2"/>
   <tile gid="2"/>
   <tile gid="389"/>
   <tile gid="389"/>
   <tile gid="389"/>
   <tile gid="2"/>
   <tile gid="2"/>
   <tile gid="389"/>
   <tile gid="389"/>
   <tile gid="389"/>
   <tile gid="389"/>
   <tile gid="2"/>
   <tile gid="2"/>
   <tile gid="2"/>
   <tile gid="389"/>
   <tile gid="2"/>
   <tile gid="389"/>
   <tile gid="2"/>
   <tile gid="389"/>
   <tile gid="2"/>
   <tile gid="389"/>
   <tile gid="2"/>
   <tile gid="2"/>
   <tile gid="389"/>
   <tile gid="2"/>
   <tile gid="389"/>
   <tile gid="389"/>
   <tile gid="2"/>
   <tile gid="389"/>
   <tile gid="389"/>
   <tile gid="389"/>
   <tile gid="389"/>
   <tile gid="389"/>
   <tile gid="389"/>
   <tile gid="2"/>
   <tile gid="389"/>
   <tile gid="389"/>
   <tile gid="389"/>
   <tile gid="389"/>
   <tile gid="389"/>
   <tile gid="389"/>
   <tile gid="2"/>
   <tile gid="2"/>
   <tile gid="2"/>
   <tile gid="389"/>
   <tile gid="389"/>
   <tile gid="2"/>
   <tile gid="2"/>
   <tile gid="389"/>
   <tile gid="389"/>
   <tile gid="2"/>
   <tile gid="389"/>
   <tile gid="2"/>
   <tile gid="389"/>
   <tile gid="2"/>
   <tile gid="389"/>
   <tile gid="389"/>
   <tile gid="389"/>
   <tile gid="389"/>
   <tile gid="2"/>
   <tile gid="2"/>
   <tile gid="389"/>
   <tile gid="2"/>
   <tile gid="2"/>
   <tile gid="389"/>
   <tile gid="2"/>
   <tile gid="389"/>
   <tile gid="2"/>
   <tile gid="389"/>
   <tile gid="2"/>
   <tile gid="389"/>
   <tile gid="389"/>
   <tile gid="389"/>
   <tile gid="389"/>
   <tile gid="389"/>
   <tile gid="389"/>
   <tile gid="2"/>
   <tile gid="389"/>
   <tile gid="2"/>
   <tile gid="389"/>
   <tile gid="389"/>
   <tile gid="2"/>
   <tile gid="2"/>
   <tile gid="389"/>
   <tile gid="2"/>
   <tile gid="2"/>
   <tile gid="389"/>
   <tile gid="2"/>
   <tile gid="2"/>
   <tile gid="2"/>
   <tile gid="389"/>
   <tile gid="2"/>
   <tile gid="2"/>
   <tile gid="2"/>
   <tile gid="2"/>
   <tile gid="389"/>
   <tile gid="389"/>
   <tile gid="389"/>
   <tile gid="2"/>
   <tile gid="2"/>
   <tile gid="2"/>
   <tile gid="2"/>
   <tile gid="2"/>
   <tile gid="389"/>
   <tile gid="2"/>
   <tile gid="389"/>
   <tile gid="389"/>
   <tile gid="389"/>
   <tile gid="389"/>
   <tile gid="389"/>
   <tile gid="389"/>
   <tile gid="2"/>
   <tile gid="389"/>
   <tile gid="389"/>
   <tile gid="389"/>
   <tile gid="389"/>
   <tile gid="2"/>
   <tile gid="2"/>
   <tile gid="389"/>
   <tile gid="2"/>
   <tile gid="2"/>
   <tile gid="389"/>
   <tile gid="389"/>
   <tile gid="389"/>
   <tile gid="389"/>
   <tile gid="389"/>
   <tile gid="389"/>
   <tile gid="389"/>
   <tile gid="389"/>
   <tile gid="2"/>
   <tile gid="2"/>
   <tile gid="389"/>
   <tile gid="389"/>
   <tile gid="389"/>
   <tile gid="389"/>
   <tile gid="389"/>
   <tile gid="389"/>
   <tile gid="389"/>
   <tile gid="389"/>
   <tile gid="2"/>
   <tile gid="389"/>
   <tile gid="2"/>
   <tile gid="389"/>
   <tile gid="389"/>
   <tile gid="389"/>
   <tile gid="2"/>
   <tile gid="2"/>
   <tile gid="2"/>
   <tile gid="2"/>
   <tile gid="2"/>
   <tile gid="2"/>
   <tile gid="2"/>
   <tile gid="2"/>
   <tile gid="389"/>
   <tile gid="389"/>
   <tile gid="2"/>
   <tile gid="2"/>
   <tile gid="2"/>
   <tile gid="2"/>
   <tile gid="2"/>
   <tile gid="2"/>
   <tile gid="2"/>
   <tile gid="2"/>
   <tile gid="389"/>
   <tile gid="389"/>
   <tile gid="2"/>
   <tile gid="389"/>
   <tile gid="2"/>
   <tile gid="2"/>
   <tile gid="2"/>
   <tile gid="2"/>
   <tile gid="2"/>
   <tile gid="2"/>
   <tile gid="2"/>
   <tile gid="2"/>
   <tile gid="389"/>
   <tile gid="2"/>
   <tile gid="2"/>
   <tile gid="2"/>
   <tile gid="2"/>
   <tile gid="2"/>
   <tile gid="389"/>
   <tile gid="389"/>
   <tile gid="389"/>
   <tile gid="389"/>
   <tile gid="389"/>
   <tile gid="2"/>
   <tile gid="2"/>
   <tile gid="2"/>
   <tile gid="389"/>
   <tile gid="2"/>
   <tile gid="389"/>
   <tile gid="389"/>
   <tile gid="2"/>
   <tile gid="389"/>
   <tile gid="2"/>
   <tile gid="389"/>
   <tile gid="389"/>
   <tile gid="389"/>
   <tile gid="389"/>
   <tile gid="2"/>
   <tile gid="389"/>
   <tile gid="2"/>
   <tile gid="389"/>
   <tile gid="2"/>
   <tile gid="389"/>
   <tile gid="389"/>
   <tile gid="389"/>
   <tile gid="389"/>
   <tile gid="389"/>
   <tile gid="389"/>
   <tile gid="389"/>
   <tile gid="2"/>
   <tile gid="389"/>
   <tile gid="389"/>
   <tile gid="389"/>
   <tile gid="389"/>
   <tile gid="389"/>
   <tile gid="2"/>
   <tile gid="2"/>
   <tile gid="389"/>
   <tile gid="2"/>
   <tile gid="2"/>
   <tile gid="2"/>
   <tile gid="389"/>
   <tile gid="389"/>
   <tile gid="389"/>
   <tile gid="389"/>
   <tile gid="2"/>
   <tile gid="389"/>
   <tile gid="2"/>
   <tile gid="389"/>
   <tile gid="389"/>
   <tile gid="389"/>
   <tile gid="389"/>
   <tile gid="2"/>
   <tile gid="389"/>
   <tile gid="2"/>
   <tile gid="389"/>
   <tile gid="2"/>
   <tile gid="389"/>
   <tile gid="2"/>
   <tile gid="2"/>
   <tile gid="2"/>
   <tile gid="2"/>
   <tile gid="2"/>
   <tile gid="2"/>
   <tile gid="2"/>
   <tile gid="2"/>
   <tile gid="2"/>
   <tile gid="2"/>
   <tile gid="2"/>
   <tile gid="2"/>
   <tile gid="2"/>
   <tile gid="389"/>
   <tile gid="389"/>
   <tile gid="2"/>
   <tile gid="2"/>
   <tile gid="389"/>
   <tile gid="389"/>
   <tile gid="389"/>
   <tile gid="389"/>
   <tile gid="389"/>
   <tile gid="2"/>
   <tile gid="389"/>
   <tile gid="2"/>
   <tile gid="389"/>
   <tile gid="389"/>
   <tile gid="389"/>
   <tile gid="389"/>
   <tile gid="2"/>
   <tile gid="2"/>
   <tile gid="2"/>
   <tile gid="389"/>
   <tile gid="389"/>
   <tile gid="389"/>
   <tile gid="2"/>
   <tile gid="389"/>
   <tile gid="389"/>
   <tile gid="389"/>
   <tile gid="2"/>
   <tile gid="389"/>
   <tile gid="389"/>
   <tile gid="389"/>
   <tile gid="2"/>
   <tile gid="389"/>
   <tile gid="389"/>
   <tile gid="389"/>
   <tile gid="2"/>
   <tile gid="389"/>
   <tile gid="389"/>
   <tile gid="2"/>
   <tile gid="2"/>
   <tile gid="389"/>
   <tile gid="389"/>
   <tile gid="389"/>
   <tile gid="389"/>
   <tile gid="389"/>
   <tile gid="2"/>
   <tile gid="389"/>
   <tile gid="2"/>
   <tile gid="389"/>
   <tile gid="389"/>
   <tile gid="389"/>
   <tile gid="389"/>
   <tile gid="389"/>
   <tile gid="389"/>
   <tile gid="389"/>
   <tile gid="389"/>
   <tile gid="389"/>
   <tile gid="389"/>
   <tile gid="2"/>
   <tile gid="389"/>
   <tile gid="2"/>
   <tile gid="389"/>
   <tile gid="2"/>
   <tile gid="389"/>
   <tile gid="2"/>
   <tile gid="389"/>
   <tile gid="2"/>
   <tile gid="389"/>
   <tile gid="2"/>
   <tile gid="389"/>
   <tile gid="2"/>
   <tile gid="389"/>
   <tile gid="2"/>
   <tile gid="2"/>
   <tile gid="2"/>
   <tile gid="389"/>
   <tile gid="389"/>
   <tile gid="2"/>
   <tile gid="2"/>
   <tile gid="389"/>
   <tile gid="2"/>
   <tile gid="389"/>
   <tile gid="2"/>
   <tile gid="2"/>
   <tile gid="2"/>
   <tile gid="2"/>
   <tile gid="2"/>
   <tile gid="2"/>
   <tile gid="2"/>
   <tile gid="2"/>
   <tile gid="389"/>
   <tile gid="389"/>
   <tile gid="389"/>
   <tile gid="2"/>
   <tile gid="389"/>
   <tile gid="2"/>
   <tile gid="389"/>
   <tile gid="2"/>
   <tile gid="389"/>
   <tile gid="2"/>
   <tile gid="389"/>
   <tile gid="2"/>
   <tile gid="389"/>
   <tile gid="2"/>
   <tile gid="389"/>
   <tile gid="2"/>
   <tile gid="389"/>
   <tile gid="389"/>
   <tile gid="2"/>
   <tile gid="2"/>
   <tile gid="389"/>
   <tile gid="2"/>
   <tile gid="2"/>
   <tile gid="389"/>
   <tile gid="389"/>
   <tile gid="2"/>
   <tile gid="389"/>
   <tile gid="2"/>
   <tile gid="389"/>
   <tile gid="389"/>
   <tile gid="389"/>
   <tile gid="389"/>
   <tile gid="2"/>
   <tile gid="389"/>
   <tile gid="2"/>
   <tile gid="389"/>
   <tile gid="389"/>
   <tile gid="389"/>
   <tile gid="2"/>
   <tile gid="389"/>
   <tile gid="2"/>
   <tile gid="389"/>
   <tile gid="2"/>
   <tile gid="389"/>
   <tile gid="2"/>
   <tile gid="389"/>
   <tile gid="2"/>
   <tile gid="389"/>
   <tile gid="2"/>
   <tile gid="389"/>
   <tile gid="2"/>
   <tile gid="389"/>
   <tile gid="2"/>
   <tile gid="2"/>
   <tile gid="2"/>
   <tile gid="389"/>
   <tile gid="389"/>
   <tile gid="389"/>
   <tile gid="389"/>
   <tile gid="389"/>
   <tile gid="2"/>
   <tile gid="389"/>
   <tile gid="389"/>
   <tile gid="389"/>
   <tile gid="2"/>
   <tile gid="2"/>
   <tile gid="389"/>
   <tile gid="2"/>
   <tile gid="389"/>
   <tile gid="389"/>
   <tile gid="325"/>
   <tile gid="326"/>
   <tile gid="327"/>
   <tile gid="389"/>
   <tile gid="389"/>
   <tile gid="2"/>
   <tile gid="389"/>
   <tile gid="389"/>
   <tile gid="389"/>
   <tile gid="2"/>
   <tile gid="389"/>
   <tile gid="389"/>
   <tile gid="389"/>
   <tile gid="2"/>
   <tile gid="389"/>
   <tile gid="389"/>
   <tile gid="389"/>
   <tile gid="389"/>
   <tile gid="2"/>
   <tile gid="2"/>
   <tile gid="2"/>
   <tile gid="2"/>
   <tile gid="2"/>
   <tile gid="2"/>
   <tile gid="2"/>
   <tile gid="2"/>
   <tile gid="2"/>
   <tile gid="2"/>
   <tile gid="389"/>
   <tile gid="2"/>
   <tile gid="2"/>
   <tile gid="389"/>
   <tile gid="2"/>
   <tile gid="2"/>
   <tile gid="2"/>
   <tile gid="357"/>
   <tile gid="358"/>
   <tile gid="359"/>
   <tile gid="2"/>
   <tile gid="2"/>
   <tile gid="2"/>
   <tile gid="2"/>
   <tile gid="2"/>
   <tile gid="2"/>
   <tile gid="2"/>
   <tile gid="2"/>
   <tile gid="2"/>
   <tile gid="2"/>
   <tile gid="2"/>
   <tile gid="2"/>
   <tile gid="2"/>
   <tile gid="2"/>
   <tile gid="2"/>
   <tile gid="2"/>
  </data>
 </layer>
</map>
